Ted-Mellow/Robot-Rave---Bodhisattva-/videoplayback.1768755854126.publer.com_joints.csv
time,joint1,joint2,joint3,joint4,joint5,joint6,description
0.160,-2.2825,2.2432,-0.6018,0.0000,0.0000,0.0000,Frame 4
0.200,-0.7177,2.4089,-0.5349,0.0000,0.0000,0.0000,Frame 5
0.240,-0.7355,2.4091,-0.4875,0.0000,0.0000,0.0000,Frame 6
0.280,-0.7133,2.4437,-0.6121,0.0000,0.0000,0.0000,Frame 7
0.320,-0.5773,2.5792,-1.0181,0.0000,0.0000,0.0000,Frame 8
0.360,-0.7755,2.3958,-0.5522,0.0000,0.0000,0.0000,Frame 9
0.400,-0.5870,2.5779,-1.0143,0.0000,0.0000,0.0000,Frame 10
0.440,-0.7539,2.4284,-0.5295,0.0000,0.0000,0.0000,Frame 11
0.480,-0.8441,2.3485,-0.5058,0.0000,0.0000,0.0000,Frame 12
0.520,-0.9156,2.2763,-0.4658,0.0000,0.0000,0.0000,Frame 13
0.560,-0.9421,2.2630,-0.1322,0.0000,0.0000,0.0000,Frame 14
0.600,-0.9779,2.2373,-0.4114,0.0000,0.0000,0.0000,Frame 15
0.640,-1.1006,2.1998,-0.4766,0.0000,0.0000,0.0000,Frame 16
0.680,-1.2164,2.2630,-0.3516,0.0000,0.0000,0.0000,Frame 17
0.720,-1.3697,2.9533,-0.0751,0.0000,0.0000,0.0000,Frame 18
0.760,-1.4521,2.8299,-0.0795,0.0000,0.0000,0.0000,Frame 19
0.800,-1.4726,2.7221,-0.0798,0.0000,0.0000,0.0000,Frame 20
0.840,-1.4917,2.3388,-0.1043,0.0000,0.0000,0.0000,Frame 21
0.880,-1.5243,2.8255,-0.1380,0.0000,0.0000,0.0000,Frame 22
0.920,-1.5323,2.9300,-0.2505,0.0000,0.0000,0.0000,Frame 23
0.960,-1.5287,2.3862,-0.2981,0.0000,0.0000,0.0000,Frame 24
1.000,-1.5301,2.3471,-0.4086,0.0000,0.0000,0.0000,Frame 25
1.040,-1.5349,2.3006,-0.4674,0.0000,0.0000,0.0000,Frame 26
1.080,-1.5347,2.2394,-0.5428,0.0000,0.0000,0.0000,Frame 27
1.120,-1.5236,2.2569,-0.5512,0.0000,0.0000,0.0000,Frame 28
1.160,-1.5281,2.2293,-0.5961,0.0000,0.0000,0.0000,Frame 29
1.200,-1.5333,2.2411,-0.6037,0.0000,0.0000,0.0000,Frame 30
1.240,-1.5305,2.3136,-0.6798,0.0000,0.0000,0.0000,Frame 31
1.280,-1.5348,2.2842,-0.6504,0.0000,0.0000,0.0000,Frame 32
1.320,-1.5354,2.2935,-0.6942,0.0000,0.0000,0.0000,Frame 33
1.360,-1.5330,2.2994,-0.7109,0.0000,0.0000,0.0000,Frame 34
1.400,-1.5250,2.3427,-0.8179,0.0000,0.0000,0.0000,Frame 35
1.440,-1.5182,2.4258,-0.8412,0.0000,0.0000,0.0000,Frame 36
1.480,-1.5172,2.3892,-0.6882,0.0000,0.0000,0.0000,Frame 37
1.520,-1.5139,2.3151,-0.6051,0.0000,0.0000,0.0000,Frame 38
1.560,-1.5100,2.2806,-0.6180,0.0000,0.0000,0.0000,Frame 39
1.600,-1.5117,2.2336,-0.6004,0.0000,0.0000,0.0000,Frame 40
1.640,-1.5169,2.1746,-0.5808,0.0000,0.0000,0.0000,Frame 41
1.680,-1.5103,2.1814,-0.5885,0.0000,0.0000,0.0000,Frame 42
1.720,-1.5037,2.1977,-0.5480,0.0000,0.0000,0.0000,Frame 43
1.760,-1.4960,2.1831,-0.5464,0.0000,0.0000,0.0000,Frame 44
1.800,-1.4763,2.2057,-0.5275,0.0000,0.0000,0.0000,Frame 45
1.840,-1.4639,2.2252,-0.5205,0.0000,0.0000,0.0000,Frame 46
1.880,-1.4525,2.2028,-0.4793,0.0000,0.0000,0.0000,Frame 47
1.920,-1.4378,2.2737,-0.4539,0.0000,0.0000,0.0000,Frame 48
1.960,-1.4259,2.2493,-0.4046,0.0000,0.0000,0.0000,Frame 49
2.000,-1.4170,2.3898,-0.2700,0.0000,0.0000,0.0000,Frame 50
2.040,-1.3854,2.5075,-0.3218,0.0000,0.0000,0.0000,Frame 51
2.080,-1.3420,2.7237,-0.3214,0.0000,0.0000,0.0000,Frame 52
2.120,-1.2162,2.9866,-0.3313,0.0000,0.0000,0.0000,Frame 53
2.160,-0.8621,3.0624,-0.6742,0.0000,0.0000,0.0000,Frame 54
2.200,-0.7651,2.8592,-0.7004,0.0000,0.0000,0.0000,Frame 55
2.240,-0.7595,2.9336,-0.7548,0.0000,0.0000,0.0000,Frame 56
2.280,-0.8837,2.8522,-0.5187,0.0000,0.0000,0.0000,Frame 57
2.320,-0.7758,3.0153,-0.7983,0.0000,0.0000,0.0000,Frame 58
2.360,-0.7129,2.6307,-1.2791,0.0000,0.0000,0.0000,Frame 59
2.400,-0.5462,2.6555,-1.5064,0.0000,0.0000,0.0000,Frame 60
2.440,-0.4974,2.6734,-1.4560,0.0000,0.0000,0.0000,Frame 61
2.480,-0.5065,2.6561,-1.4281,0.0000,0.0000,0.0000,Frame 62
2.520,-0.4394,2.7242,-1.5299,0.0000,0.0000,0.0000,Frame 63
2.560,-0.4759,2.6779,-1.3464,0.0000,0.0000,0.0000,Frame 64
2.600,-0.6917,2.7498,-0.9512,0.0000,0.0000,0.0000,Frame 65
2.640,-0.6562,2.6994,-0.6983,0.0000,0.0000,0.0000,Frame 66
2.680,-0.7436,2.6864,-0.6671,0.0000,0.0000,0.0000,Frame 67
2.720,-0.8238,2.5200,-0.6422,0.0000,0.0000,0.0000,Frame 68
2.760,-0.8865,2.4050,-0.5560,0.0000,0.0000,0.0000,Frame 69
2.800,-0.8843,2.3750,-0.4879,0.0000,0.0000,0.0000,Frame 70
2.840,-0.8618,2.3809,-0.6864,0.0000,0.0000,0.0000,Frame 71
2.880,-0.9168,2.3528,-0.6287,0.0000,0.0000,0.0000,Frame 72
2.920,-0.8710,2.3697,-0.7554,0.0000,0.0000,0.0000,Frame 73
2.960,-0.8469,2.3877,-0.8558,0.0000,0.0000,0.0000,Frame 74
3.000,-0.8535,2.3500,-0.9024,0.0000,0.0000,0.0000,Frame 75
3.040,-0.8493,2.3718,-0.8434,0.0000,0.0000,0.0000,Frame 76
3.080,-0.8270,2.4232,-0.6120,0.0000,0.0000,0.0000,Frame 77
3.120,-0.7619,2.5092,-0.8117,0.0000,0.0000,0.0000,Frame 78
3.160,-0.6952,2.6893,-1.0198,0.0000,0.0000,0.0000,Frame 79
3.200,-0.7225,2.7045,-0.8054,0.0000,0.0000,0.0000,Frame 80
3.240,-0.7380,2.6656,-0.8112,0.0000,0.0000,0.0000,Frame 81
3.280,-0.6868,2.9327,-0.7178,0.0000,0.0000,0.0000,Frame 82
3.320,-0.8523,2.8637,-0.4496,0.0000,0.0000,0.0000,Frame 83
3.360,-0.9457,3.0173,-0.4788,0.0000,0.0000,0.0000,Frame 84
3.400,-0.7383,2.8040,-0.8553,0.0000,0.0000,0.0000,Frame 85
3.440,-0.6804,2.8055,-1.0300,0.0000,0.0000,0.0000,Frame 86
3.480,-0.5326,2.6817,-1.5082,0.0000,0.0000,0.0000,Frame 87
3.520,-0.4867,2.8003,-1.4752,0.0000,0.0000,0.0000,Frame 88
3.560,-0.3371,2.8406,-1.3039,0.0000,0.0000,0.0000,Frame 89
3.600,-0.5111,2.6795,-1.3887,0.0000,0.0000,0.0000,Frame 90
3.640,-0.5598,2.6284,-1.3738,0.0000,0.0000,0.0000,Frame 91
3.680,-0.7589,2.6129,-1.0194,0.0000,0.0000,0.0000,Frame 92
3.720,-0.8360,2.7996,-0.9854,0.0000,0.0000,0.0000,Frame 93
3.760,-0.8488,2.8145,-0.8660,0.0000,0.0000,0.0000,Frame 94
3.800,-0.9160,2.4779,-0.4922,0.0000,0.0000,0.0000,Frame 95
3.840,-0.9261,2.4232,-0.4496,0.0000,0.0000,0.0000,Frame 96
3.880,-0.8725,2.3988,-0.6465,0.0000,0.0000,0.0000,Frame 97
3.920,-0.8240,2.4396,-0.7779,0.0000,0.0000,0.0000,Frame 98
3.960,-0.8130,2.4176,-0.7931,0.0000,0.0000,0.0000,Frame 99
4.000,-0.8345,2.4059,-0.7838,0.0000,0.0000,0.0000,Frame 100
4.040,-0.8062,2.4086,-0.7347,0.0000,0.0000,0.0000,Frame 101
4.080,-0.8131,2.4223,-0.4255,0.0000,0.0000,0.0000,Frame 102
4.120,-0.8351,2.3925,-0.4195,0.0000,0.0000,0.0000,Frame 103
4.160,-0.8621,2.3767,-0.3527,0.0000,0.0000,0.0000,Frame 104
4.200,-0.7400,2.4480,-0.6187,0.0000,0.0000,0.0000,Frame 105
4.240,-0.7448,2.4401,-0.5800,0.0000,0.0000,0.0000,Frame 106
4.280,-0.7943,2.4273,-0.6903,0.0000,0.0000,0.0000,Frame 107
4.320,-0.7259,2.4529,-0.8370,0.0000,0.0000,0.0000,Frame 108
4.360,-0.7096,2.4589,-0.8157,0.0000,0.0000,0.0000,Frame 109
4.400,-0.7195,2.4545,-0.9103,0.0000,0.0000,0.0000,Frame 110
4.440,-0.7198,2.4546,-0.9177,0.0000,0.0000,0.0000,Frame 111
4.480,-0.7321,2.4566,-0.8471,0.0000,0.0000,0.0000,Frame 112
4.520,-0.7447,2.4642,-0.7774,0.0000,0.0000,0.0000,Frame 113
4.560,-0.7392,2.4685,-0.7939,0.0000,0.0000,0.0000,Frame 114
4.600,-0.7871,2.4330,-0.7095,0.0000,0.0000,0.0000,Frame 115
4.640,-0.7644,2.4502,-0.7585,0.0000,0.0000,0.0000,Frame 116
4.680,-0.7983,2.4405,-0.7522,0.0000,0.0000,0.0000,Frame 117
4.720,-1.1045,2.8660,-0.4232,0.0000,0.0000,0.0000,Frame 118
4.760,-1.3446,2.6242,-0.2956,0.0000,0.0000,0.0000,Frame 119
4.800,-1.4240,2.3839,-0.3568,0.0000,0.0000,0.0000,Frame 120
4.840,-1.4968,2.1842,-0.4723,0.0000,0.0000,0.0000,Frame 121
4.880,-1.5095,2.0830,-0.5527,0.0000,0.0000,0.0000,Frame 122
4.920,-1.5066,2.1708,-0.7227,0.0000,0.0000,0.0000,Frame 123
4.960,-1.4859,2.2720,-1.1594,0.0000,0.0000,0.0000,Frame 124
5.000,-1.4948,2.3565,-0.9639,0.0000,0.0000,0.0000,Frame 125
5.040,-1.5259,2.5326,-0.8388,0.0000,0.0000,0.0000,Frame 126
5.080,-1.5592,2.5272,-1.1181,0.0000,0.0000,0.0000,Frame 127
5.120,1.4862,1.4888,-2.1478,0.0000,0.0000,0.0000,Frame 128
5.160,1.4674,1.5304,-2.3361,0.0000,0.0000,0.0000,Frame 129
5.200,1.5134,2.8137,-1.4442,0.0000,0.0000,0.0000,Frame 130
5.240,-1.5337,2.3248,-0.8868,0.0000,0.0000,0.0000,Frame 131
5.280,-1.5499,2.1269,-0.6325,0.0000,0.0000,0.0000,Frame 132
5.320,-1.5532,2.1306,-0.6227,0.0000,0.0000,0.0000,Frame 133
5.360,-1.5560,2.1748,-0.6772,0.0000,0.0000,0.0000,Frame 134
5.400,-1.5624,2.1246,-0.6174,0.0000,0.0000,0.0000,Frame 135
5.440,-1.5570,2.1378,-0.5937,0.0000,0.0000,0.0000,Frame 136
5.480,-1.5534,2.1710,-0.5573,0.0000,0.0000,0.0000,Frame 137
5.520,-1.5411,2.1542,-0.6069,0.0000,0.0000,0.0000,Frame 138
5.560,-1.5408,2.1437,-0.6494,0.0000,0.0000,0.0000,Frame 139
5.600,-1.5345,2.1815,-0.7517,0.0000,0.0000,0.0000,Frame 140
5.640,-1.5359,2.1446,-0.6712,0.0000,0.0000,0.0000,Frame 141
5.680,-1.5441,2.1210,-0.6479,0.0000,0.0000,0.0000,Frame 142
5.720,-1.5618,2.0146,-0.5786,0.0000,0.0000,0.0000,Frame 143
5.760,-1.5976,2.0762,-0.5933,0.0000,0.0000,0.0000,Frame 144
5.800,-1.6413,2.1127,-0.9882,0.0000,0.0000,0.0000,Frame 145
5.840,-1.6335,2.0257,-0.6314,0.0000,0.0000,0.0000,Frame 146
5.880,-1.6520,1.8623,-0.5536,0.0000,0.0000,0.0000,Frame 147
5.920,-1.5802,1.8670,-0.3683,0.0000,0.0000,0.0000,Frame 148
5.960,-1.4296,1.7039,-0.3254,0.0000,0.0000,0.0000,Frame 149
6.000,-1.1917,1.9072,-0.4918,0.0000,0.0000,0.0000,Frame 150
6.040,-0.9465,2.1039,-0.6876,0.0000,0.0000,0.0000,Frame 151
6.080,-0.7973,2.3327,-0.7641,0.0000,0.0000,0.0000,Frame 152
6.120,-0.7074,2.4570,-0.7893,0.0000,0.0000,0.0000,Frame 153
6.160,-0.7644,2.4109,-0.6118,0.0000,0.0000,0.0000,Frame 154
6.200,-0.7822,2.3941,-0.5368,0.0000,0.0000,0.0000,Frame 155
6.240,-0.8519,2.3068,-0.6975,0.0000,0.0000,0.0000,Frame 156
6.280,-0.9422,2.2288,-0.6625,0.0000,0.0000,0.0000,Frame 157
6.320,-1.0569,2.1600,-0.6484,0.0000,0.0000,0.0000,Frame 158
6.360,-1.2432,2.1234,-0.5180,0.0000,0.0000,0.0000,Frame 159
6.400,-1.4019,1.9780,-0.5821,0.0000,0.0000,0.0000,Frame 160
6.440,-1.4901,2.0653,-0.6595,0.0000,0.0000,0.0000,Frame 161
6.480,-1.5393,2.1031,-0.6465,0.0000,0.0000,0.0000,Frame 162
6.520,-1.5774,2.0927,-0.5697,0.0000,0.0000,0.0000,Frame 163
6.560,-1.6630,2.2175,-0.4992,0.0000,0.0000,0.0000,Frame 164
6.600,-1.7744,2.5123,-0.4788,0.0000,0.0000,0.0000,Frame 165
6.640,-1.8005,2.4563,-0.3230,0.0000,0.0000,0.0000,Frame 166
6.680,-1.8801,2.5675,-0.4350,0.0000,0.0000,0.0000,Frame 167
6.720,-1.9393,2.5944,-0.5910,0.0000,0.0000,0.0000,Frame 168
6.760,-1.9546,2.6179,-0.7445,0.0000,0.0000,0.0000,Frame 169
6.800,-1.9536,2.6674,-0.8427,0.0000,0.0000,0.0000,Frame 170
6.840,-1.8167,2.5072,-0.6512,0.0000,0.0000,0.0000,Frame 171
6.880,-1.7655,2.5812,-0.2992,0.0000,0.0000,0.0000,Frame 172
6.920,-1.7558,2.5828,-0.2456,0.0000,0.0000,0.0000,Frame 173
6.960,-1.6952,2.4854,-0.3242,0.0000,0.0000,0.0000,Frame 174
7.000,-1.6360,2.3202,-0.3744,0.0000,0.0000,0.0000,Frame 175
7.040,-1.6016,2.0434,-0.5031,0.0000,0.0000,0.0000,Frame 176
7.080,-1.5728,2.0036,-0.6237,0.0000,0.0000,0.0000,Frame 177
7.120,-1.5375,2.0429,-0.6251,0.0000,0.0000,0.0000,Frame 178
7.160,-1.5172,2.0525,-0.6379,0.0000,0.0000,0.0000,Frame 179
7.200,-1.4976,2.1285,-0.5731,0.0000,0.0000,0.0000,Frame 180
7.240,-1.4920,2.1330,-0.5950,0.0000,0.0000,0.0000,Frame 181
7.280,-1.4959,2.1234,-0.5972,0.0000,0.0000,0.0000,Frame 182
7.320,-1.5059,2.0927,-0.5650,0.0000,0.0000,0.0000,Frame 183
7.360,-1.5027,2.1096,-0.5884,0.0000,0.0000,0.0000,Frame 184
7.400,-1.5218,2.0710,-0.5928,0.0000,0.0000,0.0000,Frame 185
7.440,-1.5479,2.0379,-0.6398,0.0000,0.0000,0.0000,Frame 186
7.480,-1.5721,2.0072,-0.5916,0.0000,0.0000,0.0000,Frame 187
7.520,-1.5822,2.0288,-0.4502,0.0000,0.0000,0.0000,Frame 188
7.560,-1.6168,2.0740,-0.3977,0.0000,0.0000,0.0000,Frame 189
7.600,-1.6721,2.2152,-0.3185,0.0000,0.0000,0.0000,Frame 190
7.640,-1.6946,2.3377,-0.1872,0.0000,0.0000,0.0000,Frame 191
7.680,-1.7652,2.4201,-0.1791,0.0000,0.0000,0.0000,Frame 192
7.720,-1.8409,2.2847,-0.3290,0.0000,0.0000,0.0000,Frame 193
7.760,-2.1653,2.6546,-0.5376,0.0000,0.0000,0.0000,Frame 194
7.800,-2.1978,2.6575,-0.9025,0.0000,0.0000,0.0000,Frame 195
7.840,-2.1743,2.6485,-0.6409,0.0000,0.0000,0.0000,Frame 196
7.880,-2.1717,2.6673,-0.7181,0.0000,0.0000,0.0000,Frame 197
7.920,-2.0140,2.5078,-0.7246,0.0000,0.0000,0.0000,Frame 198
7.960,-1.8616,2.6323,-0.2873,0.0000,0.0000,0.0000,Frame 199
8.000,-1.7443,2.5807,-0.1445,0.0000,0.0000,0.0000,Frame 200
8.040,-1.7129,2.4195,-0.2865,0.0000,0.0000,0.0000,Frame 201
8.080,-1.6622,2.4059,-0.3967,0.0000,0.0000,0.0000,Frame 202
8.120,-1.6102,2.2424,-0.4542,0.0000,0.0000,0.0000,Frame 203
8.160,-1.5827,2.1364,-0.6367,0.0000,0.0000,0.0000,Frame 204
8.200,-1.5556,2.1219,-0.6644,0.0000,0.0000,0.0000,Frame 205
8.240,-1.5290,2.1742,-0.6413,0.0000,0.0000,0.0000,Frame 206
8.280,-1.5129,2.0887,-0.6592,0.0000,0.0000,0.0000,Frame 207
8.320,-1.5206,2.1064,-0.6366,0.0000,0.0000,0.0000,Frame 208
8.360,-1.5308,2.1278,-0.6444,0.0000,0.0000,0.0000,Frame 209
8.400,-1.5286,2.1203,-0.6561,0.0000,0.0000,0.0000,Frame 210
8.440,-1.4649,2.1674,-0.5411,0.0000,0.0000,0.0000,Frame 211
8.480,-1.4317,2.1702,-0.4434,0.0000,0.0000,0.0000,Frame 212
8.520,-1.2800,2.4589,-0.4553,0.0000,0.0000,0.0000,Frame 213
8.560,-0.4655,2.7586,-1.4841,0.0000,0.0000,0.0000,Frame 214
8.600,-0.6354,2.5787,-1.0781,0.0000,0.0000,0.0000,Frame 215
8.640,-0.7287,2.4829,-0.9179,0.0000,0.0000,0.0000,Frame 216
8.680,-0.6773,2.5111,-1.1123,0.0000,0.0000,0.0000,Frame 217
8.720,-0.7092,2.4752,-1.1202,0.0000,0.0000,0.0000,Frame 218
8.760,-0.7078,2.4696,-1.3243,0.0000,0.0000,0.0000,Frame 219
8.800,-0.7325,2.4544,-1.0354,0.0000,0.0000,0.0000,Frame 220
8.840,-0.6936,2.4807,-0.9343,0.0000,0.0000,0.0000,Frame 221
8.880,-0.7092,2.4715,-0.8353,0.0000,0.0000,0.0000,Frame 222
8.920,-0.6814,2.4890,-0.9182,0.0000,0.0000,0.0000,Frame 223
8.960,-0.6773,2.4902,-0.9373,0.0000,0.0000,0.0000,Frame 224
9.000,-0.6934,2.4774,-0.9817,0.0000,0.0000,0.0000,Frame 225
9.040,-0.8284,2.4306,-0.8687,0.0000,0.0000,0.0000,Frame 226
9.080,-1.1643,2.4073,-0.6469,0.0000,0.0000,0.0000,Frame 227
9.120,-1.3577,2.3994,-0.3682,0.0000,0.0000,0.0000,Frame 228
9.160,-1.4524,2.3791,-0.3904,0.0000,0.0000,0.0000,Frame 229
9.200,-1.4781,1.9726,-0.5619,0.0000,0.0000,0.0000,Frame 230
9.240,-1.4889,2.0221,-0.6094,0.0000,0.0000,0.0000,Frame 231
9.280,-1.4898,2.0909,-0.6858,0.0000,0.0000,0.0000,Frame 232
9.320,-1.4953,2.0854,-0.6870,0.0000,0.0000,0.0000,Frame 233
9.360,-1.5208,2.1072,-0.6019,0.0000,0.0000,0.0000,Frame 234
9.400,-1.5453,2.1745,-0.6140,0.0000,0.0000,0.0000,Frame 235
9.440,-1.5759,2.1282,-0.6486,0.0000,0.0000,0.0000,Frame 236
9.480,2.1135,3.1149,-2.5360,0.0000,0.0000,0.0000,Frame 237
9.520,-1.7751,1.9056,-1.6301,0.0000,0.0000,0.0000,Frame 238
9.560,-1.7241,1.9058,-1.0804,0.0000,0.0000,0.0000,Frame 239
9.600,-1.7039,1.9141,-0.9487,0.0000,0.0000,0.0000,Frame 240
9.640,-1.5638,1.8508,-0.4889,0.0000,0.0000,0.0000,Frame 241
9.680,-1.3712,1.6907,-0.5363,0.0000,0.0000,0.0000,Frame 242
9.720,-1.1813,1.8641,-0.4472,0.0000,0.0000,0.0000,Frame 243
9.760,-1.0096,2.0174,-0.5526,0.0000,0.0000,0.0000,Frame 244
9.800,-0.8372,2.1892,-0.6804,0.0000,0.0000,0.0000,Frame 245
9.840,-0.6027,2.3826,-1.1812,0.0000,0.0000,0.0000,Frame 246
9.880,-0.6174,2.4257,-1.2018,0.0000,0.0000,0.0000,Frame 247
9.920,-0.5178,2.5329,-1.2289,0.0000,0.0000,0.0000,Frame 248
9.960,-0.5644,2.5130,-0.7496,0.0000,0.0000,0.0000,Frame 249
10.000,-0.6681,2.4296,-0.8718,0.0000,0.0000,0.0000,Frame 250
10.040,-0.7656,2.3399,-0.5134,0.0000,0.0000,0.0000,Frame 251
10.080,-0.7509,2.3734,-0.6730,0.0000,0.0000,0.0000,Frame 252
10.120,-0.7432,2.3903,-0.6230,0.0000,0.0000,0.0000,Frame 253
10.160,-0.6100,2.4735,-0.9826,0.0000,0.0000,0.0000,Frame 254
10.200,-0.5648,2.4888,-1.0094,0.0000,0.0000,0.0000,Frame 255
10.240,-0.5715,2.4521,-1.0738,0.0000,0.0000,0.0000,Frame 256
10.280,-0.6978,2.2935,-0.9715,0.0000,0.0000,0.0000,Frame 257
10.320,-0.9625,2.1396,-1.1017,0.0000,0.0000,0.0000,Frame 258
10.360,-1.1713,2.4251,-1.2317,0.0000,0.0000,0.0000,Frame 259
10.400,-1.3973,2.3270,-0.9649,0.0000,0.0000,0.0000,Frame 260
10.440,-1.5022,2.0807,-0.6597,0.0000,0.0000,0.0000,Frame 261
10.480,-1.5278,2.0604,-0.6648,0.0000,0.0000,0.0000,Frame 262
10.520,-1.5256,2.0121,-0.5988,0.0000,0.0000,0.0000,Frame 263
10.560,-1.5012,2.0727,-0.5811,0.0000,0.0000,0.0000,Frame 264
10.600,-1.4787,2.1009,-0.6046,0.0000,0.0000,0.0000,Frame 265
10.640,-1.4437,2.0649,-0.5372,0.0000,0.0000,0.0000,Frame 266
10.680,-1.4045,2.0743,-0.3872,0.0000,0.0000,0.0000,Frame 267
10.720,-1.3532,2.4550,-0.1987,0.0000,0.0000,0.0000,Frame 268
10.760,-1.1387,2.2014,-0.2884,0.0000,0.0000,0.0000,Frame 269
10.800,-0.9011,2.2890,-0.4000,0.0000,0.0000,0.0000,Frame 270
10.840,-0.8166,2.3541,-0.4236,0.0000,0.0000,0.0000,Frame 271
10.880,-0.6982,2.4350,-0.8543,0.0000,0.0000,0.0000,Frame 272
10.920,-0.7477,2.3947,-0.7399,0.0000,0.0000,0.0000,Frame 273
10.960,-0.5434,2.5877,-0.9841,0.0000,0.0000,0.0000,Frame 274
11.000,-0.5321,2.6573,-0.9047,0.0000,0.0000,0.0000,Frame 275
11.040,-0.5453,2.6202,-0.8244,0.0000,0.0000,0.0000,Frame 276
11.080,-0.4960,2.6255,-0.8114,0.0000,0.0000,0.0000,Frame 277
11.120,-0.5497,2.5907,-0.7579,0.0000,0.0000,0.0000,Frame 278
11.160,-0.6042,2.5589,-0.6954,0.0000,0.0000,0.0000,Frame 279
11.200,-0.6138,2.5627,-0.6877,0.0000,0.0000,0.0000,Frame 280
11.240,-0.4755,2.6478,-0.9040,0.0000,0.0000,0.0000,Frame 281
11.280,-0.6067,2.5439,-1.0591,0.0000,0.0000,0.0000,Frame 282
11.320,-0.8084,2.3677,-0.7078,0.0000,0.0000,0.0000,Frame 283
11.360,-0.6929,2.4984,-0.5959,0.0000,0.0000,0.0000,Frame 284
11.400,-0.6736,2.6080,-0.7540,0.0000,0.0000,0.0000,Frame 285
11.440,-0.6498,2.6515,-0.8033,0.0000,0.0000,0.0000,Frame 286
11.480,-0.6575,2.6428,-0.6137,0.0000,0.0000,0.0000,Frame 287
11.520,-0.6477,2.6508,-0.5423,0.0000,0.0000,0.0000,Frame 288
11.560,-0.6455,2.6440,-0.4629,0.0000,0.0000,0.0000,Frame 289
11.600,-0.6829,2.6191,-0.5047,0.0000,0.0000,0.0000,Frame 290
11.640,-0.5234,2.7503,-0.8177,0.0000,0.0000,0.0000,Frame 291
11.680,-0.5304,2.7401,-0.7979,0.0000,0.0000,0.0000,Frame 292
11.720,-0.5621,2.7025,-0.6768,0.0000,0.0000,0.0000,Frame 293
11.760,-0.5903,2.6796,-0.7183,0.0000,0.0000,0.0000,Frame 294
11.800,-0.5439,2.6989,-0.8903,0.0000,0.0000,0.0000,Frame 295
11.840,-0.6277,2.6119,-0.7099,0.0000,0.0000,0.0000,Frame 296
11.880,-0.6557,2.5766,-0.7731,0.0000,0.0000,0.0000,Frame 297
11.920,-0.7083,2.5484,-0.8569,0.0000,0.0000,0.0000,Frame 298
11.960,-0.7257,2.5335,-0.7598,0.0000,0.0000,0.0000,Frame 299
12.000,-0.5657,2.7148,-1.0021,0.0000,0.0000,0.0000,Frame 300
12.040,-0.6605,2.5842,-0.7909,0.0000,0.0000,0.0000,Frame 301
12.080,-0.6888,2.5196,-0.7016,0.0000,0.0000,0.0000,Frame 302
12.120,-0.6247,2.5655,-0.9901,0.0000,0.0000,0.0000,Frame 303
12.160,-0.7015,2.5097,-1.1947,0.0000,0.0000,0.0000,Frame 304
12.200,-0.6272,2.5763,-1.3170,0.0000,0.0000,0.0000,Frame 305
12.240,-0.6601,2.5405,-1.3246,0.0000,0.0000,0.0000,Frame 306
12.280,-0.7075,2.4949,-1.1469,0.0000,0.0000,0.0000,Frame 307
12.320,-0.6123,2.5927,-1.3792,0.0000,0.0000,0.0000,Frame 308
12.360,-0.6593,2.5700,-1.3133,0.0000,0.0000,0.0000,Frame 309
12.400,-0.5717,2.6641,-1.2707,0.0000,0.0000,0.0000,Frame 310
12.440,-0.7349,2.6385,-0.9229,0.0000,0.0000,0.0000,Frame 311
12.480,-0.7910,2.7600,-0.5733,0.0000,0.0000,0.0000,Frame 312
12.520,-0.8201,2.5397,-0.4648,0.0000,0.0000,0.0000,Frame 313
12.560,-0.6829,2.9301,-0.6425,0.0000,0.0000,0.0000,Frame 314
12.600,-0.6949,2.7464,-1.2509,0.0000,0.0000,0.0000,Frame 315
12.640,-0.6964,2.7295,-1.3303,0.0000,0.0000,0.0000,Frame 316
12.680,-0.7094,2.6369,-1.0007,0.0000,0.0000,0.0000,Frame 317
12.720,-0.7611,2.5376,-0.7927,0.0000,0.0000,0.0000,Frame 318
12.760,-0.8081,2.4876,-0.5529,0.0000,0.0000,0.0000,Frame 319
12.800,-0.8418,2.4026,-0.4791,0.0000,0.0000,0.0000,Frame 320
12.840,-0.9086,2.3794,-0.2059,0.0000,0.0000,0.0000,Frame 321
12.880,-0.7767,2.5008,-0.4150,0.0000,0.0000,0.0000,Frame 322
12.920,-0.7144,2.5383,-0.7079,0.0000,0.0000,0.0000,Frame 323
12.960,-0.7179,2.4678,-0.8272,0.0000,0.0000,0.0000,Frame 324
13.000,-0.6954,2.4349,-0.9955,0.0000,0.0000,0.0000,Frame 325
13.040,-0.3073,2.6734,-1.2833,0.0000,0.0000,0.0000,Frame 326
13.080,-0.9385,2.1285,-0.5764,0.0000,0.0000,0.0000,Frame 327
13.120,-1.2077,1.8752,-0.3144,0.0000,0.0000,0.0000,Frame 328
13.160,-1.3745,1.6951,-0.5538,0.0000,0.0000,0.0000,Frame 329
13.200,-1.5738,1.9975,-0.3428,0.0000,0.0000,0.0000,Frame 330
13.240,-1.6312,2.0116,-0.3820,0.0000,0.0000,0.0000,Frame 331
13.280,-1.6518,1.8780,-0.3699,0.0000,0.0000,0.0000,Frame 332
13.320,-1.6456,1.9442,-0.3806,0.0000,0.0000,0.0000,Frame 333
13.360,-1.6091,2.0711,-0.4021,0.0000,0.0000,0.0000,Frame 334
13.400,-1.5641,1.9516,-0.3736,0.0000,0.0000,0.0000,Frame 335
13.440,-1.4970,1.6836,-0.5162,0.0000,0.0000,0.0000,Frame 336
13.480,-1.3095,1.7528,-0.5112,0.0000,0.0000,0.0000,Frame 337
13.520,-0.9856,2.0154,-0.8567,0.0000,0.0000,0.0000,Frame 338
13.560,-0.9003,2.1056,-0.8720,0.0000,0.0000,0.0000,Frame 339
13.600,-0.9270,2.1468,-0.6555,0.0000,0.0000,0.0000,Frame 340
13.640,-0.7439,2.3770,-1.0935,0.0000,0.0000,0.0000,Frame 341
13.680,-0.7291,2.4456,-1.0750,0.0000,0.0000,0.0000,Frame 342
13.720,-0.7558,2.4920,-1.2553,0.0000,0.0000,0.0000,Frame 343
13.760,-0.7598,2.5344,-1.2128,0.0000,0.0000,0.0000,Frame 344
13.800,-0.9145,2.4585,-1.1343,0.0000,0.0000,0.0000,Frame 345
13.840,-0.9550,2.4572,-1.1884,0.0000,0.0000,0.0000,Frame 346
13.880,-1.0028,2.3805,-1.2602,0.0000,0.0000,0.0000,Frame 347
13.920,-0.9358,2.3847,-1.1120,0.0000,0.0000,0.0000,Frame 348
13.960,-0.8708,2.3948,-0.9845,0.0000,0.0000,0.0000,Frame 349
14.000,-0.8130,2.4003,-0.9735,0.0000,0.0000,0.0000,Frame 350
14.040,-0.7764,2.3559,-0.9130,0.0000,0.0000,0.0000,Frame 351
14.080,-1.0068,2.1337,-0.4909,0.0000,0.0000,0.0000,Frame 352
14.120,-1.2935,2.0098,-0.3415,0.0000,0.0000,0.0000,Frame 353
14.160,-1.4084,1.9706,-0.4269,0.0000,0.0000,0.0000,Frame 354
14.200,-1.4965,1.9123,-0.4857,0.0000,0.0000,0.0000,Frame 355
14.240,-1.5627,1.9762,-0.5974,0.0000,0.0000,0.0000,Frame 356
14.280,-1.5590,1.9968,-0.6387,0.0000,0.0000,0.0000,Frame 357
14.320,-1.5650,2.0369,-0.7168,0.0000,0.0000,0.0000,Frame 358
14.360,-1.5690,2.1116,-0.8044,0.0000,0.0000,0.0000,Frame 359
14.400,-1.6051,2.1986,-0.9164,0.0000,0.0000,0.0000,Frame 360
14.440,-1.6266,2.2230,-0.8288,0.0000,0.0000,0.0000,Frame 361
14.480,-1.6398,2.2115,-0.7274,0.0000,0.0000,0.0000,Frame 362
14.520,-1.6428,2.4303,-0.4918,0.0000,0.0000,0.0000,Frame 363
14.560,-1.6405,2.5905,-0.3167,0.0000,0.0000,0.0000,Frame 364
14.600,-1.6513,2.3463,-0.1537,0.0000,0.0000,0.0000,Frame 365
14.640,-1.6621,2.3654,-0.1303,0.0000,0.0000,0.0000,Frame 366
14.680,-1.6498,2.6526,-0.1040,0.0000,0.0000,0.0000,Frame 367
14.720,-1.6744,2.5030,-0.1643,0.0000,0.0000,0.0000,Frame 368
14.760,-1.6766,2.3366,-0.2597,0.0000,0.0000,0.0000,Frame 369
14.800,-1.6659,2.1564,-0.5024,0.0000,0.0000,0.0000,Frame 370
14.840,-1.5899,2.1522,-0.6285,0.0000,0.0000,0.0000,Frame 371
14.880,-1.5024,2.1223,-0.6421,0.0000,0.0000,0.0000,Frame 372
14.920,-1.4098,2.2809,-0.3536,0.0000,0.0000,0.0000,Frame 373
14.960,-0.8327,2.4476,-0.9033,0.0000,0.0000,0.0000,Frame 374
15.000,-0.6465,2.5295,-1.1080,0.0000,0.0000,0.0000,Frame 375
15.040,-0.6846,2.5133,-1.1269,0.0000,0.0000,0.0000,Frame 376
15.080,-0.8715,2.4406,-0.8246,0.0000,0.0000,0.0000,Frame 377
15.120,-1.3374,2.2648,-0.2819,0.0000,0.0000,0.0000,Frame 378
15.160,-1.4838,2.2969,-0.4591,0.0000,0.0000,0.0000,Frame 379
15.200,-1.5387,2.1608,-0.5996,0.0000,0.0000,0.0000,Frame 380
15.240,-1.5624,2.2336,-0.6814,0.0000,0.0000,0.0000,Frame 381
15.280,-1.5526,2.1250,-0.6725,0.0000,0.0000,0.0000,Frame 382
15.320,-1.5100,2.0132,-0.4906,0.0000,0.0000,0.0000,Frame 383
15.360,-1.3984,2.0896,-0.4663,0.0000,0.0000,0.0000,Frame 384
15.400,-1.2199,2.3251,-0.5326,0.0000,0.0000,0.0000,Frame 385
15.440,-0.7902,2.5476,-0.9529,0.0000,0.0000,0.0000,Frame 386
15.480,-0.6726,2.6985,-0.6992,0.0000,0.0000,0.0000,Frame 387
15.520,-0.6348,2.6820,-0.6450,0.0000,0.0000,0.0000,Frame 388
15.560,-0.6389,2.6626,-0.6250,0.0000,0.0000,0.0000,Frame 389
15.600,-0.6107,2.6742,-0.5925,0.0000,0.0000,0.0000,Frame 390
15.640,-0.5009,2.7763,-0.6728,0.0000,0.0000,0.0000,Frame 391
15.680,-0.5668,2.6871,-0.5777,0.0000,0.0000,0.0000,Frame 392
15.720,-0.5618,2.6787,-0.5162,0.0000,0.0000,0.0000,Frame 393
15.760,-0.5917,2.6593,-0.5900,0.0000,0.0000,0.0000,Frame 394
15.800,-0.5850,2.6442,-0.5813,0.0000,0.0000,0.0000,Frame 395
15.840,-0.5651,2.6690,-0.4853,0.0000,0.0000,0.0000,Frame 396
15.880,-0.5489,2.6871,-0.3795,0.0000,0.0000,0.0000,Frame 397
15.920,-0.5812,2.6475,-0.4436,0.0000,0.0000,0.0000,Frame 398
15.960,-0.5882,2.6296,-0.4550,0.0000,0.0000,0.0000,Frame 399
16.000,-0.7703,2.5561,-0.7296,0.0000,0.0000,0.0000,Frame 400
16.040,-1.1063,2.4119,-0.5255,0.0000,0.0000,0.0000,Frame 401
16.080,-1.3402,2.2449,-0.3471,0.0000,0.0000,0.0000,Frame 402
16.120,-1.4508,2.1671,-0.3268,0.0000,0.0000,0.0000,Frame 403
16.160,-1.5002,2.0817,-0.4846,0.0000,0.0000,0.0000,Frame 404
16.200,-1.5226,2.2765,-0.5387,0.0000,0.0000,0.0000,Frame 405
16.240,-1.5305,2.5699,-0.5570,0.0000,0.0000,0.0000,Frame 406
16.280,-1.4900,2.6978,-1.3287,0.0000,0.0000,0.0000,Frame 407
16.320,-1.4982,2.7936,-1.4223,0.0000,0.0000,0.0000,Frame 408
16.360,-1.5360,2.6100,-1.2672,0.0000,0.0000,0.0000,Frame 409
16.400,-1.5666,2.4793,-0.9618,0.0000,0.0000,0.0000,Frame 410
16.440,-1.5652,2.3877,-0.8055,0.0000,0.0000,0.0000,Frame 411
16.480,-1.5491,2.2752,-0.7285,0.0000,0.0000,0.0000,Frame 412
16.520,-1.5454,2.2911,-0.7053,0.0000,0.0000,0.0000,Frame 413
16.560,-1.5538,2.2850,-0.6498,0.0000,0.0000,0.0000,Frame 414
16.600,-1.5595,2.1578,-0.5953,0.0000,0.0000,0.0000,Frame 415
16.640,-1.5564,2.1279,-0.5738,0.0000,0.0000,0.0000,Frame 416
16.680,-1.5512,2.1616,-0.5802,0.0000,0.0000,0.0000,Frame 417
16.720,-1.5582,2.2206,-0.6008,0.0000,0.0000,0.0000,Frame 418
16.760,-1.5590,2.4592,-0.9153,0.0000,0.0000,0.0000,Frame 419
16.800,-1.5456,2.6123,-1.6019,0.0000,0.0000,0.0000,Frame 420
16.840,-1.5612,2.6192,-1.4044,0.0000,0.0000,0.0000,Frame 421
16.880,-1.5584,2.4701,-1.2420,0.0000,0.0000,0.0000,Frame 422
16.920,-1.5621,2.2872,-0.7172,0.0000,0.0000,0.0000,Frame 423
16.960,-1.5614,2.2409,-0.7364,0.0000,0.0000,0.0000,Frame 424
17.000,-1.5652,2.1981,-0.6444,0.0000,0.0000,0.0000,Frame 425
17.040,-1.5657,2.1218,-0.6341,0.0000,0.0000,0.0000,Frame 426
17.080,-1.5658,2.1947,-0.6839,0.0000,0.0000,0.0000,Frame 427
17.120,-1.5654,2.2481,-0.7289,0.0000,0.0000,0.0000,Frame 428
17.160,-1.5646,2.3613,-0.7661,0.0000,0.0000,0.0000,Frame 429
17.200,-1.5617,2.3261,-0.6594,0.0000,0.0000,0.0000,Frame 430
17.240,-1.5620,2.1891,-0.6212,0.0000,0.0000,0.0000,Frame 431
17.280,-1.5608,2.1086,-0.5980,0.0000,0.0000,0.0000,Frame 432
17.320,-1.5496,2.1174,-0.6062,0.0000,0.0000,0.0000,Frame 433
17.360,-1.4920,2.0304,-0.5787,0.0000,0.0000,0.0000,Frame 434
17.400,-1.4538,2.1654,-0.4287,0.0000,0.0000,0.0000,Frame 435
17.440,-1.3374,2.4011,-0.3528,0.0000,0.0000,0.0000,Frame 436
17.480,-0.8433,2.6084,-0.9082,0.0000,0.0000,0.0000,Frame 437
17.520,-0.7554,2.8253,-0.8705,0.0000,0.0000,0.0000,Frame 438
17.560,-1.0945,2.5695,-0.6265,0.0000,0.0000,0.0000,Frame 439
17.600,-1.3143,2.3868,-0.2841,0.0000,0.0000,0.0000,Frame 440
17.640,-1.4142,2.7101,-0.3645,0.0000,0.0000,0.0000,Frame 441
17.680,-1.4307,1.7748,-0.3150,0.0000,0.0000,0.0000,Frame 442
17.720,-1.4601,2.8146,-0.4226,0.0000,0.0000,0.0000,Frame 443
17.760,-1.4351,2.3131,-0.5114,0.0000,0.0000,0.0000,Frame 444
17.800,-1.3297,2.3984,-0.4255,0.0000,0.0000,0.0000,Frame 445
17.840,-1.2640,2.3716,-0.3566,0.0000,0.0000,0.0000,Frame 446
17.880,-1.1797,2.4467,-0.5649,0.0000,0.0000,0.0000,Frame 447
17.920,-1.6061,2.5972,-0.3333,0.0000,0.0000,0.0000,Frame 448
17.960,1.6061,2.6534,-0.0846,0.0000,0.0000,0.0000,Frame 449
18.000,1.6103,2.8349,-0.0376,0.0000,0.0000,0.0000,Frame 450
18.040,1.6608,2.7829,-0.0937,0.0000,0.0000,0.0000,Frame 451
18.080,2.1026,2.2451,-0.6469,0.0000,0.0000,0.0000,Frame 452
18.120,-2.2923,2.3525,-1.0600,0.0000,0.0000,0.0000,Frame 453
18.160,2.6414,2.7015,-1.3285,0.0000,0.0000,0.0000,Frame 454
18.200,-2.3700,2.3295,-1.4824,0.0000,0.0000,0.0000,Frame 455
18.240,1.4776,2.0235,-1.1420,0.0000,0.0000,0.0000,Frame 456
18.280,-1.5458,2.1443,-0.6058,0.0000,0.0000,0.0000,Frame 457
18.320,-1.5568,2.2784,-0.7118,0.0000,0.0000,0.0000,Frame 458
18.360,-1.5805,2.5169,-0.7329,0.0000,0.0000,0.0000,Frame 459
18.400,-1.6896,2.6288,-1.2126,0.0000,0.0000,0.0000,Frame 460
18.440,-1.7926,2.7063,-1.6484,0.0000,0.0000,0.0000,Frame 461
18.480,-1.7714,2.6041,-1.5857,0.0000,0.0000,0.0000,Frame 462
18.520,-1.6579,2.3702,-0.9159,0.0000,0.0000,0.0000,Frame 463
18.560,-1.6246,2.2671,-0.6466,0.0000,0.0000,0.0000,Frame 464
18.600,-1.6100,2.2397,-0.6396,0.0000,0.0000,0.0000,Frame 465
18.640,-1.5933,2.2014,-0.6507,0.0000,0.0000,0.0000,Frame 466
18.680,-1.5742,2.2003,-0.6417,0.0000,0.0000,0.0000,Frame 467
18.720,-1.5371,2.1872,-0.6821,0.0000,0.0000,0.0000,Frame 468
18.760,-1.4992,2.1587,-0.6573,0.0000,0.0000,0.0000,Frame 469
18.800,-1.4458,2.1186,-0.4786,0.0000,0.0000,0.0000,Frame 470
18.840,-1.3596,2.2283,-0.3183,0.0000,0.0000,0.0000,Frame 471
18.880,-0.9287,2.4129,-0.7068,0.0000,0.0000,0.0000,Frame 472
18.920,-0.7156,2.5345,-0.7168,0.0000,0.0000,0.0000,Frame 473
18.960,-0.7193,2.6025,-0.7319,0.0000,0.0000,0.0000,Frame 474
19.000,-0.6430,2.7706,-1.0146,0.0000,0.0000,0.0000,Frame 475
19.040,-0.8670,2.7302,-0.7883,0.0000,0.0000,0.0000,Frame 476
19.080,-1.2282,2.7606,-0.3962,0.0000,0.0000,0.0000,Frame 477
19.120,-1.4083,2.4300,-0.2916,0.0000,0.0000,0.0000,Frame 478
19.160,-1.5545,2.1910,-0.6406,0.0000,0.0000,0.0000,Frame 479
19.200,-1.6108,2.2758,-0.7013,0.0000,0.0000,0.0000,Frame 480
19.240,-1.7058,2.4352,-0.4890,0.0000,0.0000,0.0000,Frame 481
19.280,-1.9276,2.8164,-0.4591,0.0000,0.0000,0.0000,Frame 482
19.320,-2.0498,2.7738,-0.4402,0.0000,0.0000,0.0000,Frame 483
19.360,-1.8559,2.7882,-0.1388,0.0000,0.0000,0.0000,Frame 484
19.400,-1.7694,2.6475,-0.1885,0.0000,0.0000,0.0000,Frame 485
19.440,-1.7282,2.5446,-0.2142,0.0000,0.0000,0.0000,Frame 486
19.480,-1.6386,2.1868,-0.5028,0.0000,0.0000,0.0000,Frame 487
19.520,-1.4686,2.7755,-0.3128,0.0000,0.0000,0.0000,Frame 488
19.560,-1.4388,2.6886,-0.1640,0.0000,0.0000,0.0000,Frame 489
19.600,-1.3964,2.6197,-0.0439,0.0000,0.0000,0.0000,Frame 490
19.640,-1.3524,2.6479,-0.0563,0.0000,0.0000,0.0000,Frame 491
19.680,-1.3291,2.7031,-0.0723,0.0000,0.0000,0.0000,Frame 492
19.720,-1.2821,2.5841,-0.1390,0.0000,0.0000,0.0000,Frame 493
19.760,-1.2986,2.2736,-0.1237,0.0000,0.0000,0.0000,Frame 494
19.800,-1.1727,2.2847,-0.2533,0.0000,0.0000,0.0000,Frame 495
19.840,-1.2481,2.3476,-0.2237,0.0000,0.0000,0.0000,Frame 496
19.880,-1.2510,2.3491,-0.2960,0.0000,0.0000,0.0000,Frame 497
19.920,-1.2302,2.4472,-0.4413,0.0000,0.0000,0.0000,Frame 498
19.960,-1.1452,2.3741,-0.7745,0.0000,0.0000,0.0000,Frame 499
20.000,-1.0915,2.4517,-0.9136,0.0000,0.0000,0.0000,Frame 500
20.040,-0.9369,2.4972,-1.1964,0.0000,0.0000,0.0000,Frame 501
20.080,-1.0949,2.2429,-1.0413,0.0000,0.0000,0.0000,Frame 502
20.120,-1.1127,2.1209,-1.1628,0.0000,0.0000,0.0000,Frame 503
20.160,-1.2309,1.8870,-1.2139,0.0000,0.0000,0.0000,Frame 504
20.200,-1.4167,1.9704,-1.1865,0.0000,0.0000,0.0000,Frame 505
20.240,-1.5155,2.0836,-1.0273,0.0000,0.0000,0.0000,Frame 506
20.280,-1.5642,2.2505,-0.8441,0.0000,0.0000,0.0000,Frame 507
20.320,-1.5754,2.6791,-0.5130,0.0000,0.0000,0.0000,Frame 508
20.360,-1.6018,3.0267,-0.8106,0.0000,0.0000,0.0000,Frame 509
20.400,-1.6199,3.0954,-0.5645,0.0000,0.0000,0.0000,Frame 510
20.440,-1.6159,3.1237,-0.3226,0.0000,0.0000,0.0000,Frame 511
20.480,-1.6052,3.1563,-0.2811,0.0000,0.0000,0.0000,Frame 512
20.520,-1.5896,2.7375,-0.2556,0.0000,0.0000,0.0000,Frame 513
20.560,-1.5736,2.6120,-0.2380,0.0000,0.0000,0.0000,Frame 514
20.600,-1.5610,2.7062,-0.2467,0.0000,0.0000,0.0000,Frame 515
20.640,-1.5282,2.6686,-0.2515,0.0000,0.0000,0.0000,Frame 516
20.680,-1.3378,2.4280,-0.6523,0.0000,0.0000,0.0000,Frame 517
20.720,-1.3960,2.7858,-0.4452,0.0000,0.0000,0.0000,Frame 518
20.760,-1.3590,3.1819,-0.4441,0.0000,0.0000,0.0000,Frame 519
20.800,-1.3920,3.1463,-0.4220,0.0000,0.0000,0.0000,Frame 520
20.840,-1.2236,3.0799,-0.8075,0.0000,0.0000,0.0000,Frame 521
20.880,-1.2210,2.5911,-0.8110,0.0000,0.0000,0.0000,Frame 522
20.920,-1.3938,2.1119,-0.3311,0.0000,0.0000,0.0000,Frame 523
20.960,-1.3538,2.3056,-0.2898,0.0000,0.0000,0.0000,Frame 524
21.000,-1.2205,2.1630,-0.5952,0.0000,0.0000,0.0000,Frame 525
21.040,-1.1577,2.1921,-0.7491,0.0000,0.0000,0.0000,Frame 526
21.080,-1.2199,2.3928,-0.4414,0.0000,0.0000,0.0000,Frame 527
21.120,-1.5556,2.5731,-0.5048,0.0000,0.0000,0.0000,Frame 528
21.160,-1.7051,2.9546,-2.3650,0.0000,0.0000,0.0000,Frame 529
21.200,1.5961,2.8760,-0.3766,0.0000,0.0000,0.0000,Frame 530
21.240,1.5728,2.5870,-0.1273,0.0000,0.0000,0.0000,Frame 531
21.280,1.5634,2.4282,-0.2664,0.0000,0.0000,0.0000,Frame 532
21.320,1.8710,1.9792,-1.3303,0.0000,0.0000,0.0000,Frame 533
21.360,2.6880,2.2039,-1.5971,0.0000,0.0000,0.0000,Frame 534
21.400,-2.0388,2.2647,-1.0366,0.0000,0.0000,0.0000,Frame 535
21.440,-1.8533,2.2356,-0.8076,0.0000,0.0000,0.0000,Frame 536
21.480,-1.7469,2.1502,-0.8877,0.0000,0.0000,0.0000,Frame 537
21.520,-1.6171,2.3528,-0.6050,0.0000,0.0000,0.0000,Frame 538
21.560,-1.6045,2.1152,-0.5817,0.0000,0.0000,0.0000,Frame 539
21.600,-1.5819,2.1033,-0.5526,0.0000,0.0000,0.0000,Frame 540
21.640,-1.5901,2.1108,-0.5302,0.0000,0.0000,0.0000,Frame 541
21.680,-1.6162,2.1253,-0.6042,0.0000,0.0000,0.0000,Frame 542
21.720,-1.6999,2.2369,-0.8798,0.0000,0.0000,0.0000,Frame 543
21.760,-1.8066,2.3847,-0.9178,0.0000,0.0000,0.0000,Frame 544
21.800,-1.9810,2.4914,-0.9117,0.0000,0.0000,0.0000,Frame 545
21.840,-2.1379,2.6099,-0.7967,0.0000,0.0000,0.0000,Frame 546
21.880,-2.2079,2.6944,-0.6298,0.0000,0.0000,0.0000,Frame 547
21.920,-2.3549,2.8183,-0.6687,0.0000,0.0000,0.0000,Frame 548
21.960,-2.3465,2.8473,-0.5814,0.0000,0.0000,0.0000,Frame 549
22.000,-2.1251,2.6505,-0.5092,0.0000,0.0000,0.0000,Frame 550
22.040,-2.1134,2.6972,-0.9632,0.0000,0.0000,0.0000,Frame 551
22.080,-1.9356,2.5561,-0.6412,0.0000,0.0000,0.0000,Frame 552
22.120,-1.6928,2.2593,-0.6265,0.0000,0.0000,0.0000,Frame 553
22.160,-1.5765,2.1236,-0.5508,0.0000,0.0000,0.0000,Frame 554
22.200,-1.4887,2.0641,-0.3938,0.0000,0.0000,0.0000,Frame 555
22.240,-1.4198,2.0270,-0.3458,0.0000,0.0000,0.0000,Frame 556
22.280,-1.3667,2.1619,-0.1556,0.0000,0.0000,0.0000,Frame 557
22.320,-1.1751,2.2163,-0.3828,0.0000,0.0000,0.0000,Frame 558
22.360,-0.7529,2.4941,-0.8964,0.0000,0.0000,0.0000,Frame 559
22.400,-0.6959,2.5230,-0.7801,0.0000,0.0000,0.0000,Frame 560
22.440,-0.6868,2.5278,-0.7929,0.0000,0.0000,0.0000,Frame 561
22.480,-0.6300,2.5839,-0.8604,0.0000,0.0000,0.0000,Frame 562
22.520,-0.7074,2.5074,-0.7595,0.0000,0.0000,0.0000,Frame 563
22.560,-0.7010,2.5104,-0.7526,0.0000,0.0000,0.0000,Frame 564
22.600,-0.6738,2.5273,-0.7271,0.0000,0.0000,0.0000,Frame 565
22.640,-0.7256,2.4800,-0.7118,0.0000,0.0000,0.0000,Frame 566
22.680,-0.7572,2.4520,-0.7257,0.0000,0.0000,0.0000,Frame 567
22.720,-0.6505,2.5505,-0.8414,0.0000,0.0000,0.0000,Frame 568
22.760,-0.6888,2.5235,-0.8217,0.0000,0.0000,0.0000,Frame 569
22.800,-0.6781,2.5385,-0.8531,0.0000,0.0000,0.0000,Frame 570
22.840,-0.7022,2.5190,-0.8100,0.0000,0.0000,0.0000,Frame 571
22.880,-0.7048,2.5178,-0.8014,0.0000,0.0000,0.0000,Frame 572
22.920,-0.7657,2.4629,-0.7019,0.0000,0.0000,0.0000,Frame 573
22.960,-0.7102,2.5170,-0.7827,0.0000,0.0000,0.0000,Frame 574
23.000,-0.7354,2.5065,-0.7296,0.0000,0.0000,0.0000,Frame 575
23.040,-0.7330,2.5132,-0.8137,0.0000,0.0000,0.0000,Frame 576
23.080,-0.7552,2.5110,-0.8117,0.0000,0.0000,0.0000,Frame 577
23.120,-0.8621,2.5159,-0.6430,0.0000,0.0000,0.0000,Frame 578
23.160,-0.8729,2.5246,-0.7068,0.0000,0.0000,0.0000,Frame 579
23.200,-1.0579,2.5805,-0.5222,0.0000,0.0000,0.0000,Frame 580
23.240,-1.0850,2.7005,-0.4642,0.0000,0.0000,0.0000,Frame 581
23.280,-1.1650,2.9106,-0.3410,0.0000,0.0000,0.0000,Frame 582
23.320,-1.2869,2.6804,-0.1943,0.0000,0.0000,0.0000,Frame 583
23.360,-1.2100,2.7626,-0.3580,0.0000,0.0000,0.0000,Frame 584
23.400,-1.2847,2.5893,-0.2009,0.0000,0.0000,0.0000,Frame 585
23.440,-1.1017,2.6175,-0.5207,0.0000,0.0000,0.0000,Frame 586
