Ted-Mellow/Robot-Rave---Bodhisattva-/videoplayback.1768755854126.publer.com_joints.csv
time,joint1,joint2,joint3,joint4,joint5,joint6,description
0.240,0.7807,0.9060,-2.5554,0.0000,0.0000,0.0000,Frame 6
0.360,0.8534,0.8177,-2.5576,0.0000,0.0000,0.0000,Frame 9
0.480,0.9563,0.7600,-2.6562,0.0000,0.0000,0.0000,Frame 12
0.600,1.1032,0.5366,-2.7640,0.0000,0.0000,0.0000,Frame 15
0.720,1.2716,0.5396,-2.8314,0.0000,0.0000,0.0000,Frame 18
0.840,1.4029,0.5453,-2.8360,0.0000,0.0000,0.0000,Frame 21
0.960,1.4958,0.5530,-2.8510,0.0000,0.0000,0.0000,Frame 24
1.080,1.5260,0.5690,-2.7687,0.0000,0.0000,0.0000,Frame 27
1.200,1.5302,0.5912,-2.6585,0.0000,0.0000,0.0000,Frame 30
1.320,1.5244,0.6107,-2.5996,0.0000,0.0000,0.0000,Frame 33
1.440,1.5197,0.6139,-2.5822,0.0000,0.0000,0.0000,Frame 36
1.560,1.5090,0.6118,-2.5741,0.0000,0.0000,0.0000,Frame 39
1.680,1.4944,0.5989,-2.5804,0.0000,0.0000,0.0000,Frame 42
1.800,1.4735,0.5725,-2.6415,0.0000,0.0000,0.0000,Frame 45
1.920,1.3432,0.7835,-2.6036,0.0000,0.0000,0.0000,Frame 48
2.040,1.2213,1.0052,-2.5924,0.0000,0.0000,0.0000,Frame 51
2.160,1.0604,1.2254,-2.4906,0.0000,0.0000,0.0000,Frame 54
2.280,0.8962,1.4516,-2.3412,0.0000,0.0000,0.0000,Frame 57
2.400,0.7653,1.6860,-2.2271,0.0000,0.0000,0.0000,Frame 60
2.520,0.7578,1.6795,-2.2973,0.0000,0.0000,0.0000,Frame 63
2.640,0.7406,1.6665,-2.2721,0.0000,0.0000,0.0000,Frame 66
2.760,0.7726,1.6592,-2.3097,0.0000,0.0000,0.0000,Frame 69
2.880,0.7964,1.6544,-2.3543,0.0000,0.0000,0.0000,Frame 72
3.000,0.8062,1.6537,-2.3901,0.0000,0.0000,0.0000,Frame 75
3.120,0.8193,1.6552,-2.3573,0.0000,0.0000,0.0000,Frame 78
3.240,0.7771,1.6623,-2.2631,0.0000,0.0000,0.0000,Frame 81
3.360,0.7300,1.6692,-2.1872,0.0000,0.0000,0.0000,Frame 84
3.480,0.7398,1.6737,-2.1900,0.0000,0.0000,0.0000,Frame 87
3.600,0.7698,1.6714,-2.2432,0.0000,0.0000,0.0000,Frame 90
3.720,0.7524,1.6674,-2.2250,0.0000,0.0000,0.0000,Frame 93
3.840,0.7898,1.6619,-2.3882,0.0000,0.0000,0.0000,Frame 96
3.960,0.8218,1.6528,-2.5434,0.0000,0.0000,0.0000,Frame 99
4.080,0.8144,1.4185,-2.6122,0.0000,0.0000,0.0000,Frame 102
4.200,0.7693,1.1892,-2.5322,0.0000,0.0000,0.0000,Frame 105
4.320,0.7569,0.9649,-2.5143,0.0000,0.0000,0.0000,Frame 108
4.440,0.7602,0.9615,-2.4466,0.0000,0.0000,0.0000,Frame 111
4.560,0.8924,0.9625,-2.4625,0.0000,0.0000,0.0000,Frame 114
4.680,1.0453,0.9867,-2.4523,0.0000,0.0000,0.0000,Frame 117
4.800,1.2106,1.0167,-2.4950,0.0000,0.0000,0.0000,Frame 120
4.920,0.7537,1.0967,-2.3302,0.0000,0.0000,0.0000,Frame 123
5.040,0.9014,0.8949,-2.3111,0.0000,0.0000,0.0000,Frame 126
5.160,0.9257,0.6866,-2.2567,0.0000,0.0000,0.0000,Frame 129
5.280,0.9321,0.6846,-2.2747,0.0000,0.0000,0.0000,Frame 132
5.400,0.9313,0.6816,-2.2819,0.0000,0.0000,0.0000,Frame 135
5.520,1.5514,0.8245,-2.5296,0.0000,0.0000,0.0000,Frame 138
5.640,1.5646,1.0663,-2.5810,0.0000,0.0000,0.0000,Frame 141
5.760,1.5090,1.3502,-2.6953,0.0000,0.0000,0.0000,Frame 144
5.880,1.3298,1.6048,-2.6490,0.0000,0.0000,0.0000,Frame 147
6.000,1.1764,1.8121,-2.6069,0.0000,0.0000,0.0000,Frame 150
6.120,1.1122,1.8193,-2.5292,0.0000,0.0000,0.0000,Frame 153
6.240,1.0905,1.5594,-2.5190,0.0000,0.0000,0.0000,Frame 156
6.360,1.1804,1.3022,-2.4488,0.0000,0.0000,0.0000,Frame 159
6.480,1.4400,1.1534,-2.5915,0.0000,0.0000,0.0000,Frame 162
6.600,1.6482,1.0042,-2.6912,0.0000,0.0000,0.0000,Frame 165
6.720,1.7364,0.8036,-2.8022,0.0000,0.0000,0.0000,Frame 168
6.840,1.7518,0.8163,-2.7972,0.0000,0.0000,0.0000,Frame 171
6.960,1.7107,0.7948,-2.7600,0.0000,0.0000,0.0000,Frame 174
7.080,1.6233,0.6886,-2.6701,0.0000,0.0000,0.0000,Frame 177
7.200,1.5703,0.6152,-2.6292,0.0000,0.0000,0.0000,Frame 180
7.320,1.5596,0.5938,-2.5819,0.0000,0.0000,0.0000,Frame 183
7.440,1.5892,0.6168,-2.6749,0.0000,0.0000,0.0000,Frame 186
7.560,1.7047,0.7271,-2.5991,0.0000,0.0000,0.0000,Frame 189
7.680,1.8008,0.8248,-2.5566,0.0000,0.0000,0.0000,Frame 192
7.800,1.8409,0.8686,-2.6240,0.0000,0.0000,0.0000,Frame 195
7.920,1.8349,0.8715,-2.5964,0.0000,0.0000,0.0000,Frame 198
8.040,1.7906,0.8501,-2.4996,0.0000,0.0000,0.0000,Frame 201
8.160,1.6790,0.7251,-2.5772,0.0000,0.0000,0.0000,Frame 204
8.280,1.5366,0.8350,-2.6246,0.0000,0.0000,0.0000,Frame 207
8.400,1.3566,1.0040,-2.5335,0.0000,0.0000,0.0000,Frame 210
8.520,1.1883,0.9938,-2.4721,0.0000,0.0000,0.0000,Frame 213
8.640,1.0309,0.9811,-2.4231,0.0000,0.0000,0.0000,Frame 216
8.760,0.8707,1.1973,-2.3413,0.0000,0.0000,0.0000,Frame 219
8.880,0.8819,1.1965,-2.3857,0.0000,0.0000,0.0000,Frame 222
9.000,1.0054,0.9825,-2.4017,0.0000,0.0000,0.0000,Frame 225
9.120,1.1564,0.9831,-2.4477,0.0000,0.0000,0.0000,Frame 228
9.240,0.5357,1.4398,-2.1123,0.0000,0.0000,0.0000,Frame 231
9.360,0.7241,1.5552,-2.1056,0.0000,0.0000,0.0000,Frame 234
9.480,0.6907,1.6574,-2.0667,0.0000,0.0000,0.0000,Frame 237
9.600,0.5510,1.9249,-2.0420,0.0000,0.0000,0.0000,Frame 240
9.720,0.3527,2.1551,-1.9143,0.0000,0.0000,0.0000,Frame 243
9.840,0.9761,1.9198,-2.2743,0.0000,0.0000,0.0000,Frame 246
9.960,0.7547,1.8174,-2.2718,0.0000,0.0000,0.0000,Frame 249
10.080,0.6651,1.7771,-2.1778,0.0000,0.0000,0.0000,Frame 252
10.200,0.8106,1.7375,-2.1929,0.0000,0.0000,0.0000,Frame 255
10.320,1.0086,1.5117,-2.3280,0.0000,0.0000,0.0000,Frame 258
10.440,1.1422,1.2883,-2.3975,0.0000,0.0000,0.0000,Frame 261
10.560,1.2394,1.2759,-2.5551,0.0000,0.0000,0.0000,Frame 264
10.680,1.2732,1.2157,-2.7177,0.0000,0.0000,0.0000,Frame 267
10.800,1.0785,1.2100,-2.6694,0.0000,0.0000,0.0000,Frame 270
10.920,0.8958,1.4341,-2.6556,0.0000,0.0000,0.0000,Frame 273
11.040,0.7471,1.6639,-2.5528,0.0000,0.0000,0.0000,Frame 276
11.160,0.6717,1.6722,-2.4297,0.0000,0.0000,0.0000,Frame 279
11.280,0.6219,1.6754,-2.3394,0.0000,0.0000,0.0000,Frame 282
11.400,0.5732,1.6725,-2.3758,0.0000,0.0000,0.0000,Frame 285
11.520,0.5690,1.6667,-2.3822,0.0000,0.0000,0.0000,Frame 288
11.640,0.5974,1.6587,-2.4319,0.0000,0.0000,0.0000,Frame 291
11.760,0.6220,1.6533,-2.5060,0.0000,0.0000,0.0000,Frame 294
11.880,0.6195,1.6489,-2.4218,0.0000,0.0000,0.0000,Frame 297
12.000,0.6824,1.6445,-2.3087,0.0000,0.0000,0.0000,Frame 300
12.120,0.6983,1.6435,-2.1906,0.0000,0.0000,0.0000,Frame 303
12.240,0.6889,1.6461,-2.2088,0.0000,0.0000,0.0000,Frame 306
12.360,0.6850,1.6467,-2.2135,0.0000,0.0000,0.0000,Frame 309
12.480,0.7253,1.6455,-2.3208,0.0000,0.0000,0.0000,Frame 312
12.600,0.7626,1.6465,-2.4719,0.0000,0.0000,0.0000,Frame 315
12.720,0.7848,1.6625,-2.5897,0.0000,0.0000,0.0000,Frame 318
12.840,0.8393,1.7216,-2.6280,0.0000,0.0000,0.0000,Frame 321
12.960,0.9974,1.7663,-2.6593,0.0000,0.0000,0.0000,Frame 324
13.080,1.1588,1.8086,-2.6837,0.0000,0.0000,0.0000,Frame 327
13.200,1.2933,1.8647,-2.6764,0.0000,0.0000,0.0000,Frame 330
13.320,1.3297,1.8962,-2.6070,0.0000,0.0000,0.0000,Frame 333
13.440,1.2773,1.6858,-2.4536,0.0000,0.0000,0.0000,Frame 336
13.560,1.1513,1.5630,-2.3239,0.0000,0.0000,0.0000,Frame 339
13.680,1.0090,1.4303,-2.1825,0.0000,0.0000,0.0000,Frame 342
13.800,0.8791,1.1997,-2.1776,0.0000,0.0000,0.0000,Frame 345
13.920,0.9696,1.1556,-2.3087,0.0000,0.0000,0.0000,Frame 348
14.040,1.1280,1.0846,-2.4372,0.0000,0.0000,0.0000,Frame 351
14.160,1.2603,0.9637,-2.5060,0.0000,0.0000,0.0000,Frame 354
14.280,1.4042,0.8430,-2.6320,0.0000,0.0000,0.0000,Frame 357
14.400,1.5760,0.7889,-2.7179,0.0000,0.0000,0.0000,Frame 360
14.520,1.6319,0.5587,-2.7226,0.0000,0.0000,0.0000,Frame 363
14.640,1.6286,0.5551,-2.7149,0.0000,0.0000,0.0000,Frame 366
14.760,1.4419,0.5243,-2.6228,0.0000,0.0000,0.0000,Frame 369
14.880,1.3790,0.5071,-2.6383,0.0000,0.0000,0.0000,Frame 372
15.000,1.3515,0.5124,-2.5412,0.0000,0.0000,0.0000,Frame 375
15.120,1.3021,0.7382,-2.5130,0.0000,0.0000,0.0000,Frame 378
15.240,1.1199,0.7470,-2.4394,0.0000,0.0000,0.0000,Frame 381
15.360,1.0950,0.7789,-2.5048,0.0000,0.0000,0.0000,Frame 384
15.480,0.9476,0.8141,-2.4669,0.0000,0.0000,0.0000,Frame 387
15.600,0.7639,0.8405,-2.4813,0.0000,0.0000,0.0000,Frame 390
15.720,0.5999,0.6372,-2.4561,0.0000,0.0000,0.0000,Frame 393
15.840,0.7295,0.6265,-2.5500,0.0000,0.0000,0.0000,Frame 396
15.960,0.9224,0.6064,-2.6046,0.0000,0.0000,0.0000,Frame 399
16.080,1.1000,0.6205,-2.4839,0.0000,0.0000,0.0000,Frame 402
16.200,1.2808,0.6374,-2.3912,0.0000,0.0000,0.0000,Frame 405
16.320,1.4707,0.6391,-2.3891,0.0000,0.0000,0.0000,Frame 408
16.440,1.5251,0.6587,-2.3699,0.0000,0.0000,0.0000,Frame 411
16.560,1.5379,0.7244,-2.2434,0.0000,0.0000,0.0000,Frame 414
16.680,1.5530,0.7229,-2.2870,0.0000,0.0000,0.0000,Frame 417
16.800,1.5632,0.7152,-2.3389,0.0000,0.0000,0.0000,Frame 420
16.920,1.5652,0.7208,-2.3103,0.0000,0.0000,0.0000,Frame 423
17.040,1.5669,0.7134,-2.3007,0.0000,0.0000,0.0000,Frame 426
17.160,1.5444,0.8613,-2.4538,0.0000,0.0000,0.0000,Frame 429
17.280,1.3832,1.0449,-2.4595,0.0000,0.0000,0.0000,Frame 432
17.400,1.2733,1.2322,-2.0974,0.0000,0.0000,0.0000,Frame 435
17.520,1.2327,1.2021,-2.1788,0.0000,0.0000,0.0000,Frame 438
17.640,1.1836,1.4154,-2.2207,0.0000,0.0000,0.0000,Frame 441
17.760,0.5764,1.4266,-2.2789,0.0000,0.0000,0.0000,Frame 444
17.880,0.8794,1.6118,-2.2991,0.0000,0.0000,0.0000,Frame 447
18.000,0.9939,1.8108,-2.3835,0.0000,0.0000,0.0000,Frame 450
18.120,1.0397,1.8946,-2.3151,0.0000,0.0000,0.0000,Frame 453
18.240,1.1199,1.8178,-2.0880,0.0000,0.0000,0.0000,Frame 456
18.360,1.7577,1.6088,-1.9862,0.0000,0.0000,0.0000,Frame 459
18.480,1.6167,1.2091,-2.0113,0.0000,0.0000,0.0000,Frame 462
18.600,1.5682,1.0144,-2.3553,0.0000,0.0000,0.0000,Frame 465
18.720,1.4067,1.1611,-2.3670,0.0000,0.0000,0.0000,Frame 468
18.840,1.2629,1.2375,-2.6225,0.0000,0.0000,0.0000,Frame 471
18.960,1.2551,1.2111,-2.6060,0.0000,0.0000,0.0000,Frame 474
19.080,1.3488,1.2001,-2.6625,0.0000,0.0000,0.0000,Frame 477
19.200,1.4170,0.9795,-2.6774,0.0000,0.0000,0.0000,Frame 480
19.320,1.5538,0.7514,-2.7809,0.0000,0.0000,0.0000,Frame 483
19.440,1.6263,0.7548,-2.8141,0.0000,0.0000,0.0000,Frame 486
19.560,1.5556,0.9899,-2.9211,0.0000,0.0000,0.0000,Frame 489
19.680,1.3904,1.2264,-2.9087,0.0000,0.0000,0.0000,Frame 492
19.800,1.2704,1.5094,-2.7811,0.0000,0.0000,0.0000,Frame 495
19.920,1.0704,1.9468,-2.4943,0.0000,0.0000,0.0000,Frame 498
20.040,1.0925,2.0976,-2.2669,0.0000,0.0000,0.0000,Frame 501
20.160,1.1701,2.1511,-2.1968,0.0000,0.0000,0.0000,Frame 504
20.280,1.2438,2.1941,-2.2335,0.0000,0.0000,0.0000,Frame 507
20.400,1.3295,2.1956,-2.3595,0.0000,0.0000,0.0000,Frame 510
20.520,1.5264,2.0031,-2.6100,0.0000,0.0000,0.0000,Frame 513
20.640,1.5035,1.8544,-2.7768,0.0000,0.0000,0.0000,Frame 516
20.760,1.4354,1.5683,-2.7704,0.0000,0.0000,0.0000,Frame 519
20.880,1.4141,1.5102,-2.7580,0.0000,0.0000,0.0000,Frame 522
21.000,0.8038,1.4642,-2.8038,0.0000,0.0000,0.0000,Frame 525
21.120,0.9047,1.6386,-2.6555,0.0000,0.0000,0.0000,Frame 528
21.240,0.9691,1.6761,-2.6207,0.0000,0.0000,0.0000,Frame 531
21.360,1.0435,1.6782,-2.6030,0.0000,0.0000,0.0000,Frame 534
21.480,1.0933,1.5199,-2.4956,0.0000,0.0000,0.0000,Frame 537
21.600,1.8015,1.4160,-2.3523,0.0000,0.0000,0.0000,Frame 540
21.720,1.8538,1.1845,-2.3950,0.0000,0.0000,0.0000,Frame 543
21.840,1.9026,1.0428,-2.3931,0.0000,0.0000,0.0000,Frame 546
21.960,1.8775,1.0664,-2.4397,0.0000,0.0000,0.0000,Frame 549
22.080,1.8054,1.0007,-2.5375,0.0000,0.0000,0.0000,Frame 552
22.200,1.5648,1.0817,-2.5815,0.0000,0.0000,0.0000,Frame 555
22.320,1.2679,1.1213,-2.6016,0.0000,0.0000,0.0000,Frame 558
22.440,1.0171,1.2225,-2.5376,0.0000,0.0000,0.0000,Frame 561
22.560,0.8575,1.4203,-2.4380,0.0000,0.0000,0.0000,Frame 564
22.680,0.7356,1.6443,-2.3736,0.0000,0.0000,0.0000,Frame 567
22.800,0.7195,1.6463,-2.3256,0.0000,0.0000,0.0000,Frame 570
22.920,0.7386,1.6466,-2.3119,0.0000,0.0000,0.0000,Frame 573
23.040,0.8203,1.6471,-2.4279,0.0000,0.0000,0.0000,Frame 576
23.160,0.9179,1.6496,-2.5410,0.0000,0.0000,0.0000,Frame 579
23.280,0.9596,1.6525,-2.5735,0.0000,0.0000,0.0000,Frame 582
23.400,1.0384,1.6537,-2.6674,0.0000,0.0000,0.0000,Frame 585
