Ted-Mellow/Robot-Rave---Bodhisattva-/Small arm /csv_trajectories/Cropped_thousandhand_trajectory.csv
time,joint1,joint2,joint3,joint4,joint5,joint6,description
2.401,-0.100,2.480,-0.100,0.000,0.000,0.000,Frame 0
2.441,-0.107,2.480,-0.100,0.000,0.000,0.000,Frame 1
2.481,-0.113,2.480,-0.100,0.000,0.000,0.000,Frame 2
2.521,-0.125,2.480,-0.100,0.000,0.000,0.000,Frame 3
2.561,-0.133,2.480,-0.100,0.000,0.000,0.000,Frame 4
2.602,-0.147,2.480,-0.100,0.000,0.000,0.000,Frame 5
2.642,-0.167,2.480,-0.100,0.000,0.000,0.000,Frame 6
2.682,-0.188,2.480,-0.100,0.000,0.000,0.000,Frame 7
2.722,-0.216,2.480,-0.100,0.000,0.000,0.000,Frame 8
6.804,-0.178,2.480,-0.100,0.000,0.000,0.000,Frame 9
6.844,-0.172,2.480,-0.100,0.000,0.000,0.000,Frame 10
6.884,-0.175,2.480,-0.100,0.000,0.000,0.000,Frame 11
6.924,-0.185,2.480,-0.100,0.000,0.000,0.000,Frame 12
6.964,-0.188,2.480,-0.100,0.000,0.000,0.000,Frame 13
7.004,-0.188,2.480,-0.100,0.000,0.000,0.000,Frame 14
7.044,-0.184,0.480,-0.100,0.000,0.000,0.000,Frame 15
7.084,-0.180,0.480,-0.100,0.000,0.000,0.000,Frame 16
7.124,-0.177,0.480,-0.100,0.000,0.000,0.000,Frame 17
7.164,-0.175,0.480,-0.100,0.000,0.000,0.000,Frame 18
7.204,-0.168,0.480,-0.100,0.000,0.000,0.000,Frame 19
7.244,-0.163,0.480,-0.100,0.000,0.000,0.000,Frame 20
7.284,-0.156,0.480,-0.100,0.000,0.000,0.000,Frame 21
7.324,-0.153,0.480,-0.100,0.000,0.000,0.000,Frame 22
7.364,-0.151,0.480,-0.100,0.000,0.000,0.000,Frame 23
7.404,-0.152,0.480,-0.100,0.000,0.000,0.000,Frame 24
7.444,-0.157,0.480,-0.100,0.000,0.000,0.000,Frame 25
7.484,-0.164,0.480,-0.100,0.000,0.000,0.000,Frame 26
7.524,-0.172,0.480,-0.100,0.000,0.000,0.000,Frame 27
7.564,-0.178,0.480,-0.100,0.000,0.000,0.000,Frame 28
7.604,-0.183,0.480,-0.100,0.000,0.000,0.000,Frame 29
7.644,-0.188,0.480,-0.100,0.000,0.000,0.000,Frame 30
7.684,-0.191,0.480,-0.100,0.000,0.000,0.000,Frame 31
7.724,-0.190,0.480,-0.100,0.000,0.000,0.000,Frame 32
7.764,-0.187,0.480,-0.100,0.000,0.000,0.000,Frame 33
7.805,-0.187,0.480,-0.100,0.000,0.000,0.000,Frame 34
7.845,-0.188,0.480,-0.100,0.000,0.000,0.000,Frame 35
7.885,-0.192,0.480,-0.100,0.000,0.000,0.000,Frame 36
7.925,-0.197,0.480,-0.100,0.000,0.000,0.000,Frame 37
7.965,-0.201,0.480,-0.100,0.000,0.000,0.000,Frame 38
8.005,-0.204,0.480,-0.100,0.000,0.000,0.000,Frame 39
8.045,-0.207,0.480,-0.100,0.000,0.000,0.000,Frame 40
8.085,-0.208,0.480,-0.100,0.000,0.000,0.000,Frame 41
8.125,-0.209,0.480,-0.100,0.000,0.000,0.000,Frame 42
8.165,-0.210,0.480,-0.100,0.000,0.000,0.000,Frame 43
8.205,-0.211,0.480,-0.100,0.000,0.000,0.000,Frame 44
8.245,-0.214,0.480,-0.100,0.000,0.000,0.000,Frame 45
8.285,-0.216,0.480,-0.100,0.000,0.000,0.000,Frame 46
8.325,-0.217,0.480,-0.100,0.000,0.000,0.000,Frame 47
8.365,-0.219,0.480,-0.100,0.000,0.000,0.000,Frame 48
8.405,-0.219,0.480,-0.100,0.000,0.000,0.000,Frame 49
8.445,-0.218,0.480,-0.100,0.000,0.000,0.000,Frame 50
8.485,-0.212,0.480,-0.100,0.000,0.000,0.000,Frame 51
8.525,-0.201,0.480,-0.100,0.000,0.000,0.000,Frame 52
8.565,-0.189,0.480,-0.100,0.000,0.000,0.000,Frame 53
8.605,-0.178,0.480,-0.100,0.000,0.000,0.000,Frame 54
8.645,-0.169,0.480,-0.100,0.000,0.000,0.000,Frame 55
8.685,-0.160,0.480,-0.100,0.000,0.000,0.000,Frame 56
8.725,-0.153,0.480,-0.100,0.000,0.000,0.000,Frame 57
8.765,-0.150,0.480,-0.100,0.000,0.000,0.000,Frame 58
8.805,-0.149,0.480,-0.100,0.000,0.000,0.000,Frame 59
8.845,-0.149,0.480,-0.100,0.000,0.000,0.000,Frame 60
8.885,-0.152,0.480,-0.100,0.000,0.000,0.000,Frame 61
8.925,-0.160,0.480,-0.100,0.000,0.000,0.000,Frame 62
8.965,-0.171,0.480,-0.100,0.000,0.000,0.000,Frame 63
9.005,-0.183,2.480,-0.100,0.000,0.000,0.000,Frame 64
9.045,-0.189,2.480,-0.100,0.000,0.000,0.000,Frame 65
9.085,-0.192,2.480,-0.100,0.000,0.000,0.000,Frame 66
9.125,-0.198,2.480,-0.100,0.000,0.000,0.000,Frame 67
9.165,-0.204,2.480,-0.100,0.000,0.000,0.000,Frame 68
9.205,-0.206,2.480,-0.100,0.000,0.000,0.000,Frame 69
10.766,-0.241,0.480,-0.100,0.000,0.000,0.000,Frame 70
10.806,-0.261,0.480,-0.100,0.000,0.000,0.000,Frame 71
10.846,-0.247,0.483,-0.100,0.000,0.000,0.000,Frame 72
10.886,-0.239,0.512,-0.100,0.000,0.000,0.000,Frame 73
10.926,-0.226,0.507,-0.100,0.000,0.000,0.000,Frame 74
19.811,-0.422,0.480,-0.100,0.000,0.000,0.000,Frame 75
20.252,-0.356,0.480,-0.100,0.000,0.000,0.000,Frame 76
20.292,-0.308,0.480,-0.100,0.000,0.000,0.000,Frame 77
20.332,-0.191,2.414,-0.100,0.000,0.000,0.000,Frame 78
20.412,-0.176,2.480,-0.100,0.000,0.000,0.000,Frame 79
20.452,-0.108,2.480,-0.100,0.000,0.000,0.000,Frame 80
20.492,-0.093,0.480,-0.100,0.000,0.000,0.000,Frame 81
20.532,-0.043,0.480,-0.100,0.000,0.000,0.000,Frame 82
22.653,-0.109,0.480,-0.100,0.000,0.000,0.000,Frame 83
22.693,-0.114,0.480,-0.100,0.000,0.000,0.000,Frame 84
22.733,-0.114,0.480,-0.100,0.000,0.000,0.000,Frame 85
26.095,-0.130,0.480,-0.100,0.000,0.000,0.000,Frame 86
26.135,-0.144,0.480,-0.100,0.000,0.000,0.000,Frame 87
26.215,-0.152,0.480,-0.100,0.000,0.000,0.000,Frame 88
26.255,-0.166,0.480,-0.100,0.000,0.000,0.000,Frame 89
26.295,-0.180,0.480,-0.100,0.000,0.000,0.000,Frame 90
26.335,-0.190,0.480,-0.100,0.000,0.000,0.000,Frame 91
26.375,-0.200,0.480,-0.100,0.000,0.000,0.000,Frame 92
26.415,-0.208,0.480,-0.100,0.000,0.000,0.000,Frame 93
26.455,-0.212,0.480,-0.100,0.000,0.000,0.000,Frame 94
26.495,-0.216,0.480,-0.100,0.000,0.000,0.000,Frame 95
26.535,-0.218,0.480,-0.100,0.000,0.000,0.000,Frame 96
26.575,-0.220,0.480,-0.100,0.000,0.000,0.000,Frame 97
26.615,-0.221,0.480,-0.100,0.000,0.000,0.000,Frame 98
26.655,-0.222,0.480,-0.100,0.000,0.000,0.000,Frame 99
26.695,-0.224,0.480,-0.100,0.000,0.000,0.000,Frame 100
26.735,-0.225,0.480,-0.100,0.000,0.000,0.000,Frame 101
26.776,-0.225,0.480,-0.100,0.000,0.000,0.000,Frame 102
26.816,-0.226,0.480,-0.100,0.000,0.000,0.000,Frame 103
26.856,-0.228,0.480,-0.100,0.000,0.000,0.000,Frame 104
26.896,-0.228,0.480,-0.100,0.000,0.000,0.000,Frame 105
26.936,-0.229,0.480,-0.100,0.000,0.000,0.000,Frame 106
26.976,-0.232,0.480,-0.100,0.000,0.000,0.000,Frame 107
27.016,-0.234,0.480,-0.100,0.000,0.000,0.000,Frame 108
27.056,-0.236,0.480,-0.100,0.000,0.000,0.000,Frame 109
27.096,-0.237,0.480,-0.100,0.000,0.000,0.000,Frame 110
27.136,-0.239,0.480,-0.100,0.000,0.000,0.000,Frame 111
27.176,-0.240,0.480,-0.100,0.000,0.000,0.000,Frame 112
27.216,-0.238,0.480,-0.100,0.000,0.000,0.000,Frame 113
27.256,-0.235,0.480,-0.100,0.000,0.000,0.000,Frame 114
27.296,-0.233,0.480,-0.100,0.000,0.000,0.000,Frame 115
27.336,-0.233,0.480,-0.100,0.000,0.000,0.000,Frame 116
27.376,-0.235,0.480,-0.100,0.000,0.000,0.000,Frame 117
27.416,-0.239,0.480,-0.100,0.000,0.000,0.000,Frame 118
27.456,-0.238,0.480,-0.100,0.000,0.000,0.000,Frame 119
27.496,-0.236,0.480,-0.100,0.000,0.000,0.000,Frame 120
27.536,-0.229,0.480,-0.100,0.000,0.000,0.000,Frame 121
27.576,-0.222,0.480,-0.100,0.000,0.000,0.000,Frame 122
27.616,-0.215,0.480,-0.100,0.000,0.000,0.000,Frame 123
27.656,-0.205,0.480,-0.100,0.000,0.000,0.000,Frame 124
27.696,-0.198,0.480,-0.100,0.000,0.000,0.000,Frame 125
27.736,-0.192,0.480,-0.100,0.000,0.000,0.000,Frame 126
27.776,-0.186,0.480,-0.100,0.000,0.000,0.000,Frame 127
27.816,-0.181,0.480,-0.100,0.000,0.000,0.000,Frame 128
27.856,-0.176,0.480,-0.100,0.000,0.000,0.000,Frame 129
27.896,-0.175,0.480,-0.100,0.000,0.000,0.000,Frame 130
27.936,-0.175,0.480,-0.100,0.000,0.000,0.000,Frame 131
27.976,-0.178,0.480,-0.100,0.000,0.000,0.000,Frame 132
28.016,-0.179,0.480,-0.100,0.000,0.000,0.000,Frame 133
28.056,-0.180,0.480,-0.100,0.000,0.000,0.000,Frame 134
28.096,-0.180,0.480,-0.100,0.000,0.000,0.000,Frame 135
28.136,-0.178,0.480,-0.100,0.000,0.000,0.000,Frame 136
28.176,-0.177,0.480,-0.100,0.000,0.000,0.000,Frame 137
28.216,-0.179,0.480,-0.100,0.000,0.000,0.000,Frame 138
28.256,-0.179,0.480,-0.100,0.000,0.000,0.000,Frame 139
28.296,-0.181,0.480,-0.100,0.000,0.000,0.000,Frame 140
28.336,-0.178,0.480,-0.100,0.000,0.000,0.000,Frame 141
28.376,-0.173,0.480,-0.100,0.000,0.000,0.000,Frame 142
28.416,-0.171,0.480,-0.100,0.000,0.000,0.000,Frame 143
28.456,-0.172,0.480,-0.100,0.000,0.000,0.000,Frame 144
28.497,-0.176,0.480,-0.100,0.000,0.000,0.000,Frame 145
28.537,-0.177,0.480,-0.100,0.000,0.000,0.000,Frame 146
28.577,-0.176,0.480,-0.100,0.000,0.000,0.000,Frame 147
28.617,-0.170,0.480,-0.100,0.000,0.000,0.000,Frame 148
28.657,-0.163,0.480,-0.100,0.000,0.000,0.000,Frame 149
28.697,-0.151,0.480,-0.100,0.000,0.000,0.000,Frame 150
28.737,-0.133,0.480,-0.100,0.000,0.000,0.000,Frame 151
28.777,-0.121,0.480,-0.100,0.000,0.000,0.000,Frame 152
28.817,-0.114,0.480,-0.100,0.000,0.000,0.000,Frame 153
28.857,-0.112,0.480,-0.100,0.000,0.000,0.000,Frame 154
28.897,-0.111,0.480,-0.100,0.000,0.000,0.000,Frame 155
28.937,-0.111,0.480,-0.100,0.000,0.000,0.000,Frame 156
28.977,-0.110,0.480,-0.100,0.000,0.000,0.000,Frame 157
29.017,-0.109,0.480,-0.100,0.000,0.000,0.000,Frame 158
29.057,-0.107,0.480,-0.100,0.000,0.000,0.000,Frame 159
29.097,-0.106,2.480,-0.100,0.000,0.000,0.000,Frame 160
29.137,-0.107,0.480,-0.100,0.000,0.000,0.000,Frame 161
29.177,-0.108,0.480,-0.100,0.000,0.000,0.000,Frame 162
29.217,-0.109,0.480,-0.100,0.000,0.000,0.000,Frame 163
29.257,-0.108,0.480,-0.100,0.000,0.000,0.000,Frame 164
29.297,-0.108,0.480,-0.100,0.000,0.000,0.000,Frame 165
29.337,-0.107,0.480,-0.100,0.000,0.000,0.000,Frame 166
29.377,-0.108,0.480,-0.100,0.000,0.000,0.000,Frame 167
29.417,-0.110,0.480,-0.100,0.000,0.000,0.000,Frame 168
29.457,-0.113,0.480,-0.100,0.000,0.000,0.000,Frame 169
29.497,-0.116,0.480,-0.100,0.000,0.000,0.000,Frame 170
29.537,-0.119,0.480,-0.100,0.000,0.000,0.000,Frame 171
29.577,-0.122,0.480,-0.100,0.000,0.000,0.000,Frame 172
29.617,-0.125,0.480,-0.100,0.000,0.000,0.000,Frame 173
29.657,-0.127,0.480,-0.100,0.000,0.000,0.000,Frame 174
29.697,-0.129,0.480,-0.100,0.000,0.000,0.000,Frame 175
29.737,-0.131,0.480,-0.100,0.000,0.000,0.000,Frame 176
29.777,-0.133,0.480,-0.100,0.000,0.000,0.000,Frame 177
29.817,-0.138,0.480,-0.100,0.000,0.000,0.000,Frame 178
29.857,-0.141,0.480,-0.100,0.000,0.000,0.000,Frame 179
29.897,-0.144,0.480,-0.100,0.000,0.000,0.000,Frame 180
29.937,-0.148,0.480,-0.100,0.000,0.000,0.000,Frame 181
29.977,-0.152,0.480,-0.100,0.000,0.000,0.000,Frame 182
30.017,-0.154,0.480,-0.100,0.000,0.000,0.000,Frame 183
30.057,-0.153,0.480,-0.100,0.000,0.000,0.000,Frame 184
30.097,-0.152,0.480,-0.100,0.000,0.000,0.000,Frame 185
30.137,-0.155,0.480,-0.100,0.000,0.000,0.000,Frame 186
30.177,-0.158,0.480,-0.100,0.000,0.000,0.000,Frame 187
30.218,-0.166,0.480,-0.100,0.000,0.000,0.000,Frame 188
30.258,-0.174,0.480,-0.100,0.000,0.000,0.000,Frame 189
30.298,-0.183,0.480,-0.100,0.000,0.000,0.000,Frame 190
30.338,-0.190,0.480,-0.100,0.000,0.000,0.000,Frame 191
30.378,-0.195,0.480,-0.100,0.000,0.000,0.000,Frame 192
30.418,-0.196,0.480,-0.100,0.000,0.000,0.000,Frame 193
30.458,-0.198,0.480,-0.100,0.000,0.000,0.000,Frame 194
30.498,-0.194,0.480,-0.100,0.000,0.000,0.000,Frame 195
30.538,-0.195,2.480,-0.100,0.000,0.000,0.000,Frame 196
30.578,-0.203,2.480,-0.100,0.000,0.000,0.000,Frame 197
30.618,-0.217,2.480,-0.100,0.000,0.000,0.000,Frame 198
30.658,-0.232,2.480,-0.100,0.000,0.000,0.000,Frame 199
30.698,-0.240,2.480,-0.100,0.000,0.000,0.000,Frame 200
30.738,-0.244,0.480,-0.100,0.000,0.000,0.000,Frame 201
30.778,-0.247,0.480,-0.100,0.000,0.000,0.000,Frame 202
30.818,-0.245,0.480,-0.100,0.000,0.000,0.000,Frame 203
33.139,-0.219,0.480,-0.100,0.000,0.000,0.000,Frame 204
33.179,-0.201,0.480,-0.100,0.000,0.000,0.000,Frame 205
33.219,-0.189,0.480,-0.100,0.000,0.000,0.000,Frame 206
33.259,-0.178,0.480,-0.100,0.000,0.000,0.000,Frame 207
33.299,-0.169,0.480,-0.100,0.000,0.000,0.000,Frame 208
33.339,-0.162,0.480,-0.100,0.000,0.000,0.000,Frame 209
33.379,-0.157,0.480,-0.100,0.000,0.000,0.000,Frame 210
33.419,-0.152,0.480,-0.100,0.000,0.000,0.000,Frame 211
33.459,-0.150,0.480,-0.100,0.000,0.000,0.000,Frame 212
33.499,-0.158,0.480,-0.100,0.000,0.000,0.000,Frame 213
33.539,-0.158,0.480,-0.100,0.000,0.000,0.000,Frame 214
33.579,-0.153,0.480,-0.100,0.000,0.000,0.000,Frame 215
33.619,-0.144,0.480,-0.100,0.000,0.000,0.000,Frame 216
33.659,-0.142,0.480,-0.100,0.000,0.000,0.000,Frame 217
33.700,-0.151,0.480,-0.100,0.000,0.000,0.000,Frame 218
33.740,-0.158,0.480,-0.100,0.000,0.000,0.000,Frame 219
33.780,-0.160,0.480,-0.100,0.000,0.000,0.000,Frame 220
33.820,-0.160,0.480,-0.100,0.000,0.000,0.000,Frame 221
33.860,-0.158,0.480,-0.100,0.000,0.000,0.000,Frame 222
33.900,-0.153,0.480,-0.100,0.000,0.000,0.000,Frame 223
33.940,-0.137,0.480,-0.100,0.000,0.000,0.000,Frame 224
33.980,-0.127,0.480,-0.100,0.000,0.000,0.000,Frame 225
34.020,-0.125,2.480,-0.100,0.000,0.000,0.000,Frame 226
34.060,-0.131,0.480,-0.100,0.000,0.000,0.000,Frame 227
34.100,-0.137,2.480,-0.100,0.000,0.000,0.000,Frame 228
34.140,-0.142,2.480,-0.100,0.000,0.000,0.000,Frame 229
34.180,-0.149,2.480,-0.100,0.000,0.000,0.000,Frame 230
34.220,-0.156,2.480,-0.100,0.000,0.000,0.000,Frame 231
34.260,-0.155,2.480,-0.100,0.000,0.000,0.000,Frame 232
34.300,-0.155,2.480,-0.100,0.000,0.000,0.000,Frame 233
34.340,-0.157,2.480,-0.100,0.000,0.000,0.000,Frame 234
34.380,-0.161,2.480,-0.100,0.000,0.000,0.000,Frame 235
34.420,-0.164,2.480,-0.100,0.000,0.000,0.000,Frame 236
34.460,-0.171,2.480,-0.100,0.000,0.000,0.000,Frame 237
34.500,-0.168,2.480,-0.100,0.000,0.000,0.000,Frame 238
34.540,-0.166,2.480,-0.100,0.000,0.000,0.000,Frame 239
34.580,-0.164,2.480,-0.100,0.000,0.000,0.000,Frame 240
34.620,-0.163,2.480,-0.100,0.000,0.000,0.000,Frame 241
34.660,-0.170,0.480,-0.100,0.000,0.000,0.000,Frame 242
34.700,-0.174,0.480,-0.100,0.000,0.000,0.000,Frame 243
34.740,-0.178,0.480,-0.100,0.000,0.000,0.000,Frame 244
34.780,-0.180,0.480,-0.100,0.000,0.000,0.000,Frame 245
34.820,-0.185,0.480,-0.100,0.000,0.000,0.000,Frame 246
34.860,-0.200,0.480,-0.100,0.000,0.000,0.000,Frame 247
34.900,-0.212,0.480,-0.100,0.000,0.000,0.000,Frame 248
34.940,-0.214,0.480,-0.100,0.000,0.000,0.000,Frame 249
34.980,-0.216,0.480,-0.100,0.000,0.000,0.000,Frame 250
35.020,-0.214,0.480,-0.100,0.000,0.000,0.000,Frame 251
35.060,-0.214,0.480,-0.100,0.000,0.000,0.000,Frame 252
35.100,-0.204,0.480,-0.100,0.000,0.000,0.000,Frame 253
35.140,-0.198,0.480,-0.100,0.000,0.000,0.000,Frame 254
35.180,-0.193,0.480,-0.100,0.000,0.000,0.000,Frame 255
35.220,-0.189,0.480,-0.100,0.000,0.000,0.000,Frame 256
35.260,-0.189,0.480,-0.100,0.000,0.000,0.000,Frame 257
35.300,-0.188,0.480,-0.100,0.000,0.000,0.000,Frame 258
35.340,-0.188,0.480,-0.100,0.000,0.000,0.000,Frame 259
35.380,-0.187,0.480,-0.100,0.000,0.000,0.000,Frame 260
35.421,-0.184,0.480,-0.100,0.000,0.000,0.000,Frame 261
35.461,-0.180,0.480,-0.100,0.000,0.000,0.000,Frame 262
35.501,-0.179,0.480,-0.100,0.000,0.000,0.000,Frame 263
35.541,-0.180,0.480,-0.100,0.000,0.000,0.000,Frame 264
35.581,-0.182,0.480,-0.100,0.000,0.000,0.000,Frame 265
35.621,-0.184,0.480,-0.100,0.000,0.000,0.000,Frame 266
35.661,-0.187,0.480,-0.100,0.000,0.000,0.000,Frame 267
35.701,-0.179,0.480,-0.100,0.000,0.000,0.000,Frame 268
35.741,-0.169,0.480,-0.100,0.000,0.000,0.000,Frame 269
35.781,-0.163,0.480,-0.100,0.000,0.000,0.000,Frame 270
35.821,-0.164,0.480,-0.100,0.000,0.000,0.000,Frame 271
35.861,-0.169,0.480,-0.100,0.000,0.000,0.000,Frame 272
35.901,-0.172,0.480,-0.100,0.000,0.000,0.000,Frame 273
35.941,-0.173,0.480,-0.100,0.000,0.000,0.000,Frame 274
35.981,-0.173,0.480,-0.100,0.000,0.000,0.000,Frame 275
36.021,-0.072,0.480,-0.100,0.000,0.000,0.000,Frame 276
36.061,-0.014,0.590,-0.100,0.000,0.000,0.000,Frame 277
36.101,0.027,0.692,-0.100,0.000,0.000,0.000,Frame 278
36.141,0.013,0.482,-0.100,0.000,0.000,0.000,Frame 279
36.181,-0.040,0.480,-0.100,0.000,0.000,0.000,Frame 280
36.221,-0.115,0.480,-0.100,0.000,0.000,0.000,Frame 281
36.261,-0.166,0.480,-0.100,0.000,0.000,0.000,Frame 282
36.301,-0.192,0.480,-0.100,0.000,0.000,0.000,Frame 283
36.341,-0.183,0.480,-0.100,0.000,0.000,0.000,Frame 284
36.381,-0.175,0.480,-0.100,0.000,0.000,0.000,Frame 285
36.421,-0.182,0.480,-0.100,0.000,0.000,0.000,Frame 286
36.461,-0.184,0.480,-0.100,0.000,0.000,0.000,Frame 287
36.501,-0.179,0.480,-0.100,0.000,0.000,0.000,Frame 288
36.541,-0.172,0.480,-0.100,0.000,0.000,0.000,Frame 289
36.581,-0.166,0.480,-0.100,0.000,0.000,0.000,Frame 290
36.621,-0.162,2.480,-0.100,0.000,0.000,0.000,Frame 291
36.661,-0.151,2.480,-0.100,0.000,0.000,0.000,Frame 292
36.701,-0.144,2.480,-0.100,0.000,0.000,0.000,Frame 293
36.741,-0.140,2.480,-0.100,0.000,0.000,0.000,Frame 294
36.781,-0.137,2.480,-0.100,0.000,0.000,0.000,Frame 295
36.821,-0.135,0.480,-0.100,0.000,0.000,0.000,Frame 296
36.861,-0.138,0.480,-0.100,0.000,0.000,0.000,Frame 297
36.901,-0.141,0.480,-0.100,0.000,0.000,0.000,Frame 298
36.941,-0.144,0.480,-0.100,0.000,0.000,0.000,Frame 299
36.981,-0.145,0.480,-0.100,0.000,0.000,0.000,Frame 300
37.021,-0.144,0.480,-0.100,0.000,0.000,0.000,Frame 301
37.061,-0.137,0.480,-0.100,0.000,0.000,0.000,Frame 302
37.101,-0.135,2.480,-0.100,0.000,0.000,0.000,Frame 303
37.142,-0.132,0.480,-0.100,0.000,0.000,0.000,Frame 304
37.182,-0.126,0.480,-0.100,0.000,0.000,0.000,Frame 305
37.222,-0.115,0.480,-0.100,0.000,0.000,0.000,Frame 306
37.262,-0.107,0.480,-0.100,0.000,0.000,0.000,Frame 307
37.302,-0.103,0.480,-0.100,0.000,0.000,0.000,Frame 308
37.342,-0.098,0.480,-0.100,0.000,0.000,0.000,Frame 309
37.382,-0.103,0.480,-0.100,0.000,0.000,0.000,Frame 310
37.422,-0.114,0.480,-0.100,0.000,0.000,0.000,Frame 311
37.462,-0.129,0.480,-0.100,0.000,0.000,0.000,Frame 312
37.502,-0.140,0.480,-0.100,0.000,0.000,0.000,Frame 313
37.542,-0.155,2.480,-0.100,0.000,0.000,0.000,Frame 314
37.582,-0.153,2.480,-0.100,0.000,0.000,0.000,Frame 315
37.622,-0.146,2.480,-0.100,0.000,0.000,0.000,Frame 316
37.662,-0.143,0.480,-0.100,0.000,0.000,0.000,Frame 317
37.702,-0.144,0.480,-0.100,0.000,0.000,0.000,Frame 318
37.742,-0.149,2.480,-0.100,0.000,0.000,0.000,Frame 319
37.782,-0.152,0.480,-0.100,0.000,0.000,0.000,Frame 320
37.822,-0.146,2.480,-0.100,0.000,0.000,0.000,Frame 321
37.862,-0.140,2.480,-0.100,0.000,0.000,0.000,Frame 322
37.902,-0.137,2.480,-0.100,0.000,0.000,0.000,Frame 323
37.942,-0.147,2.480,-0.100,0.000,0.000,0.000,Frame 324
37.982,-0.154,2.480,-0.100,0.000,0.000,0.000,Frame 325
38.022,-0.159,2.480,-0.100,0.000,0.000,0.000,Frame 326
38.062,-0.162,2.480,-0.100,0.000,0.000,0.000,Frame 327
38.102,-0.164,2.480,-0.100,0.000,0.000,0.000,Frame 328
38.142,-0.169,2.480,-0.100,0.000,0.000,0.000,Frame 329
38.182,-0.170,2.480,-0.100,0.000,0.000,0.000,Frame 330
38.222,-0.168,0.480,-0.100,0.000,0.000,0.000,Frame 331
38.262,-0.164,0.480,-0.100,0.000,0.000,0.000,Frame 332
38.302,-0.162,0.480,-0.100,0.000,0.000,0.000,Frame 333
38.342,-0.163,0.480,-0.100,0.000,0.000,0.000,Frame 334
38.382,-0.179,0.480,-0.100,0.000,0.000,0.000,Frame 335
38.422,-0.193,0.480,-0.100,0.000,0.000,0.000,Frame 336
38.462,-0.202,0.480,-0.100,0.000,0.000,0.000,Frame 337
38.502,-0.202,0.480,-0.100,0.000,0.000,0.000,Frame 338
38.542,-0.200,0.480,-0.100,0.000,0.000,0.000,Frame 339
38.582,-0.200,0.480,-0.100,0.000,0.000,0.000,Frame 340
38.622,-0.202,0.480,-0.100,0.000,0.000,0.000,Frame 341
38.662,-0.211,0.480,-0.100,0.000,0.000,0.000,Frame 342
38.702,-0.208,0.480,-0.100,0.000,0.000,0.000,Frame 343
38.742,-0.206,0.480,-0.100,0.000,0.000,0.000,Frame 344
38.782,-0.204,0.480,-0.100,0.000,0.000,0.000,Frame 345
38.822,-0.204,0.480,-0.100,0.000,0.000,0.000,Frame 346
38.863,-0.204,0.480,-0.100,0.000,0.000,0.000,Frame 347
38.903,-0.194,0.480,-0.100,0.000,0.000,0.000,Frame 348
38.943,-0.185,0.480,-0.100,0.000,0.000,0.000,Frame 349
38.983,-0.179,0.480,-0.100,0.000,0.000,0.000,Frame 350
39.023,-0.058,0.480,-0.100,0.000,0.000,0.000,Frame 351
39.303,-0.071,0.480,-0.100,0.000,0.000,0.000,Frame 352
39.343,-0.079,2.480,-0.100,0.000,0.000,0.000,Frame 353
39.383,-0.085,2.480,-0.100,0.000,0.000,0.000,Frame 354
39.423,-0.095,2.480,-0.100,0.000,0.000,0.000,Frame 355
39.463,-0.101,2.480,-0.100,0.000,0.000,0.000,Frame 356
39.503,-0.107,2.480,-0.100,0.000,0.000,0.000,Frame 357
39.543,-0.106,2.480,-0.100,0.000,0.000,0.000,Frame 358
39.583,-0.103,2.480,-0.100,0.000,0.000,0.000,Frame 359
39.623,-0.104,2.480,-0.100,0.000,0.000,0.000,Frame 360
39.663,-0.102,2.480,-0.100,0.000,0.000,0.000,Frame 361
39.703,-0.108,2.480,-0.100,0.000,0.000,0.000,Frame 362
39.743,-0.121,2.480,-0.100,0.000,0.000,0.000,Frame 363
39.783,-0.132,0.480,-0.100,0.000,0.000,0.000,Frame 364
39.823,-0.142,0.480,-0.100,0.000,0.000,0.000,Frame 365
39.863,-0.152,0.480,-0.100,0.000,0.000,0.000,Frame 366
39.903,-0.158,0.480,-0.100,0.000,0.000,0.000,Frame 367
39.943,-0.161,0.480,-0.100,0.000,0.000,0.000,Frame 368
39.983,-0.158,0.480,-0.100,0.000,0.000,0.000,Frame 369
40.023,-0.156,0.480,-0.100,0.000,0.000,0.000,Frame 370
40.063,-0.152,0.480,-0.100,0.000,0.000,0.000,Frame 371
40.103,-0.151,0.480,-0.100,0.000,0.000,0.000,Frame 372
40.143,-0.154,0.480,-0.100,0.000,0.000,0.000,Frame 373
40.183,-0.150,0.480,-0.100,0.000,0.000,0.000,Frame 374
40.223,-0.148,0.480,-0.100,0.000,0.000,0.000,Frame 375
40.263,-0.144,0.480,-0.100,0.000,0.000,0.000,Frame 376
40.303,-0.132,0.480,-0.100,0.000,0.000,0.000,Frame 377
40.343,-0.123,0.480,-0.100,0.000,0.000,0.000,Frame 378
40.383,-0.120,0.480,-0.100,0.000,0.000,0.000,Frame 379
40.423,-0.118,0.480,-0.100,0.000,0.000,0.000,Frame 380
40.463,-0.120,0.480,-0.100,0.000,0.000,0.000,Frame 381
40.503,-0.122,0.480,-0.100,0.000,0.000,0.000,Frame 382
40.543,-0.125,0.480,-0.100,0.000,0.000,0.000,Frame 383
40.584,-0.121,0.480,-0.100,0.000,0.000,0.000,Frame 384
40.624,-0.123,0.480,-0.100,0.000,0.000,0.000,Frame 385
40.664,-0.129,0.480,-0.100,0.000,0.000,0.000,Frame 386
40.704,-0.143,0.480,-0.100,0.000,0.000,0.000,Frame 387
40.744,-0.148,0.480,-0.100,0.000,0.000,0.000,Frame 388
40.784,-0.153,0.480,-0.100,0.000,0.000,0.000,Frame 389
40.824,-0.155,0.480,-0.100,0.000,0.000,0.000,Frame 390
40.864,-0.155,0.480,-0.100,0.000,0.000,0.000,Frame 391
40.904,-0.150,0.480,-0.100,0.000,0.000,0.000,Frame 392
40.944,-0.158,0.480,-0.100,0.000,0.000,0.000,Frame 393
40.984,-0.164,0.480,-0.100,0.000,0.000,0.000,Frame 394
41.024,-0.168,0.480,-0.100,0.000,0.000,0.000,Frame 395
41.064,-0.171,0.480,-0.100,0.000,0.000,0.000,Frame 396
41.104,-0.169,0.480,-0.100,0.000,0.000,0.000,Frame 397
41.144,-0.169,0.480,-0.100,0.000,0.000,0.000,Frame 398
41.184,-0.183,0.480,-0.100,0.000,0.000,0.000,Frame 399
41.224,-0.201,0.480,-0.100,0.000,0.000,0.000,Frame 400
41.264,-0.218,0.480,-0.100,0.000,0.000,0.000,Frame 401
41.304,-0.140,0.480,-0.100,0.000,0.000,0.000,Frame 402
41.344,-0.059,0.547,-0.100,0.000,0.000,0.000,Frame 403
41.384,0.006,0.741,-0.100,0.000,0.000,0.000,Frame 404
41.424,-0.145,0.551,-0.100,0.000,0.000,0.000,Frame 405
41.464,-0.084,0.797,-0.100,0.000,0.000,0.000,Frame 406
41.504,-0.033,0.995,-0.100,0.000,0.000,0.000,Frame 407
41.544,0.021,1.033,-0.100,0.000,0.000,0.000,Frame 408
41.584,-0.059,0.697,-0.100,0.000,0.000,0.000,Frame 409
41.624,-0.108,0.480,-0.100,0.000,0.000,0.000,Frame 410
41.664,-0.143,0.480,-0.100,0.000,0.000,0.000,Frame 411
50.789,-0.150,0.480,-0.100,0.000,0.000,0.000,Frame 412
50.829,-0.149,0.480,-0.100,0.000,0.000,0.000,Frame 413
50.869,-0.150,0.480,-0.100,0.000,0.000,0.000,Frame 414
50.909,-0.167,0.480,-0.100,0.000,0.000,0.000,Frame 415
50.950,-0.186,0.480,-0.100,0.000,0.000,0.000,Frame 416
50.990,-0.202,0.480,-0.100,0.000,0.000,0.000,Frame 417
51.030,-0.223,0.480,-0.100,0.000,0.000,0.000,Frame 418
51.070,-0.236,0.480,-0.100,0.000,0.000,0.000,Frame 419
51.110,-0.249,0.480,-0.100,0.000,0.000,0.000,Frame 420
51.150,-0.259,0.480,-0.100,0.000,0.000,0.000,Frame 421
51.190,-0.265,0.480,-0.100,0.000,0.000,0.000,Frame 422
51.230,-0.268,0.480,-0.100,0.000,0.000,0.000,Frame 423
51.270,-0.269,0.480,-0.100,0.000,0.000,0.000,Frame 424
51.310,-0.270,0.480,-0.100,0.000,0.000,0.000,Frame 425
51.350,-0.267,0.480,-0.100,0.000,0.000,0.000,Frame 426
51.390,-0.264,0.480,-0.100,0.000,0.000,0.000,Frame 427
51.430,-0.262,0.480,-0.100,0.000,0.000,0.000,Frame 428
51.470,-0.260,0.480,-0.100,0.000,0.000,0.000,Frame 429
51.510,-0.258,0.480,-0.100,0.000,0.000,0.000,Frame 430
51.550,-0.257,0.480,-0.100,0.000,0.000,0.000,Frame 431
51.590,-0.255,0.480,-0.100,0.000,0.000,0.000,Frame 432
51.630,-0.253,0.480,-0.100,0.000,0.000,0.000,Frame 433
51.670,-0.251,0.480,-0.100,0.000,0.000,0.000,Frame 434
51.710,-0.246,0.480,-0.100,0.000,0.000,0.000,Frame 435
51.750,-0.239,0.480,-0.100,0.000,0.000,0.000,Frame 436
51.790,-0.235,0.480,-0.100,0.000,0.000,0.000,Frame 437
51.830,-0.231,0.480,-0.100,0.000,0.000,0.000,Frame 438
51.870,-0.230,0.480,-0.100,0.000,0.000,0.000,Frame 439
51.910,-0.229,0.480,-0.100,0.000,0.000,0.000,Frame 440
51.950,-0.229,0.480,-0.100,0.000,0.000,0.000,Frame 441
51.990,-0.230,0.480,-0.100,0.000,0.000,0.000,Frame 442
52.030,-0.231,0.480,-0.100,0.000,0.000,0.000,Frame 443
52.070,-0.232,0.480,-0.100,0.000,0.000,0.000,Frame 444
52.110,-0.231,0.480,-0.100,0.000,0.000,0.000,Frame 445
52.150,-0.229,0.480,-0.100,0.000,0.000,0.000,Frame 446
52.190,-0.226,0.480,-0.100,0.000,0.000,0.000,Frame 447
52.230,-0.221,0.480,-0.100,0.000,0.000,0.000,Frame 448
52.270,-0.218,0.480,-0.100,0.000,0.000,0.000,Frame 449
52.310,-0.217,0.480,-0.100,0.000,0.000,0.000,Frame 450
52.350,-0.216,0.480,-0.100,0.000,0.000,0.000,Frame 451
52.390,-0.216,0.480,-0.100,0.000,0.000,0.000,Frame 452
52.430,-0.216,0.480,-0.100,0.000,0.000,0.000,Frame 453
52.470,-0.213,0.480,-0.100,0.000,0.000,0.000,Frame 454
52.510,-0.211,0.480,-0.100,0.000,0.000,0.000,Frame 455
52.550,-0.210,0.480,-0.100,0.000,0.000,0.000,Frame 456
52.590,-0.209,0.480,-0.100,0.000,0.000,0.000,Frame 457
52.630,-0.209,0.480,-0.100,0.000,0.000,0.000,Frame 458
52.671,-0.207,0.480,-0.100,0.000,0.000,0.000,Frame 459
52.711,-0.206,0.480,-0.100,0.000,0.000,0.000,Frame 460
52.751,-0.203,0.480,-0.100,0.000,0.000,0.000,Frame 461
52.791,-0.203,0.480,-0.100,0.000,0.000,0.000,Frame 462
52.831,-0.202,0.480,-0.100,0.000,0.000,0.000,Frame 463
52.871,-0.200,0.480,-0.100,0.000,0.000,0.000,Frame 464
52.911,-0.199,0.480,-0.100,0.000,0.000,0.000,Frame 465
52.951,-0.198,0.480,-0.100,0.000,0.000,0.000,Frame 466
52.991,-0.197,0.480,-0.100,0.000,0.000,0.000,Frame 467
53.031,-0.197,0.480,-0.100,0.000,0.000,0.000,Frame 468
53.071,-0.192,0.480,-0.100,0.000,0.000,0.000,Frame 469
53.111,-0.187,0.480,-0.100,0.000,0.000,0.000,Frame 470
53.151,-0.177,0.480,-0.100,0.000,0.000,0.000,Frame 471
53.191,-0.165,0.480,-0.100,0.000,0.000,0.000,Frame 472
53.231,-0.157,0.480,-0.100,0.000,0.000,0.000,Frame 473
53.271,-0.154,0.480,-0.100,0.000,0.000,0.000,Frame 474
53.311,-0.161,0.480,-0.100,0.000,0.000,0.000,Frame 475
53.351,-0.175,0.480,-0.100,0.000,0.000,0.000,Frame 476
53.391,-0.187,0.480,-0.100,0.000,0.000,0.000,Frame 477
53.431,-0.192,0.480,-0.100,0.000,0.000,0.000,Frame 478
53.471,-0.203,0.480,-0.100,0.000,0.000,0.000,Frame 479
53.511,-0.218,0.480,-0.100,0.000,0.000,0.000,Frame 480
53.551,-0.224,0.480,-0.100,0.000,0.000,0.000,Frame 481
53.591,-0.225,0.480,-0.100,0.000,0.000,0.000,Frame 482
53.631,-0.217,0.480,-0.100,0.000,0.000,0.000,Frame 483
53.671,-0.208,0.480,-0.100,0.000,0.000,0.000,Frame 484
53.711,-0.199,0.480,-0.100,0.000,0.000,0.000,Frame 485
53.751,-0.196,0.480,-0.100,0.000,0.000,0.000,Frame 486
53.791,-0.193,0.480,-0.100,0.000,0.000,0.000,Frame 487
53.831,-0.182,0.480,-0.100,0.000,0.000,0.000,Frame 488
53.871,-0.173,0.480,-0.100,0.000,0.000,0.000,Frame 489
53.911,-0.163,0.480,-0.100,0.000,0.000,0.000,Frame 490
53.951,-0.156,0.480,-0.100,0.000,0.000,0.000,Frame 491
53.991,-0.151,0.480,-0.100,0.000,0.000,0.000,Frame 492
54.031,-0.141,0.480,-0.100,0.000,0.000,0.000,Frame 493
54.071,-0.134,0.480,-0.100,0.000,0.000,0.000,Frame 494
54.111,-0.131,0.480,-0.100,0.000,0.000,0.000,Frame 495
54.151,-0.134,0.480,-0.100,0.000,0.000,0.000,Frame 496
54.191,-0.140,0.480,-0.100,0.000,0.000,0.000,Frame 497
54.231,-0.150,0.480,-0.100,0.000,0.000,0.000,Frame 498
54.271,-0.152,0.480,-0.100,0.000,0.000,0.000,Frame 499
54.311,-0.152,0.480,-0.100,0.000,0.000,0.000,Frame 500
54.351,-0.155,0.480,-0.100,0.000,0.000,0.000,Frame 501
54.392,-0.157,0.480,-0.100,0.000,0.000,0.000,Frame 502
54.432,-0.159,0.480,-0.100,0.000,0.000,0.000,Frame 503
54.472,-0.160,0.480,-0.100,0.000,0.000,0.000,Frame 504
54.512,-0.160,0.480,-0.100,0.000,0.000,0.000,Frame 505
54.552,-0.158,0.480,-0.100,0.000,0.000,0.000,Frame 506
54.592,-0.158,0.480,-0.100,0.000,0.000,0.000,Frame 507
54.632,-0.157,0.480,-0.100,0.000,0.000,0.000,Frame 508
54.672,-0.157,0.480,-0.100,0.000,0.000,0.000,Frame 509
54.712,-0.158,0.480,-0.100,0.000,0.000,0.000,Frame 510
54.752,-0.159,0.480,-0.100,0.000,0.000,0.000,Frame 511
54.792,-0.163,0.480,-0.100,0.000,0.000,0.000,Frame 512
54.832,-0.166,0.480,-0.100,0.000,0.000,0.000,Frame 513
54.872,-0.169,0.480,-0.100,0.000,0.000,0.000,Frame 514
54.912,-0.171,0.480,-0.100,0.000,0.000,0.000,Frame 515
54.952,-0.176,0.480,-0.100,0.000,0.000,0.000,Frame 516
54.992,-0.168,0.480,-0.100,0.000,0.000,0.000,Frame 517
55.032,-0.161,0.480,-0.100,0.000,0.000,0.000,Frame 518
55.072,-0.171,0.480,-0.100,0.000,0.000,0.000,Frame 519
55.112,-0.178,0.480,-0.100,0.000,0.000,0.000,Frame 520
55.152,-0.188,0.480,-0.100,0.000,0.000,0.000,Frame 521
55.192,-0.194,0.480,-0.100,0.000,0.000,0.000,Frame 522
55.232,-0.199,0.480,-0.100,0.000,0.000,0.000,Frame 523
55.272,-0.202,0.480,-0.100,0.000,0.000,0.000,Frame 524
55.312,-0.202,0.480,-0.100,0.000,0.000,0.000,Frame 525
55.352,-0.193,0.480,-0.100,0.000,0.000,0.000,Frame 526
55.392,-0.185,0.480,-0.100,0.000,0.000,0.000,Frame 527
55.432,-0.178,0.480,-0.100,0.000,0.000,0.000,Frame 528
55.472,-0.174,0.480,-0.100,0.000,0.000,0.000,Frame 529
55.512,-0.170,0.480,-0.100,0.000,0.000,0.000,Frame 530
55.552,-0.165,0.480,-0.100,0.000,0.000,0.000,Frame 531
55.592,-0.160,0.480,-0.100,0.000,0.000,0.000,Frame 532
55.632,-0.156,0.480,-0.100,0.000,0.000,0.000,Frame 533
55.672,-0.153,0.480,-0.100,0.000,0.000,0.000,Frame 534
55.712,-0.153,0.480,-0.100,0.000,0.000,0.000,Frame 535
55.752,-0.153,0.480,-0.100,0.000,0.000,0.000,Frame 536
55.792,-0.151,0.480,-0.100,0.000,0.000,0.000,Frame 537
55.832,-0.150,0.480,-0.100,0.000,0.000,0.000,Frame 538
55.872,-0.149,0.480,-0.100,0.000,0.000,0.000,Frame 539
55.912,-0.147,0.480,-0.100,0.000,0.000,0.000,Frame 540
55.952,-0.145,0.480,-0.100,0.000,0.000,0.000,Frame 541
55.992,-0.143,0.480,-0.100,0.000,0.000,0.000,Frame 542
56.032,-0.143,0.480,-0.100,0.000,0.000,0.000,Frame 543
56.072,-0.145,0.480,-0.100,0.000,0.000,0.000,Frame 544
56.113,-0.154,0.480,-0.100,0.000,0.000,0.000,Frame 545
56.153,-0.164,0.480,-0.100,0.000,0.000,0.000,Frame 546
56.193,-0.175,0.480,-0.100,0.000,0.000,0.000,Frame 547
56.233,-0.182,0.480,-0.100,0.000,0.000,0.000,Frame 548
56.273,-0.188,0.480,-0.100,0.000,0.000,0.000,Frame 549
56.313,-0.193,0.480,-0.100,0.000,0.000,0.000,Frame 550
56.353,-0.196,0.480,-0.100,0.000,0.000,0.000,Frame 551
56.393,-0.199,0.480,-0.100,0.000,0.000,0.000,Frame 552
56.433,-0.199,0.480,-0.100,0.000,0.000,0.000,Frame 553
56.473,-0.197,0.480,-0.100,0.000,0.000,0.000,Frame 554
56.513,-0.194,0.480,-0.100,0.000,0.000,0.000,Frame 555
56.553,-0.193,0.480,-0.100,0.000,0.000,0.000,Frame 556
56.593,-0.192,0.480,-0.100,0.000,0.000,0.000,Frame 557
56.633,-0.190,0.480,-0.100,0.000,0.000,0.000,Frame 558
56.673,-0.190,0.480,-0.100,0.000,0.000,0.000,Frame 559
56.713,-0.192,0.480,-0.100,0.000,0.000,0.000,Frame 560
56.753,-0.192,0.480,-0.100,0.000,0.000,0.000,Frame 561
56.793,-0.191,0.480,-0.100,0.000,0.000,0.000,Frame 562
56.833,-0.191,0.480,-0.100,0.000,0.000,0.000,Frame 563
56.873,-0.186,0.480,-0.100,0.000,0.000,0.000,Frame 564
56.913,-0.176,0.480,-0.100,0.000,0.000,0.000,Frame 565
56.953,-0.165,0.480,-0.100,0.000,0.000,0.000,Frame 566
56.993,-0.156,0.480,-0.100,0.000,0.000,0.000,Frame 567
57.033,-0.150,0.480,-0.100,0.000,0.000,0.000,Frame 568
57.073,-0.139,0.480,-0.100,0.000,0.000,0.000,Frame 569
57.113,-0.131,0.480,-0.100,0.000,0.000,0.000,Frame 570
57.153,-0.127,0.480,-0.100,0.000,0.000,0.000,Frame 571
57.193,-0.124,0.480,-0.100,0.000,0.000,0.000,Frame 572
57.233,-0.121,0.480,-0.100,0.000,0.000,0.000,Frame 573
57.273,-0.118,0.480,-0.100,0.000,0.000,0.000,Frame 574
57.313,-0.115,0.480,-0.100,0.000,0.000,0.000,Frame 575
57.353,-0.111,0.480,-0.100,0.000,0.000,0.000,Frame 576
57.393,-0.108,0.480,-0.100,0.000,0.000,0.000,Frame 577
57.433,-0.105,0.480,-0.100,0.000,0.000,0.000,Frame 578
57.473,-0.104,0.480,-0.100,0.000,0.000,0.000,Frame 579
57.513,-0.108,0.480,-0.100,0.000,0.000,0.000,Frame 580
57.553,-0.113,0.480,-0.100,0.000,0.000,0.000,Frame 581
57.593,-0.115,0.480,-0.100,0.000,0.000,0.000,Frame 582
57.633,-0.111,0.480,-0.100,0.000,0.000,0.000,Frame 583
57.673,-0.107,0.480,-0.100,0.000,0.000,0.000,Frame 584
57.713,-0.104,2.480,-0.100,0.000,0.000,0.000,Frame 585
57.753,-0.103,2.480,-0.100,0.000,0.000,0.000,Frame 586
57.793,-0.102,2.480,-0.100,0.000,0.000,0.000,Frame 587
57.834,-0.104,2.480,-0.100,0.000,0.000,0.000,Frame 588
57.874,-0.105,2.480,-0.100,0.000,0.000,0.000,Frame 589
57.914,-0.103,2.480,-0.100,0.000,0.000,0.000,Frame 590
57.954,-0.103,2.480,-0.100,0.000,0.000,0.000,Frame 591
57.994,-0.102,2.480,-0.100,0.000,0.000,0.000,Frame 592
58.034,-0.101,2.480,-0.100,0.000,0.000,0.000,Frame 593
58.074,-0.102,2.480,-0.100,0.000,0.000,0.000,Frame 594
58.114,-0.103,2.480,-0.100,0.000,0.000,0.000,Frame 595
58.154,-0.102,2.480,-0.100,0.000,0.000,0.000,Frame 596
58.194,-0.101,2.480,-0.100,0.000,0.000,0.000,Frame 597
58.234,-0.098,2.480,-0.100,0.000,0.000,0.000,Frame 598
58.274,-0.087,2.480,-0.100,0.000,0.000,0.000,Frame 599
58.314,-0.080,2.480,-0.100,0.000,0.000,0.000,Frame 600
58.354,-0.071,2.480,-0.100,0.000,0.000,0.000,Frame 601
58.394,-0.067,0.480,-0.100,0.000,0.000,0.000,Frame 602
58.434,-0.058,0.480,-0.100,0.000,0.000,0.000,Frame 603
58.474,-0.056,0.480,-0.100,0.000,0.000,0.000,Frame 604
58.514,-0.053,0.480,-0.100,0.000,0.000,0.000,Frame 605
58.554,-0.052,0.480,-0.100,0.000,0.000,0.000,Frame 606
58.594,-0.052,0.480,-0.100,0.000,0.000,0.000,Frame 607
58.634,-0.051,0.480,-0.100,0.000,0.000,0.000,Frame 608
58.674,-0.055,0.480,-0.100,0.000,0.000,0.000,Frame 609
58.714,-0.060,0.480,-0.100,0.000,0.000,0.000,Frame 610
58.754,-0.064,0.480,-0.100,0.000,0.000,0.000,Frame 611
58.794,-0.063,0.480,-0.100,0.000,0.000,0.000,Frame 612
58.834,-0.064,0.480,-0.100,0.000,0.000,0.000,Frame 613
58.874,-0.065,0.480,-0.100,0.000,0.000,0.000,Frame 614
58.914,-0.068,0.480,-0.100,0.000,0.000,0.000,Frame 615
58.954,-0.071,0.480,-0.100,0.000,0.000,0.000,Frame 616
58.994,-0.072,0.480,-0.100,0.000,0.000,0.000,Frame 617
59.034,-0.075,0.480,-0.100,0.000,0.000,0.000,Frame 618
59.074,-0.076,0.480,-0.100,0.000,0.000,0.000,Frame 619
59.114,-0.078,0.480,-0.100,0.000,0.000,0.000,Frame 620
59.154,-0.078,0.480,-0.100,0.000,0.000,0.000,Frame 621
59.194,-0.082,0.480,-0.100,0.000,0.000,0.000,Frame 622
59.234,-0.084,0.480,-0.100,0.000,0.000,0.000,Frame 623
59.274,-0.085,0.480,-0.100,0.000,0.000,0.000,Frame 624
59.314,-0.086,0.480,-0.100,0.000,0.000,0.000,Frame 625
59.354,-0.086,0.480,-0.100,0.000,0.000,0.000,Frame 626
59.394,-0.086,0.480,-0.100,0.000,0.000,0.000,Frame 627
59.434,-0.087,0.480,-0.100,0.000,0.000,0.000,Frame 628
59.474,-0.087,0.480,-0.100,0.000,0.000,0.000,Frame 629
59.514,-0.087,0.480,-0.100,0.000,0.000,0.000,Frame 630
59.555,-0.092,0.480,-0.100,0.000,0.000,0.000,Frame 631
59.595,-0.098,0.480,-0.100,0.000,0.000,0.000,Frame 632
59.635,-0.104,0.480,-0.100,0.000,0.000,0.000,Frame 633
59.675,-0.112,0.480,-0.100,0.000,0.000,0.000,Frame 634
59.715,-0.121,0.480,-0.100,0.000,0.000,0.000,Frame 635
59.755,-0.128,0.480,-0.100,0.000,0.000,0.000,Frame 636
59.795,-0.131,0.480,-0.100,0.000,0.000,0.000,Frame 637
59.835,-0.132,0.480,-0.100,0.000,0.000,0.000,Frame 638
59.875,-0.134,0.480,-0.100,0.000,0.000,0.000,Frame 639
59.915,-0.136,0.480,-0.100,0.000,0.000,0.000,Frame 640
59.955,-0.139,0.480,-0.100,0.000,0.000,0.000,Frame 641
59.995,-0.141,0.480,-0.100,0.000,0.000,0.000,Frame 642
60.035,-0.142,2.480,-0.100,0.000,0.000,0.000,Frame 643
60.075,-0.147,2.480,-0.100,0.000,0.000,0.000,Frame 644
60.115,-0.148,2.480,-0.100,0.000,0.000,0.000,Frame 645
60.155,-0.148,2.480,-0.100,0.000,0.000,0.000,Frame 646
60.195,-0.149,2.480,-0.100,0.000,0.000,0.000,Frame 647
60.235,-0.145,0.480,-0.100,0.000,0.000,0.000,Frame 648
60.275,-0.143,2.480,-0.100,0.000,0.000,0.000,Frame 649
60.315,-0.141,2.480,-0.100,0.000,0.000,0.000,Frame 650
60.355,-0.140,0.480,-0.100,0.000,0.000,0.000,Frame 651
60.395,-0.140,0.480,-0.100,0.000,0.000,0.000,Frame 652
60.435,-0.140,0.480,-0.100,0.000,0.000,0.000,Frame 653
60.475,-0.140,0.480,-0.100,0.000,0.000,0.000,Frame 654
60.515,-0.140,0.480,-0.100,0.000,0.000,0.000,Frame 655
60.555,-0.146,0.480,-0.100,0.000,0.000,0.000,Frame 656
60.595,-0.154,0.480,-0.100,0.000,0.000,0.000,Frame 657
60.635,-0.166,0.480,-0.100,0.000,0.000,0.000,Frame 658
60.675,-0.173,0.480,-0.100,0.000,0.000,0.000,Frame 659
60.715,-0.181,0.480,-0.100,0.000,0.000,0.000,Frame 660
60.755,-0.186,0.480,-0.100,0.000,0.000,0.000,Frame 661
60.795,-0.189,0.480,-0.100,0.000,0.000,0.000,Frame 662
60.835,-0.189,0.480,-0.100,0.000,0.000,0.000,Frame 663
60.875,-0.189,0.480,-0.100,0.000,0.000,0.000,Frame 664
60.915,-0.189,0.480,-0.100,0.000,0.000,0.000,Frame 665
60.955,-0.187,0.480,-0.100,0.000,0.000,0.000,Frame 666
60.995,-0.183,0.480,-0.100,0.000,0.000,0.000,Frame 667
61.035,-0.181,0.480,-0.100,0.000,0.000,0.000,Frame 668
61.075,-0.180,0.480,-0.100,0.000,0.000,0.000,Frame 669
61.115,-0.177,0.480,-0.100,0.000,0.000,0.000,Frame 670
61.155,-0.171,0.480,-0.100,0.000,0.000,0.000,Frame 671
61.195,-0.167,0.480,-0.100,0.000,0.000,0.000,Frame 672
61.235,-0.163,0.480,-0.100,0.000,0.000,0.000,Frame 673
61.275,-0.161,0.480,-0.100,0.000,0.000,0.000,Frame 674
61.316,-0.161,0.480,-0.100,0.000,0.000,0.000,Frame 675
61.356,-0.161,0.480,-0.100,0.000,0.000,0.000,Frame 676
61.396,-0.165,0.480,-0.100,0.000,0.000,0.000,Frame 677
61.436,-0.169,0.485,-0.100,0.000,0.000,0.000,Frame 678
61.476,-0.173,0.488,-0.100,0.000,0.000,0.000,Frame 679
61.516,-0.176,0.491,-0.100,0.000,0.000,0.000,Frame 680
61.556,-0.177,0.493,-0.100,0.000,0.000,0.000,Frame 681
61.596,-0.178,0.495,-0.100,0.000,0.000,0.000,Frame 682
61.636,-0.178,0.496,-0.100,0.000,0.000,0.000,Frame 683
61.676,-0.178,0.497,-0.100,0.000,0.000,0.000,Frame 684
61.716,-0.177,0.496,-0.100,0.000,0.000,0.000,Frame 685
61.756,-0.175,0.496,-0.100,0.000,0.000,0.000,Frame 686
61.796,-0.173,0.495,-0.100,0.000,0.000,0.000,Frame 687
61.836,-0.171,0.494,-0.100,0.000,0.000,0.000,Frame 688
61.876,-0.168,0.493,-0.100,0.000,0.000,0.000,Frame 689
