Ted-Mellow/Robot-Rave---Bodhisattva-/Small arm /csv_trajectories/Cropped_thousandhand_trajectory.csv
time,joint1,joint2,joint3,joint4,joint5,joint6,description
0.000,-0.062,2.480,-0.100,0.000,0.000,0.000,Frame 0
0.040,-0.092,2.480,-0.100,0.000,0.000,0.000,Frame 1
0.080,-0.097,2.480,-0.100,0.000,0.000,0.000,Frame 2
0.120,-0.096,2.480,-0.100,0.000,0.000,0.000,Frame 3
0.160,-0.086,2.480,-0.100,0.000,0.000,0.000,Frame 4
0.200,-0.080,2.480,-0.100,0.000,0.000,0.000,Frame 5
0.240,-0.078,2.480,-0.100,0.000,0.000,0.000,Frame 6
0.280,-0.079,2.480,-0.100,0.000,0.000,0.000,Frame 7
0.320,-0.080,2.479,-0.100,0.000,0.000,0.000,Frame 8
0.360,-0.078,2.479,-0.100,0.000,0.000,0.000,Frame 9
0.400,-0.072,2.480,-0.100,0.000,0.000,0.000,Frame 10
0.440,-0.072,2.478,-0.100,0.000,0.000,0.000,Frame 11
0.480,-0.079,2.478,-0.100,0.000,0.000,0.000,Frame 12
0.520,-0.082,2.480,-0.100,0.000,0.000,0.000,Frame 13
0.560,-0.085,2.480,-0.100,0.000,0.000,0.000,Frame 14
0.600,-0.088,2.480,-0.100,0.000,0.000,0.000,Frame 15
0.640,-0.093,2.480,-0.100,0.000,0.000,0.000,Frame 16
0.680,-0.093,2.480,-0.100,0.000,0.000,0.000,Frame 17
0.720,-0.099,2.480,-0.100,0.000,0.000,0.000,Frame 18
0.760,-0.104,2.480,-0.100,0.000,0.000,0.000,Frame 19
0.800,-0.106,2.480,-0.100,0.000,0.000,0.000,Frame 20
0.840,-0.108,2.480,-0.100,0.000,0.000,0.000,Frame 21
0.881,-0.114,2.480,-0.100,0.000,0.000,0.000,Frame 22
0.921,-0.112,2.480,-0.100,0.000,0.000,0.000,Frame 23
0.961,-0.109,2.480,-0.100,0.000,0.000,0.000,Frame 24
1.001,-0.093,2.480,-0.100,0.000,0.000,0.000,Frame 25
1.041,-0.097,2.480,-0.100,0.000,0.000,0.000,Frame 26
1.081,-0.094,2.480,-0.100,0.000,0.000,0.000,Frame 27
1.121,-0.102,2.480,-0.100,0.000,0.000,0.000,Frame 28
1.161,-0.100,2.480,-0.100,0.000,0.000,0.000,Frame 29
1.201,-0.103,2.480,-0.100,0.000,0.000,0.000,Frame 30
1.241,-0.109,2.480,-0.100,0.000,0.000,0.000,Frame 31
1.281,-0.107,2.480,-0.100,0.000,0.000,0.000,Frame 32
1.321,-0.113,2.480,-0.100,0.000,0.000,0.000,Frame 33
1.361,-0.108,2.480,-0.100,0.000,0.000,0.000,Frame 34
1.401,-0.111,2.480,-0.100,0.000,0.000,0.000,Frame 35
1.441,-0.116,2.480,-0.100,0.000,0.000,0.000,Frame 36
1.481,-0.114,2.480,-0.100,0.000,0.000,0.000,Frame 37
1.521,-0.113,2.480,-0.100,0.000,0.000,0.000,Frame 38
1.561,-0.107,2.480,-0.100,0.000,0.000,0.000,Frame 39
1.601,-0.111,2.480,-0.100,0.000,0.000,0.000,Frame 40
1.641,-0.122,2.480,-0.100,0.000,0.000,0.000,Frame 41
1.681,-0.135,2.480,-0.100,0.000,0.000,0.000,Frame 42
1.721,-0.142,2.480,-0.100,0.000,0.000,0.000,Frame 43
1.761,-0.142,2.480,-0.100,0.000,0.000,0.000,Frame 44
1.801,-0.150,2.480,-0.100,0.000,0.000,0.000,Frame 45
1.841,-0.167,2.480,-0.100,0.000,0.000,0.000,Frame 46
1.881,-0.142,2.480,-0.100,0.000,0.000,0.000,Frame 47
1.921,-0.115,2.480,-0.100,0.000,0.000,0.000,Frame 48
1.961,-0.136,2.480,-0.100,0.000,0.000,0.000,Frame 49
2.001,-0.146,2.480,-0.100,0.000,0.000,0.000,Frame 50
2.041,-0.145,2.480,-0.100,0.000,0.000,0.000,Frame 51
2.081,-0.147,2.480,-0.100,0.000,0.000,0.000,Frame 52
2.121,-0.124,2.480,-0.100,0.000,0.000,0.000,Frame 53
2.161,-0.113,2.480,-0.100,0.000,0.000,0.000,Frame 54
2.201,-0.115,2.480,-0.100,0.000,0.000,0.000,Frame 55
2.241,-0.110,2.480,-0.100,0.000,0.000,0.000,Frame 56
2.281,-0.116,2.480,-0.100,0.000,0.000,0.000,Frame 57
2.321,-0.122,2.480,-0.100,0.000,0.000,0.000,Frame 58
2.361,-0.123,2.480,-0.100,0.000,0.000,0.000,Frame 59
2.401,-0.117,2.480,-0.100,0.000,0.000,0.000,Frame 60
2.441,-0.122,2.480,-0.100,0.000,0.000,0.000,Frame 61
2.481,-0.130,0.480,-0.100,0.000,0.000,0.000,Frame 62
2.521,-0.136,2.480,-0.100,0.000,0.000,0.000,Frame 63
2.561,-0.155,2.480,-0.100,0.000,0.000,0.000,Frame 64
2.602,-0.174,0.480,-0.100,0.000,0.000,0.000,Frame 65
2.642,-0.186,0.480,-0.100,0.000,0.000,0.000,Frame 66
2.682,-0.234,2.480,-0.100,0.000,0.000,0.000,Frame 67
2.722,-0.228,0.480,-0.100,0.000,0.000,0.000,Frame 68
2.762,-0.223,0.480,-0.100,0.000,0.000,0.000,Frame 69
2.802,-0.221,0.480,-0.100,0.000,0.000,0.000,Frame 70
2.842,-0.223,0.480,-0.100,0.000,0.000,0.000,Frame 71
2.882,-0.239,0.480,-0.100,0.000,0.000,0.000,Frame 72
2.922,-0.259,0.480,-0.100,0.000,0.000,0.000,Frame 73
2.962,-0.252,0.480,-0.100,0.000,0.000,0.000,Frame 74
3.002,-0.252,0.480,-0.100,0.000,0.000,0.000,Frame 75
3.042,-0.262,0.480,-0.100,0.000,0.000,0.000,Frame 76
3.082,-0.266,0.480,-0.100,0.000,0.000,0.000,Frame 77
3.122,-0.269,0.480,-0.100,0.000,0.000,0.000,Frame 78
3.162,-0.269,0.480,-0.100,0.000,0.000,0.000,Frame 79
3.202,-0.263,0.480,-0.100,0.000,0.000,0.000,Frame 80
3.242,-0.255,0.480,-0.100,0.000,0.000,0.000,Frame 81
3.282,-0.253,0.480,-0.100,0.000,0.000,0.000,Frame 82
3.322,-0.244,0.480,-0.100,0.000,0.000,0.000,Frame 83
3.362,-0.253,0.480,-0.100,0.000,0.000,0.000,Frame 84
3.402,-0.250,0.480,-0.100,0.000,0.000,0.000,Frame 85
3.442,-0.238,0.480,-0.100,0.000,0.000,0.000,Frame 86
3.482,-0.238,0.480,-0.100,0.000,0.000,0.000,Frame 87
3.522,-0.239,0.480,-0.100,0.000,0.000,0.000,Frame 88
3.562,-0.246,0.480,-0.100,0.000,0.000,0.000,Frame 89
3.602,-0.240,0.480,-0.100,0.000,0.000,0.000,Frame 90
3.642,-0.228,0.480,-0.100,0.000,0.000,0.000,Frame 91
3.682,-0.222,0.480,-0.100,0.000,0.000,0.000,Frame 92
3.722,-0.206,0.480,-0.100,0.000,0.000,0.000,Frame 93
3.762,-0.206,0.480,-0.100,0.000,0.000,0.000,Frame 94
3.802,-0.207,0.480,-0.100,0.000,0.000,0.000,Frame 95
3.842,-0.207,0.480,-0.100,0.000,0.000,0.000,Frame 96
3.882,-0.202,0.480,-0.100,0.000,0.000,0.000,Frame 97
3.922,-0.198,0.480,-0.100,0.000,0.000,0.000,Frame 98
3.962,-0.198,0.480,-0.100,0.000,0.000,0.000,Frame 99
4.002,-0.211,0.480,-0.100,0.000,0.000,0.000,Frame 100
4.042,-0.209,0.480,-0.100,0.000,0.000,0.000,Frame 101
4.082,-0.229,0.480,-0.100,0.000,0.000,0.000,Frame 102
4.122,-0.233,0.480,-0.100,0.000,0.000,0.000,Frame 103
4.162,-0.236,0.480,-0.100,0.000,0.000,0.000,Frame 104
4.202,-0.234,0.480,-0.100,0.000,0.000,0.000,Frame 105
4.242,-0.228,0.480,-0.100,0.000,0.000,0.000,Frame 106
4.282,-0.223,0.480,-0.100,0.000,0.000,0.000,Frame 107
4.323,-0.223,0.480,-0.100,0.000,0.000,0.000,Frame 108
4.363,-0.223,0.480,-0.100,0.000,0.000,0.000,Frame 109
4.403,-0.221,0.480,-0.100,0.000,0.000,0.000,Frame 110
4.443,-0.223,0.480,-0.100,0.000,0.000,0.000,Frame 111
4.483,-0.224,0.480,-0.100,0.000,0.000,0.000,Frame 112
4.523,-0.227,0.480,-0.100,0.000,0.000,0.000,Frame 113
4.563,-0.228,0.480,-0.100,0.000,0.000,0.000,Frame 114
4.603,-0.227,0.480,-0.100,0.000,0.000,0.000,Frame 115
4.643,-0.227,0.480,-0.100,0.000,0.000,0.000,Frame 116
4.683,-0.228,0.480,-0.100,0.000,0.000,0.000,Frame 117
4.723,-0.235,0.480,-0.100,0.000,0.000,0.000,Frame 118
4.763,-0.215,0.480,-0.100,0.000,0.000,0.000,Frame 119
4.803,-0.213,0.480,-0.100,0.000,0.000,0.000,Frame 120
4.843,-0.213,0.480,-0.100,0.000,0.000,0.000,Frame 121
4.883,-0.213,0.480,-0.100,0.000,0.000,0.000,Frame 122
4.923,-0.205,0.480,-0.100,0.000,0.000,0.000,Frame 123
4.963,-0.205,0.480,-0.100,0.000,0.000,0.000,Frame 124
5.003,-0.195,0.480,-0.100,0.000,0.000,0.000,Frame 125
5.043,-0.197,0.480,-0.100,0.000,0.000,0.000,Frame 126
5.083,-0.203,0.480,-0.100,0.000,0.000,0.000,Frame 127
5.123,-0.239,0.480,-0.100,0.000,0.000,0.000,Frame 128
5.163,-0.242,0.480,-0.100,0.000,0.000,0.000,Frame 129
5.203,-0.236,0.480,-0.100,0.000,0.000,0.000,Frame 130
5.243,-0.235,0.480,-0.100,0.000,0.000,0.000,Frame 131
5.283,-0.234,0.480,-0.100,0.000,0.000,0.000,Frame 132
5.323,-0.228,0.480,-0.100,0.000,0.000,0.000,Frame 133
5.363,-0.250,0.480,-0.100,0.000,0.000,0.000,Frame 134
5.403,-0.268,0.480,-0.100,0.000,0.000,0.000,Frame 135
5.443,-0.262,0.480,-0.100,0.000,0.000,0.000,Frame 136
5.483,-0.278,0.480,-0.100,0.000,0.000,0.000,Frame 137
5.523,-0.267,0.480,-0.100,0.000,0.000,0.000,Frame 138
5.563,-0.257,0.480,-0.100,0.000,0.000,0.000,Frame 139
5.603,-0.249,0.480,-0.100,0.000,0.000,0.000,Frame 140
5.643,-0.268,0.480,-0.100,0.000,0.000,0.000,Frame 141
5.683,-0.258,0.480,-0.100,0.000,0.000,0.000,Frame 142
5.723,-0.240,0.480,-0.100,0.000,0.000,0.000,Frame 143
5.763,-0.231,0.480,-0.100,0.000,0.000,0.000,Frame 144
5.803,-0.225,0.480,-0.100,0.000,0.000,0.000,Frame 145
5.843,-0.225,0.480,-0.100,0.000,0.000,0.000,Frame 146
5.883,-0.217,0.480,-0.100,0.000,0.000,0.000,Frame 147
5.923,-0.211,0.480,-0.100,0.000,0.000,0.000,Frame 148
5.963,-0.197,0.480,-0.100,0.000,0.000,0.000,Frame 149
6.003,-0.155,0.480,-0.100,0.000,0.000,0.000,Frame 150
6.044,-0.147,0.480,-0.100,0.000,0.000,0.000,Frame 151
6.084,-0.117,0.480,-0.100,0.000,0.000,0.000,Frame 152
6.124,-0.140,0.480,-0.100,0.000,0.000,0.000,Frame 153
6.164,-0.142,0.480,-0.100,0.000,0.000,0.000,Frame 154
6.204,-0.153,0.480,-0.100,0.000,0.000,0.000,Frame 155
6.244,-0.120,0.480,-0.100,0.000,0.000,0.000,Frame 156
6.444,-0.052,0.480,-0.100,0.000,0.000,0.000,Frame 157
6.524,-0.071,0.480,-0.100,0.000,0.000,0.000,Frame 158
6.724,-0.186,2.480,-0.100,0.000,0.000,0.000,Frame 159
6.764,-0.195,2.480,-0.100,0.000,0.000,0.000,Frame 160
6.804,-0.203,2.480,-0.100,0.000,0.000,0.000,Frame 161
6.844,-0.205,0.480,-0.100,0.000,0.000,0.000,Frame 162
6.884,-0.221,0.480,-0.100,0.000,0.000,0.000,Frame 163
6.924,-0.225,0.480,-0.100,0.000,0.000,0.000,Frame 164
6.964,-0.232,0.480,-0.100,0.000,0.000,0.000,Frame 165
7.004,-0.226,0.480,-0.100,0.000,0.000,0.000,Frame 166
7.044,-0.219,0.480,-0.100,0.000,0.000,0.000,Frame 167
7.084,-0.214,0.480,-0.100,0.000,0.000,0.000,Frame 168
7.124,-0.214,0.480,-0.100,0.000,0.000,0.000,Frame 169
7.164,-0.212,0.480,-0.100,0.000,0.000,0.000,Frame 170
7.204,-0.207,0.480,-0.100,0.000,0.000,0.000,Frame 171
7.244,-0.180,0.480,-0.100,0.000,0.000,0.000,Frame 172
7.284,-0.183,0.480,-0.100,0.000,0.000,0.000,Frame 173
7.324,-0.197,0.480,-0.100,0.000,0.000,0.000,Frame 174
7.364,-0.200,0.480,-0.100,0.000,0.000,0.000,Frame 175
7.404,-0.185,0.480,-0.100,0.000,0.000,0.000,Frame 176
7.444,-0.186,0.480,-0.100,0.000,0.000,0.000,Frame 177
7.484,-0.163,0.480,-0.100,0.000,0.000,0.000,Frame 178
7.524,-0.162,0.480,-0.100,0.000,0.000,0.000,Frame 179
7.564,-0.148,0.480,-0.100,0.000,0.000,0.000,Frame 180
7.604,-0.141,0.480,-0.100,0.000,0.000,0.000,Frame 181
7.644,-0.143,0.480,-0.100,0.000,0.000,0.000,Frame 182
7.684,-0.144,0.480,-0.100,0.000,0.000,0.000,Frame 183
7.724,-0.150,0.480,-0.100,0.000,0.000,0.000,Frame 184
7.764,-0.129,0.480,-0.100,0.000,0.000,0.000,Frame 185
7.805,-0.131,2.480,-0.100,0.000,0.000,0.000,Frame 186
7.845,-0.107,2.480,-0.100,0.000,0.000,0.000,Frame 187
7.885,-0.107,2.480,-0.100,0.000,0.000,0.000,Frame 188
7.925,-0.099,0.480,-0.100,0.000,0.000,0.000,Frame 189
7.965,-0.068,2.480,-0.100,0.000,0.000,0.000,Frame 190
8.005,-0.060,2.480,-0.100,0.000,0.000,0.000,Frame 191
8.045,-0.056,0.480,-0.100,0.000,0.000,0.000,Frame 192
8.085,-0.073,0.480,-0.100,0.000,0.000,0.000,Frame 193
8.125,-0.083,2.480,-0.100,0.000,0.000,0.000,Frame 194
8.165,-0.094,2.480,-0.100,0.000,0.000,0.000,Frame 195
8.205,-0.079,2.480,-0.100,0.000,0.000,0.000,Frame 196
8.245,-0.070,2.480,-0.100,0.000,0.000,0.000,Frame 197
8.285,-0.064,2.480,-0.100,0.000,0.000,0.000,Frame 198
8.325,-0.084,2.480,-0.100,0.000,0.000,0.000,Frame 199
8.365,-0.089,2.480,-0.100,0.000,0.000,0.000,Frame 200
8.405,-0.060,2.480,-0.100,0.000,0.000,0.000,Frame 201
8.445,-0.070,2.480,-0.100,0.000,0.000,0.000,Frame 202
8.485,-0.120,2.480,-0.100,0.000,0.000,0.000,Frame 203
8.525,-0.086,2.480,-0.100,0.000,0.000,0.000,Frame 204
8.565,-0.066,2.480,-0.100,0.000,0.000,0.000,Frame 205
8.605,-0.059,2.480,-0.100,0.000,0.000,0.000,Frame 206
8.645,-0.061,2.480,-0.100,0.000,0.000,0.000,Frame 207
8.685,-0.061,2.480,-0.100,0.000,0.000,0.000,Frame 208
8.725,-0.085,2.480,-0.100,0.000,0.000,0.000,Frame 209
8.765,-0.109,2.480,-0.100,0.000,0.000,0.000,Frame 210
8.805,-0.136,2.480,-0.100,0.000,0.000,0.000,Frame 211
8.845,-0.203,2.480,-0.100,0.000,0.000,0.000,Frame 212
8.885,-0.224,2.480,-0.100,0.000,0.000,0.000,Frame 213
8.925,-0.223,0.480,-0.100,0.000,0.000,0.000,Frame 214
8.965,-0.229,0.480,-0.100,0.000,0.000,0.000,Frame 215
9.005,-0.231,0.480,-0.100,0.000,0.000,0.000,Frame 216
9.045,-0.217,0.480,-0.100,0.000,0.000,0.000,Frame 217
9.085,-0.210,0.480,-0.100,0.000,0.000,0.000,Frame 218
9.125,-0.201,0.480,-0.100,0.000,0.000,0.000,Frame 219
9.165,-0.193,0.480,-0.100,0.000,0.000,0.000,Frame 220
9.205,-0.166,0.480,-0.100,0.000,0.000,0.000,Frame 221
9.245,-0.138,0.480,-0.100,0.000,0.000,0.000,Frame 222
9.285,-0.115,0.480,-0.100,0.000,0.000,0.000,Frame 223
9.325,-0.104,0.480,-0.100,0.000,0.000,0.000,Frame 224
9.365,-0.105,0.480,-0.100,0.000,0.000,0.000,Frame 225
9.405,-0.113,0.480,-0.100,0.000,0.000,0.000,Frame 226
9.445,-0.105,0.480,-0.100,0.000,0.000,0.000,Frame 227
9.485,-0.098,0.480,-0.100,0.000,0.000,0.000,Frame 228
9.526,-0.100,0.480,-0.100,0.000,0.000,0.000,Frame 229
9.566,-0.098,0.480,-0.100,0.000,0.000,0.000,Frame 230
9.606,-0.105,0.480,-0.100,0.000,0.000,0.000,Frame 231
9.646,-0.116,0.480,-0.100,0.000,0.000,0.000,Frame 232
9.686,-0.119,0.480,-0.100,0.000,0.000,0.000,Frame 233
9.726,-0.158,0.480,-0.100,0.000,0.000,0.000,Frame 234
9.766,-0.198,0.480,-0.100,0.000,0.000,0.000,Frame 235
9.806,-0.209,0.480,-0.100,0.000,0.000,0.000,Frame 236
9.846,-0.211,0.480,-0.100,0.000,0.000,0.000,Frame 237
9.886,-0.212,0.480,-0.100,0.000,0.000,0.000,Frame 238
9.926,-0.211,0.480,-0.100,0.000,0.000,0.000,Frame 239
9.966,-0.224,0.480,-0.100,0.000,0.000,0.000,Frame 240
10.006,-0.223,0.480,-0.100,0.000,0.000,0.000,Frame 241
10.046,-0.212,0.480,-0.100,0.000,0.000,0.000,Frame 242
10.086,-0.197,0.480,-0.100,0.000,0.000,0.000,Frame 243
10.126,-0.211,0.480,-0.100,0.000,0.000,0.000,Frame 244
10.166,-0.211,0.480,-0.100,0.000,0.000,0.000,Frame 245
10.206,-0.183,0.480,-0.100,0.000,0.000,0.000,Frame 246
10.246,-0.181,0.480,-0.100,0.000,0.000,0.000,Frame 247
10.286,-0.162,0.480,-0.100,0.000,0.000,0.000,Frame 248
10.326,-0.136,0.480,-0.100,0.000,0.000,0.000,Frame 249
10.366,-0.137,0.480,-0.100,0.000,0.000,0.000,Frame 250
10.406,-0.138,0.480,-0.100,0.000,0.000,0.000,Frame 251
10.446,-0.108,0.480,-0.100,0.000,0.000,0.000,Frame 252
10.486,-0.091,0.480,-0.100,0.000,0.000,0.000,Frame 253
10.526,-0.090,0.480,-0.100,0.000,0.000,0.000,Frame 254
10.566,-0.095,0.480,-0.100,0.000,0.000,0.000,Frame 255
10.606,-0.071,0.480,-0.100,0.000,0.000,0.000,Frame 256
10.646,-0.072,0.480,-0.100,0.000,0.000,0.000,Frame 257
10.686,-0.091,0.480,-0.100,0.000,0.000,0.000,Frame 258
10.726,-0.075,0.480,-0.100,0.000,0.000,0.000,Frame 259
10.766,-0.086,0.480,-0.100,0.000,0.000,0.000,Frame 260
10.806,-0.082,0.480,-0.100,0.000,0.000,0.000,Frame 261
10.846,-0.064,0.480,-0.100,0.000,0.000,0.000,Frame 262
10.886,-0.076,0.480,-0.100,0.000,0.000,0.000,Frame 263
10.926,-0.103,0.480,-0.100,0.000,0.000,0.000,Frame 264
10.966,-0.120,0.480,-0.100,0.000,0.000,0.000,Frame 265
11.006,-0.102,0.480,-0.100,0.000,0.000,0.000,Frame 266
11.046,-0.110,0.480,-0.100,0.000,0.000,0.000,Frame 267
11.086,-0.100,0.480,-0.100,0.000,0.000,0.000,Frame 268
11.126,-0.100,0.480,-0.100,0.000,0.000,0.000,Frame 269
11.166,-0.099,0.480,-0.100,0.000,0.000,0.000,Frame 270
11.206,-0.091,0.480,-0.100,0.000,0.000,0.000,Frame 271
11.247,-0.085,0.480,-0.100,0.000,0.000,0.000,Frame 272
11.287,-0.094,0.480,-0.100,0.000,0.000,0.000,Frame 273
11.327,-0.089,0.480,-0.100,0.000,0.000,0.000,Frame 274
11.367,-0.087,0.480,-0.100,0.000,0.000,0.000,Frame 275
11.407,-0.082,0.480,-0.100,0.000,0.000,0.000,Frame 276
11.447,-0.087,0.480,-0.100,0.000,0.000,0.000,Frame 277
11.487,-0.124,0.480,-0.100,0.000,0.000,0.000,Frame 278
11.527,-0.162,0.480,-0.100,0.000,0.000,0.000,Frame 279
11.567,-0.173,0.480,-0.100,0.000,0.000,0.000,Frame 280
11.607,-0.152,0.480,-0.100,0.000,0.000,0.000,Frame 281
11.647,-0.128,0.480,-0.100,0.000,0.000,0.000,Frame 282
11.687,-0.108,0.480,-0.100,0.000,0.000,0.000,Frame 283
11.727,-0.099,0.480,-0.100,0.000,0.000,0.000,Frame 284
11.767,-0.106,0.480,-0.100,0.000,0.000,0.000,Frame 285
11.807,-0.113,0.480,-0.100,0.000,0.000,0.000,Frame 286
11.847,-0.113,0.480,-0.100,0.000,0.000,0.000,Frame 287
11.887,-0.132,0.480,-0.100,0.000,0.000,0.000,Frame 288
11.927,-0.136,0.480,-0.100,0.000,0.000,0.000,Frame 289
11.967,-0.132,0.480,-0.100,0.000,0.000,0.000,Frame 290
12.007,-0.127,0.480,-0.100,0.000,0.000,0.000,Frame 291
12.047,-0.126,0.480,-0.100,0.000,0.000,0.000,Frame 292
12.087,-0.148,0.480,-0.100,0.000,0.000,0.000,Frame 293
12.127,-0.155,0.480,-0.100,0.000,0.000,0.000,Frame 294
12.167,-0.179,0.480,-0.100,0.000,0.000,0.000,Frame 295
12.207,-0.192,0.480,-0.100,0.000,0.000,0.000,Frame 296
12.247,-0.205,0.480,-0.100,0.000,0.000,0.000,Frame 297
12.287,-0.217,0.480,-0.100,0.000,0.000,0.000,Frame 298
12.327,-0.245,0.480,-0.100,0.000,0.000,0.000,Frame 299
12.367,-0.250,0.480,-0.100,0.000,0.000,0.000,Frame 300
12.407,-0.246,0.480,-0.100,0.000,0.000,0.000,Frame 301
12.447,-0.251,0.480,-0.100,0.000,0.000,0.000,Frame 302
12.487,-0.256,0.480,-0.100,0.000,0.000,0.000,Frame 303
12.527,-0.250,0.480,-0.100,0.000,0.000,0.000,Frame 304
12.567,-0.249,0.480,-0.100,0.000,0.000,0.000,Frame 305
12.607,-0.277,0.480,-0.100,0.000,0.000,0.000,Frame 306
12.647,-0.236,0.480,-0.100,0.000,0.000,0.000,Frame 307
12.687,-0.257,0.480,-0.100,0.000,0.000,0.000,Frame 308
12.727,-0.281,0.480,-0.100,0.000,0.000,0.000,Frame 309
12.767,-0.270,0.480,-0.100,0.000,0.000,0.000,Frame 310
12.807,-0.259,0.480,-0.100,0.000,0.000,0.000,Frame 311
12.847,-0.235,0.480,-0.100,0.000,0.000,0.000,Frame 312
12.887,-0.225,0.480,-0.100,0.000,0.000,0.000,Frame 313
12.927,-0.230,0.480,-0.100,0.000,0.000,0.000,Frame 314
12.968,-0.224,0.480,-0.100,0.000,0.000,0.000,Frame 315
13.008,-0.232,0.480,-0.100,0.000,0.000,0.000,Frame 316
13.048,-0.238,0.480,-0.100,0.000,0.000,0.000,Frame 317
13.088,-0.251,0.480,-0.100,0.000,0.000,0.000,Frame 318
13.128,-0.260,0.480,-0.100,0.000,0.000,0.000,Frame 319
13.168,-0.269,0.480,-0.100,0.000,0.000,0.000,Frame 320
13.208,-0.270,0.480,-0.100,0.000,0.000,0.000,Frame 321
13.248,-0.269,0.480,-0.100,0.000,0.000,0.000,Frame 322
13.288,-0.252,0.480,-0.100,0.000,0.000,0.000,Frame 323
13.328,-0.256,0.480,-0.100,0.000,0.000,0.000,Frame 324
13.368,-0.261,0.480,-0.100,0.000,0.000,0.000,Frame 325
13.408,-0.260,0.480,-0.100,0.000,0.000,0.000,Frame 326
13.448,-0.260,0.480,-0.100,0.000,0.000,0.000,Frame 327
13.488,-0.252,0.480,-0.100,0.000,0.000,0.000,Frame 328
13.528,-0.253,0.480,-0.100,0.000,0.000,0.000,Frame 329
13.568,-0.259,0.480,-0.100,0.000,0.000,0.000,Frame 330
13.608,-0.290,0.480,-0.100,0.000,0.000,0.000,Frame 331
13.648,-0.308,0.480,-0.100,0.000,0.000,0.000,Frame 332
13.688,-0.303,0.480,-0.100,0.000,0.000,0.000,Frame 333
13.728,-0.294,0.480,-0.100,0.000,0.000,0.000,Frame 334
13.768,-0.284,0.480,-0.100,0.000,0.000,0.000,Frame 335
13.808,-0.281,0.480,-0.100,0.000,0.000,0.000,Frame 336
13.848,-0.281,0.480,-0.100,0.000,0.000,0.000,Frame 337
13.888,-0.272,0.480,-0.100,0.000,0.000,0.000,Frame 338
13.928,-0.262,0.480,-0.100,0.000,0.000,0.000,Frame 339
13.968,-0.266,0.480,-0.100,0.000,0.000,0.000,Frame 340
14.008,-0.251,0.480,-0.100,0.000,0.000,0.000,Frame 341
14.048,-0.233,0.480,-0.100,0.000,0.000,0.000,Frame 342
14.088,-0.214,0.480,-0.100,0.000,0.000,0.000,Frame 343
14.128,-0.211,0.480,-0.100,0.000,0.000,0.000,Frame 344
14.168,-0.231,0.480,-0.100,0.000,0.000,0.000,Frame 345
14.208,-0.240,0.480,-0.100,0.000,0.000,0.000,Frame 346
14.248,-0.255,0.480,-0.100,0.000,0.000,0.000,Frame 347
14.288,-0.256,0.480,-0.100,0.000,0.000,0.000,Frame 348
14.328,-0.245,0.480,-0.100,0.000,0.000,0.000,Frame 349
14.368,-0.235,0.480,-0.100,0.000,0.000,0.000,Frame 350
14.408,-0.225,0.480,-0.100,0.000,0.000,0.000,Frame 351
14.448,-0.221,0.480,-0.100,0.000,0.000,0.000,Frame 352
14.488,-0.212,0.480,-0.100,0.000,0.000,0.000,Frame 353
14.528,-0.202,0.480,-0.100,0.000,0.000,0.000,Frame 354
14.568,-0.203,0.480,-0.100,0.000,0.000,0.000,Frame 355
14.608,-0.204,0.480,-0.100,0.000,0.000,0.000,Frame 356
14.648,-0.205,0.480,-0.100,0.000,0.000,0.000,Frame 357
14.689,-0.217,0.480,-0.100,0.000,0.000,0.000,Frame 358
14.729,-0.212,0.480,-0.100,0.000,0.000,0.000,Frame 359
14.769,-0.194,0.480,-0.100,0.000,0.000,0.000,Frame 360
14.809,-0.184,0.480,-0.100,0.000,0.000,0.000,Frame 361
14.849,-0.175,0.480,-0.100,0.000,0.000,0.000,Frame 362
14.889,-0.172,0.480,-0.100,0.000,0.000,0.000,Frame 363
14.929,-0.188,0.480,-0.100,0.000,0.000,0.000,Frame 364
14.969,-0.200,0.480,-0.100,0.000,0.000,0.000,Frame 365
15.009,-0.210,0.480,-0.100,0.000,0.000,0.000,Frame 366
15.049,-0.217,0.480,-0.100,0.000,0.000,0.000,Frame 367
15.089,-0.219,0.480,-0.100,0.000,0.000,0.000,Frame 368
15.129,-0.208,0.480,-0.100,0.000,0.000,0.000,Frame 369
15.169,-0.199,0.480,-0.100,0.000,0.000,0.000,Frame 370
15.209,-0.205,0.480,-0.100,0.000,0.000,0.000,Frame 371
15.249,-0.212,0.480,-0.100,0.000,0.000,0.000,Frame 372
15.289,-0.208,0.480,-0.100,0.000,0.000,0.000,Frame 373
15.329,-0.215,0.480,-0.100,0.000,0.000,0.000,Frame 374
15.369,-0.215,0.480,-0.100,0.000,0.000,0.000,Frame 375
15.409,-0.213,0.480,-0.100,0.000,0.000,0.000,Frame 376
15.449,-0.215,0.480,-0.100,0.000,0.000,0.000,Frame 377
15.489,-0.197,0.480,-0.100,0.000,0.000,0.000,Frame 378
15.529,-0.199,0.480,-0.100,0.000,0.000,0.000,Frame 379
15.569,-0.199,0.480,-0.100,0.000,0.000,0.000,Frame 380
15.609,-0.202,0.480,-0.100,0.000,0.000,0.000,Frame 381
15.649,-0.205,0.480,-0.100,0.000,0.000,0.000,Frame 382
15.689,-0.209,0.480,-0.100,0.000,0.000,0.000,Frame 383
15.729,-0.228,0.480,-0.100,0.000,0.000,0.000,Frame 384
15.769,-0.230,0.480,-0.100,0.000,0.000,0.000,Frame 385
15.809,-0.244,0.480,-0.100,0.000,0.000,0.000,Frame 386
15.849,-0.254,0.480,-0.100,0.000,0.000,0.000,Frame 387
15.889,-0.263,0.480,-0.100,0.000,0.000,0.000,Frame 388
15.929,-0.283,0.480,-0.100,0.000,0.000,0.000,Frame 389
15.969,-0.300,0.480,-0.100,0.000,0.000,0.000,Frame 390
16.009,-0.300,0.480,-0.100,0.000,0.000,0.000,Frame 391
16.049,-0.301,0.480,-0.100,0.000,0.000,0.000,Frame 392
16.089,-0.300,0.480,-0.100,0.000,0.000,0.000,Frame 393
16.129,-0.253,0.480,-0.100,0.000,0.000,0.000,Frame 394
16.169,-0.239,0.480,-0.100,0.000,0.000,0.000,Frame 395
16.209,-0.252,0.480,-0.100,0.000,0.000,0.000,Frame 396
16.249,-0.244,0.480,-0.100,0.000,0.000,0.000,Frame 397
16.289,-0.247,0.480,-0.100,0.000,0.000,0.000,Frame 398
16.329,-0.263,0.480,-0.100,0.000,0.000,0.000,Frame 399
16.369,-0.260,0.480,-0.100,0.000,0.000,0.000,Frame 400
16.410,-0.268,0.480,-0.100,0.000,0.000,0.000,Frame 401
16.450,-0.277,0.480,-0.100,0.000,0.000,0.000,Frame 402
16.490,-0.297,0.480,-0.100,0.000,0.000,0.000,Frame 403
16.530,-0.289,0.480,-0.100,0.000,0.000,0.000,Frame 404
16.570,-0.289,0.480,-0.100,0.000,0.000,0.000,Frame 405
16.610,-0.293,0.480,-0.100,0.000,0.000,0.000,Frame 406
16.650,-0.291,0.480,-0.100,0.000,0.000,0.000,Frame 407
16.690,-0.287,0.480,-0.100,0.000,0.000,0.000,Frame 408
16.730,-0.281,0.480,-0.100,0.000,0.000,0.000,Frame 409
16.770,-0.269,0.480,-0.100,0.000,0.000,0.000,Frame 410
16.810,-0.295,0.480,-0.100,0.000,0.000,0.000,Frame 411
16.850,-0.283,0.480,-0.100,0.000,0.000,0.000,Frame 412
16.890,-0.284,0.480,-0.100,0.000,0.000,0.000,Frame 413
16.930,-0.264,0.480,-0.100,0.000,0.000,0.000,Frame 414
16.970,-0.272,0.480,-0.100,0.000,0.000,0.000,Frame 415
17.010,-0.253,0.480,-0.100,0.000,0.000,0.000,Frame 416
17.050,-0.244,0.480,-0.100,0.000,0.000,0.000,Frame 417
17.090,-0.233,0.480,-0.100,0.000,0.000,0.000,Frame 418
17.130,-0.243,0.480,-0.100,0.000,0.000,0.000,Frame 419
17.170,-0.237,0.480,-0.100,0.000,0.000,0.000,Frame 420
17.210,-0.235,0.480,-0.100,0.000,0.000,0.000,Frame 421
17.250,-0.239,0.480,-0.100,0.000,0.000,0.000,Frame 422
17.290,-0.237,0.480,-0.100,0.000,0.000,0.000,Frame 423
17.330,-0.243,0.480,-0.100,0.000,0.000,0.000,Frame 424
17.370,-0.206,0.480,-0.100,0.000,0.000,0.000,Frame 425
17.410,-0.198,0.480,-0.100,0.000,0.000,0.000,Frame 426
17.450,-0.199,0.480,-0.100,0.000,0.000,0.000,Frame 427
17.490,-0.195,0.480,-0.100,0.000,0.000,0.000,Frame 428
17.530,-0.226,0.480,-0.100,0.000,0.000,0.000,Frame 429
17.570,-0.228,0.480,-0.100,0.000,0.000,0.000,Frame 430
17.610,-0.254,0.480,-0.100,0.000,0.000,0.000,Frame 431
17.650,-0.226,0.480,-0.100,0.000,0.000,0.000,Frame 432
17.690,-0.247,0.480,-0.100,0.000,0.000,0.000,Frame 433
17.730,-0.259,0.480,-0.100,0.000,0.000,0.000,Frame 434
17.770,-0.269,0.480,-0.100,0.000,0.000,0.000,Frame 435
17.810,-0.294,0.480,-0.100,0.000,0.000,0.000,Frame 436
17.850,-0.266,0.480,-0.100,0.000,0.000,0.000,Frame 437
17.890,-0.263,0.480,-0.100,0.000,0.000,0.000,Frame 438
17.930,-0.245,0.480,-0.100,0.000,0.000,0.000,Frame 439
17.970,-0.253,0.480,-0.100,0.000,0.000,0.000,Frame 440
18.010,-0.254,0.480,-0.100,0.000,0.000,0.000,Frame 441
18.050,-0.287,0.480,-0.100,0.000,0.000,0.000,Frame 442
18.090,-0.280,0.480,-0.100,0.000,0.000,0.000,Frame 443
18.131,-0.292,0.480,-0.100,0.000,0.000,0.000,Frame 444
18.171,-0.302,0.480,-0.100,0.000,0.000,0.000,Frame 445
18.211,-0.296,0.480,-0.100,0.000,0.000,0.000,Frame 446
18.251,-0.291,0.480,-0.100,0.000,0.000,0.000,Frame 447
18.291,-0.288,0.480,-0.100,0.000,0.000,0.000,Frame 448
18.331,-0.263,0.480,-0.100,0.000,0.000,0.000,Frame 449
18.371,-0.281,0.480,-0.100,0.000,0.000,0.000,Frame 450
18.411,-0.246,0.480,-0.100,0.000,0.000,0.000,Frame 451
18.451,-0.250,0.480,-0.100,0.000,0.000,0.000,Frame 452
18.491,-0.254,0.480,-0.100,0.000,0.000,0.000,Frame 453
18.531,-0.275,0.480,-0.100,0.000,0.000,0.000,Frame 454
18.571,-0.276,0.480,-0.100,0.000,0.000,0.000,Frame 455
18.611,-0.277,0.480,-0.100,0.000,0.000,0.000,Frame 456
18.651,-0.273,0.480,-0.100,0.000,0.000,0.000,Frame 457
18.691,-0.274,0.480,-0.100,0.000,0.000,0.000,Frame 458
18.731,-0.274,0.480,-0.100,0.000,0.000,0.000,Frame 459
18.771,-0.270,0.480,-0.100,0.000,0.000,0.000,Frame 460
18.811,-0.276,0.480,-0.100,0.000,0.000,0.000,Frame 461
18.851,-0.264,0.480,-0.100,0.000,0.000,0.000,Frame 462
18.891,-0.264,0.480,-0.100,0.000,0.000,0.000,Frame 463
18.931,-0.270,0.480,-0.100,0.000,0.000,0.000,Frame 464
18.971,-0.271,0.480,-0.100,0.000,0.000,0.000,Frame 465
19.011,-0.279,0.480,-0.100,0.000,0.000,0.000,Frame 466
19.051,-0.297,0.480,-0.100,0.000,0.000,0.000,Frame 467
19.091,-0.301,0.480,-0.100,0.000,0.000,0.000,Frame 468
19.131,-0.295,0.480,-0.100,0.000,0.000,0.000,Frame 469
19.171,-0.275,0.480,-0.100,0.000,0.000,0.000,Frame 470
19.211,-0.268,0.480,-0.100,0.000,0.000,0.000,Frame 471
19.251,-0.282,0.480,-0.100,0.000,0.000,0.000,Frame 472
19.291,-0.282,0.480,-0.100,0.000,0.000,0.000,Frame 473
19.331,-0.284,0.480,-0.100,0.000,0.000,0.000,Frame 474
19.371,-0.286,0.480,-0.100,0.000,0.000,0.000,Frame 475
19.411,-0.255,0.480,-0.100,0.000,0.000,0.000,Frame 476
19.451,-0.263,0.480,-0.100,0.000,0.000,0.000,Frame 477
19.491,-0.263,0.480,-0.100,0.000,0.000,0.000,Frame 478
19.531,-0.279,0.480,-0.100,0.000,0.000,0.000,Frame 479
19.571,-0.314,0.480,-0.100,0.000,0.000,0.000,Frame 480
19.611,-0.312,0.480,-0.100,0.000,0.000,0.000,Frame 481
19.651,-0.316,0.480,-0.100,0.000,0.000,0.000,Frame 482
19.691,-0.346,0.480,-0.100,0.000,0.000,0.000,Frame 483
19.731,-0.335,0.480,-0.100,0.000,0.000,0.000,Frame 484
19.771,-0.331,0.480,-0.100,0.000,0.000,0.000,Frame 485
19.811,-0.332,0.480,-0.100,0.000,0.000,0.000,Frame 486
19.852,-0.340,0.480,-0.100,0.000,0.000,0.000,Frame 487
19.892,-0.343,0.480,-0.100,0.000,0.000,0.000,Frame 488
19.932,-0.311,0.480,-0.100,0.000,0.000,0.000,Frame 489
19.972,-0.310,0.480,-0.100,0.000,0.000,0.000,Frame 490
20.012,-0.292,0.480,-0.100,0.000,0.000,0.000,Frame 491
20.052,-0.301,0.480,-0.100,0.000,0.000,0.000,Frame 492
20.092,-0.314,0.480,-0.100,0.000,0.000,0.000,Frame 493
20.132,-0.326,0.480,-0.100,0.000,0.000,0.000,Frame 494
20.172,-0.320,0.480,-0.100,0.000,0.000,0.000,Frame 495
20.212,-0.318,0.480,-0.100,0.000,0.000,0.000,Frame 496
20.252,-0.287,0.480,-0.100,0.000,0.000,0.000,Frame 497
20.292,-0.280,0.480,-0.100,0.000,0.000,0.000,Frame 498
20.332,-0.317,0.480,-0.100,0.000,0.000,0.000,Frame 499
20.372,-0.277,0.480,-0.100,0.000,0.000,0.000,Frame 500
20.412,-0.283,0.480,-0.100,0.000,0.000,0.000,Frame 501
20.452,-0.269,0.480,-0.100,0.000,0.000,0.000,Frame 502
20.492,-0.316,0.480,-0.100,0.000,0.000,0.000,Frame 503
20.532,-0.334,0.480,-0.100,0.000,0.000,0.000,Frame 504
20.572,-0.330,0.480,-0.100,0.000,0.000,0.000,Frame 505
20.612,-0.308,0.480,-0.100,0.000,0.000,0.000,Frame 506
20.652,-0.323,0.480,-0.100,0.000,0.000,0.000,Frame 507
20.692,-0.329,0.480,-0.100,0.000,0.000,0.000,Frame 508
20.732,-0.321,0.480,-0.100,0.000,0.000,0.000,Frame 509
20.772,-0.326,0.480,-0.100,0.000,0.000,0.000,Frame 510
20.812,-0.331,0.480,-0.100,0.000,0.000,0.000,Frame 511
20.852,-0.316,0.480,-0.100,0.000,0.000,0.000,Frame 512
20.892,-0.312,0.480,-0.100,0.000,0.000,0.000,Frame 513
20.932,-0.314,0.480,-0.100,0.000,0.000,0.000,Frame 514
20.972,-0.300,0.480,-0.100,0.000,0.000,0.000,Frame 515
21.012,-0.301,0.480,-0.100,0.000,0.000,0.000,Frame 516
21.052,-0.309,0.480,-0.100,0.000,0.000,0.000,Frame 517
21.092,-0.309,0.480,-0.100,0.000,0.000,0.000,Frame 518
21.132,-0.314,0.480,-0.100,0.000,0.000,0.000,Frame 519
21.172,-0.327,0.480,-0.100,0.000,0.000,0.000,Frame 520
21.212,-0.330,0.480,-0.100,0.000,0.000,0.000,Frame 521
21.252,-0.329,0.480,-0.100,0.000,0.000,0.000,Frame 522
21.292,-0.325,0.480,-0.100,0.000,0.000,0.000,Frame 523
21.332,-0.316,0.480,-0.100,0.000,0.000,0.000,Frame 524
21.372,-0.324,0.480,-0.100,0.000,0.000,0.000,Frame 525
21.412,-0.314,0.480,-0.100,0.000,0.000,0.000,Frame 526
21.452,-0.301,0.480,-0.100,0.000,0.000,0.000,Frame 527
21.492,-0.295,0.480,-0.100,0.000,0.000,0.000,Frame 528
21.532,-0.295,0.480,-0.100,0.000,0.000,0.000,Frame 529
21.572,-0.296,0.480,-0.100,0.000,0.000,0.000,Frame 530
21.613,-0.292,0.480,-0.100,0.000,0.000,0.000,Frame 531
21.653,-0.280,0.480,-0.100,0.000,0.000,0.000,Frame 532
21.693,-0.299,0.480,-0.100,0.000,0.000,0.000,Frame 533
21.733,-0.326,0.480,-0.100,0.000,0.000,0.000,Frame 534
21.773,-0.322,0.480,-0.100,0.000,0.000,0.000,Frame 535
21.813,-0.333,0.480,-0.100,0.000,0.000,0.000,Frame 536
21.853,-0.300,0.480,-0.100,0.000,0.000,0.000,Frame 537
21.893,-0.300,0.480,-0.100,0.000,0.000,0.000,Frame 538
21.933,-0.299,0.480,-0.100,0.000,0.000,0.000,Frame 539
21.973,-0.294,0.480,-0.100,0.000,0.000,0.000,Frame 540
22.013,-0.272,0.480,-0.100,0.000,0.000,0.000,Frame 541
22.053,-0.280,0.480,-0.100,0.000,0.000,0.000,Frame 542
22.093,-0.286,0.480,-0.100,0.000,0.000,0.000,Frame 543
22.133,-0.286,0.480,-0.100,0.000,0.000,0.000,Frame 544
22.173,-0.268,0.480,-0.100,0.000,0.000,0.000,Frame 545
22.213,-0.276,0.480,-0.100,0.000,0.000,0.000,Frame 546
22.253,-0.278,0.480,-0.100,0.000,0.000,0.000,Frame 547
22.293,-0.270,0.480,-0.100,0.000,0.000,0.000,Frame 548
22.333,-0.244,0.480,-0.100,0.000,0.000,0.000,Frame 549
22.373,-0.251,0.480,-0.100,0.000,0.000,0.000,Frame 550
22.413,-0.249,0.480,-0.100,0.000,0.000,0.000,Frame 551
22.453,-0.244,0.480,-0.100,0.000,0.000,0.000,Frame 552
22.493,-0.260,0.480,-0.100,0.000,0.000,0.000,Frame 553
22.533,-0.253,0.480,-0.100,0.000,0.000,0.000,Frame 554
22.573,-0.225,0.480,-0.100,0.000,0.000,0.000,Frame 555
22.613,-0.214,0.480,-0.100,0.000,0.000,0.000,Frame 556
22.653,-0.220,0.480,-0.100,0.000,0.000,0.000,Frame 557
22.693,-0.214,0.480,-0.100,0.000,0.000,0.000,Frame 558
22.733,-0.215,0.480,-0.100,0.000,0.000,0.000,Frame 559
22.773,-0.213,0.480,-0.100,0.000,0.000,0.000,Frame 560
22.813,-0.216,0.480,-0.100,0.000,0.000,0.000,Frame 561
22.853,-0.203,0.480,-0.100,0.000,0.000,0.000,Frame 562
22.893,-0.207,0.480,-0.100,0.000,0.000,0.000,Frame 563
22.933,-0.208,0.480,-0.100,0.000,0.000,0.000,Frame 564
22.973,-0.209,0.480,-0.100,0.000,0.000,0.000,Frame 565
23.013,-0.204,0.480,-0.100,0.000,0.000,0.000,Frame 566
23.053,-0.203,0.480,-0.100,0.000,0.000,0.000,Frame 567
23.093,-0.203,0.480,-0.100,0.000,0.000,0.000,Frame 568
23.133,-0.203,0.480,-0.100,0.000,0.000,0.000,Frame 569
23.173,-0.200,0.480,-0.100,0.000,0.000,0.000,Frame 570
23.213,-0.190,0.480,-0.100,0.000,0.000,0.000,Frame 571
23.253,-0.185,0.480,-0.100,0.000,0.000,0.000,Frame 572
23.293,-0.183,0.480,-0.100,0.000,0.000,0.000,Frame 573
23.334,-0.175,0.480,-0.100,0.000,0.000,0.000,Frame 574
23.374,-0.169,0.480,-0.100,0.000,0.000,0.000,Frame 575
23.414,-0.154,0.480,-0.100,0.000,0.000,0.000,Frame 576
23.454,-0.157,0.480,-0.100,0.000,0.000,0.000,Frame 577
23.494,-0.164,0.480,-0.100,0.000,0.000,0.000,Frame 578
23.534,-0.178,0.480,-0.100,0.000,0.000,0.000,Frame 579
23.574,-0.178,0.480,-0.100,0.000,0.000,0.000,Frame 580
23.614,-0.184,0.480,-0.100,0.000,0.000,0.000,Frame 581
23.654,-0.176,0.480,-0.100,0.000,0.000,0.000,Frame 582
23.694,-0.170,0.480,-0.100,0.000,0.000,0.000,Frame 583
23.734,-0.172,0.480,-0.100,0.000,0.000,0.000,Frame 584
23.774,-0.171,0.480,-0.100,0.000,0.000,0.000,Frame 585
23.814,-0.168,0.480,-0.100,0.000,0.000,0.000,Frame 586
23.854,-0.162,0.480,-0.100,0.000,0.000,0.000,Frame 587
23.894,-0.158,0.480,-0.100,0.000,0.000,0.000,Frame 588
23.934,-0.155,0.480,-0.100,0.000,0.000,0.000,Frame 589
23.974,-0.159,0.480,-0.100,0.000,0.000,0.000,Frame 590
24.014,-0.158,0.480,-0.100,0.000,0.000,0.000,Frame 591
24.054,-0.158,0.480,-0.100,0.000,0.000,0.000,Frame 592
24.094,-0.161,0.480,-0.100,0.000,0.000,0.000,Frame 593
24.134,-0.160,0.480,-0.100,0.000,0.000,0.000,Frame 594
24.174,-0.157,0.480,-0.100,0.000,0.000,0.000,Frame 595
24.214,-0.144,0.480,-0.100,0.000,0.000,0.000,Frame 596
24.254,-0.143,0.480,-0.100,0.000,0.000,0.000,Frame 597
24.294,-0.137,0.480,-0.100,0.000,0.000,0.000,Frame 598
24.334,-0.133,0.480,-0.100,0.000,0.000,0.000,Frame 599
24.374,-0.134,0.480,-0.100,0.000,0.000,0.000,Frame 600
24.414,-0.132,0.480,-0.100,0.000,0.000,0.000,Frame 601
24.454,-0.122,0.480,-0.100,0.000,0.000,0.000,Frame 602
24.494,-0.115,0.480,-0.100,0.000,0.000,0.000,Frame 603
24.534,-0.113,0.480,-0.100,0.000,0.000,0.000,Frame 604
24.574,-0.116,0.480,-0.100,0.000,0.000,0.000,Frame 605
24.614,-0.164,0.480,-0.100,0.000,0.000,0.000,Frame 606
24.654,-0.153,0.480,-0.100,0.000,0.000,0.000,Frame 607
24.694,-0.146,0.480,-0.100,0.000,0.000,0.000,Frame 608
24.734,-0.144,0.480,-0.100,0.000,0.000,0.000,Frame 609
24.774,-0.139,0.480,-0.100,0.000,0.000,0.000,Frame 610
24.814,-0.151,0.480,-0.100,0.000,0.000,0.000,Frame 611
24.854,-0.168,0.480,-0.100,0.000,0.000,0.000,Frame 612
24.894,-0.163,0.480,-0.100,0.000,0.000,0.000,Frame 613
24.934,-0.162,0.480,-0.100,0.000,0.000,0.000,Frame 614
24.974,-0.165,0.480,-0.100,0.000,0.000,0.000,Frame 615
25.014,-0.164,0.480,-0.100,0.000,0.000,0.000,Frame 616
25.055,-0.171,0.480,-0.100,0.000,0.000,0.000,Frame 617
25.095,-0.172,0.480,-0.100,0.000,0.000,0.000,Frame 618
25.135,-0.161,0.480,-0.100,0.000,0.000,0.000,Frame 619
25.175,-0.161,0.480,-0.100,0.000,0.000,0.000,Frame 620
25.215,-0.158,0.480,-0.100,0.000,0.000,0.000,Frame 621
25.255,-0.156,0.480,-0.100,0.000,0.000,0.000,Frame 622
25.295,-0.150,0.480,-0.100,0.000,0.000,0.000,Frame 623
25.335,-0.150,0.480,-0.100,0.000,0.000,0.000,Frame 624
25.375,-0.143,0.480,-0.100,0.000,0.000,0.000,Frame 625
25.415,-0.160,0.480,-0.100,0.000,0.000,0.000,Frame 626
25.455,-0.161,0.480,-0.100,0.000,0.000,0.000,Frame 627
25.495,-0.152,0.480,-0.100,0.000,0.000,0.000,Frame 628
25.535,-0.163,0.480,-0.100,0.000,0.000,0.000,Frame 629
25.575,-0.161,0.480,-0.100,0.000,0.000,0.000,Frame 630
25.615,-0.158,0.480,-0.100,0.000,0.000,0.000,Frame 631
25.655,-0.161,0.480,-0.100,0.000,0.000,0.000,Frame 632
25.695,-0.162,0.480,-0.100,0.000,0.000,0.000,Frame 633
25.735,-0.162,0.480,-0.100,0.000,0.000,0.000,Frame 634
25.775,-0.164,0.480,-0.100,0.000,0.000,0.000,Frame 635
25.815,-0.163,0.480,-0.100,0.000,0.000,0.000,Frame 636
25.855,-0.169,0.480,-0.100,0.000,0.000,0.000,Frame 637
25.895,-0.172,0.480,-0.100,0.000,0.000,0.000,Frame 638
25.935,-0.171,0.480,-0.100,0.000,0.000,0.000,Frame 639
25.975,-0.170,0.480,-0.100,0.000,0.000,0.000,Frame 640
26.015,-0.170,0.480,-0.100,0.000,0.000,0.000,Frame 641
26.055,-0.169,0.480,-0.100,0.000,0.000,0.000,Frame 642
26.095,-0.179,0.480,-0.100,0.000,0.000,0.000,Frame 643
26.135,-0.181,0.480,-0.100,0.000,0.000,0.000,Frame 644
26.175,-0.182,0.480,-0.100,0.000,0.000,0.000,Frame 645
26.215,-0.179,0.480,-0.100,0.000,0.000,0.000,Frame 646
26.255,-0.175,0.480,-0.100,0.000,0.000,0.000,Frame 647
26.295,-0.180,0.480,-0.100,0.000,0.000,0.000,Frame 648
26.335,-0.185,0.480,-0.100,0.000,0.000,0.000,Frame 649
26.375,-0.187,0.480,-0.100,0.000,0.000,0.000,Frame 650
26.415,-0.188,0.480,-0.100,0.000,0.000,0.000,Frame 651
26.455,-0.187,0.480,-0.100,0.000,0.000,0.000,Frame 652
26.495,-0.188,0.480,-0.100,0.000,0.000,0.000,Frame 653
26.535,-0.188,0.480,-0.100,0.000,0.000,0.000,Frame 654
26.575,-0.185,0.480,-0.100,0.000,0.000,0.000,Frame 655
26.615,-0.181,0.480,-0.100,0.000,0.000,0.000,Frame 656
26.655,-0.174,0.480,-0.100,0.000,0.000,0.000,Frame 657
26.695,-0.167,0.480,-0.100,0.000,0.000,0.000,Frame 658
26.735,-0.163,0.480,-0.100,0.000,0.000,0.000,Frame 659
26.776,-0.150,0.480,-0.100,0.000,0.000,0.000,Frame 660
26.816,-0.151,0.480,-0.100,0.000,0.000,0.000,Frame 661
26.856,-0.148,0.480,-0.100,0.000,0.000,0.000,Frame 662
26.896,-0.153,0.480,-0.100,0.000,0.000,0.000,Frame 663
26.936,-0.160,0.480,-0.100,0.000,0.000,0.000,Frame 664
26.976,-0.177,0.480,-0.100,0.000,0.000,0.000,Frame 665
27.016,-0.175,0.480,-0.100,0.000,0.000,0.000,Frame 666
27.056,-0.177,0.480,-0.100,0.000,0.000,0.000,Frame 667
27.096,-0.176,0.480,-0.100,0.000,0.000,0.000,Frame 668
27.136,-0.179,0.480,-0.100,0.000,0.000,0.000,Frame 669
27.176,-0.190,0.480,-0.100,0.000,0.000,0.000,Frame 670
27.216,-0.192,0.480,-0.100,0.000,0.000,0.000,Frame 671
27.256,-0.191,0.480,-0.100,0.000,0.000,0.000,Frame 672
27.296,-0.194,0.480,-0.100,0.000,0.000,0.000,Frame 673
27.336,-0.202,0.480,-0.100,0.000,0.000,0.000,Frame 674
27.376,-0.229,0.480,-0.100,0.000,0.000,0.000,Frame 675
27.416,-0.235,0.480,-0.100,0.000,0.000,0.000,Frame 676
27.456,-0.245,0.480,-0.100,0.000,0.000,0.000,Frame 677
27.496,-0.242,0.480,-0.100,0.000,0.000,0.000,Frame 678
27.536,-0.242,0.480,-0.100,0.000,0.000,0.000,Frame 679
27.576,-0.232,0.480,-0.100,0.000,0.000,0.000,Frame 680
27.616,-0.211,0.480,-0.100,0.000,0.000,0.000,Frame 681
27.656,-0.209,0.480,-0.100,0.000,0.000,0.000,Frame 682
27.696,-0.201,0.480,-0.100,0.000,0.000,0.000,Frame 683
27.736,-0.198,0.480,-0.100,0.000,0.000,0.000,Frame 684
27.776,-0.191,0.480,-0.100,0.000,0.000,0.000,Frame 685
27.816,-0.188,0.480,-0.100,0.000,0.000,0.000,Frame 686
27.856,-0.179,0.480,-0.100,0.000,0.000,0.000,Frame 687
27.896,-0.206,0.480,-0.100,0.000,0.000,0.000,Frame 688
27.936,-0.199,0.480,-0.100,0.000,0.000,0.000,Frame 689
27.976,-0.187,0.480,-0.100,0.000,0.000,0.000,Frame 690
28.016,-0.196,0.480,-0.100,0.000,0.000,0.000,Frame 691
28.056,-0.201,0.480,-0.100,0.000,0.000,0.000,Frame 692
28.096,-0.174,0.480,-0.100,0.000,0.000,0.000,Frame 693
28.136,-0.176,0.480,-0.100,0.000,0.000,0.000,Frame 694
28.176,-0.186,0.480,-0.100,0.000,0.000,0.000,Frame 695
28.216,-0.167,2.480,-0.100,0.000,0.000,0.000,Frame 696
28.256,-0.187,0.480,-0.100,0.000,0.000,0.000,Frame 697
28.296,-0.249,0.480,-0.100,0.000,0.000,0.000,Frame 698
28.336,-0.244,0.480,-0.100,0.000,0.000,0.000,Frame 699
28.376,-0.247,0.480,-0.100,0.000,0.000,0.000,Frame 700
28.497,-0.036,2.480,-0.100,0.000,0.000,0.000,Frame 701
28.857,-0.217,0.480,-0.100,0.000,0.000,0.000,Frame 702
28.897,-0.226,0.480,-0.100,0.000,0.000,0.000,Frame 703
28.937,-0.196,0.480,-0.100,0.000,0.000,0.000,Frame 704
28.977,-0.166,0.480,-0.100,0.000,0.000,0.000,Frame 705
29.017,-0.170,0.480,-0.100,0.000,0.000,0.000,Frame 706
29.057,-0.144,0.480,-0.100,0.000,0.000,0.000,Frame 707
29.097,-0.130,0.480,-0.100,0.000,0.000,0.000,Frame 708
29.137,-0.121,0.480,-0.100,0.000,0.000,0.000,Frame 709
29.177,-0.111,0.480,-0.100,0.000,0.000,0.000,Frame 710
29.217,-0.090,0.480,-0.100,0.000,0.000,0.000,Frame 711
29.257,-0.085,0.480,-0.100,0.000,0.000,0.000,Frame 712
29.297,-0.087,0.480,-0.100,0.000,0.000,0.000,Frame 713
29.337,-0.088,0.480,-0.100,0.000,0.000,0.000,Frame 714
29.377,-0.102,0.480,-0.100,0.000,0.000,0.000,Frame 715
29.417,-0.104,0.480,-0.100,0.000,0.000,0.000,Frame 716
29.457,-0.086,0.480,-0.100,0.000,0.000,0.000,Frame 717
29.497,-0.081,0.480,-0.100,0.000,0.000,0.000,Frame 718
29.537,-0.102,0.480,-0.100,0.000,0.000,0.000,Frame 719
29.577,-0.122,0.480,-0.100,0.000,0.000,0.000,Frame 720
29.617,-0.199,0.480,-0.100,0.000,0.000,0.000,Frame 721
29.657,-0.197,0.480,-0.100,0.000,0.000,0.000,Frame 722
29.697,-0.193,0.480,-0.100,0.000,0.000,0.000,Frame 723
29.737,-0.260,0.480,-0.100,0.000,0.000,0.000,Frame 724
29.777,-0.202,0.480,-0.100,0.000,0.000,0.000,Frame 725
29.817,-0.190,0.480,-0.100,0.000,0.000,0.000,Frame 726
29.857,-0.249,0.480,-0.100,0.000,0.000,0.000,Frame 727
29.897,-0.246,0.480,-0.100,0.000,0.000,0.000,Frame 728
29.937,-0.229,0.480,-0.100,0.000,0.000,0.000,Frame 729
29.977,-0.208,0.480,-0.100,0.000,0.000,0.000,Frame 730
30.017,-0.191,0.480,-0.100,0.000,0.000,0.000,Frame 731
30.057,-0.171,0.480,-0.100,0.000,0.000,0.000,Frame 732
30.097,-0.042,0.480,-0.100,0.000,0.000,0.000,Frame 733
30.137,0.083,0.480,-0.100,0.000,0.000,0.000,Frame 734
30.177,0.070,2.480,-0.100,0.000,0.000,0.000,Frame 735
30.218,0.132,2.480,-0.100,0.000,0.000,0.000,Frame 736
30.258,0.049,2.480,-0.100,0.000,0.000,0.000,Frame 737
30.298,0.137,2.463,-0.100,0.000,0.000,0.000,Frame 738
30.338,0.065,2.349,-0.100,0.000,0.000,0.000,Frame 739
30.378,0.035,2.263,-0.100,0.000,0.000,0.000,Frame 740
30.418,0.041,2.169,-0.100,0.000,0.000,0.000,Frame 741
30.458,0.090,2.139,-0.100,0.000,0.000,0.000,Frame 742
30.498,0.160,2.183,-0.100,0.000,0.000,0.000,Frame 743
30.538,-0.261,2.480,-0.100,0.000,0.000,0.000,Frame 744
30.578,0.139,1.783,-0.100,0.000,0.000,0.000,Frame 745
30.618,-0.203,2.441,-0.100,0.000,0.000,0.000,Frame 746
30.658,0.007,1.723,-0.100,0.000,0.000,0.000,Frame 747
30.738,-0.210,2.480,-0.100,0.000,0.000,0.000,Frame 748
30.778,-0.238,0.480,-0.100,0.000,0.000,0.000,Frame 749
30.818,-0.254,0.480,-0.100,0.000,0.000,0.000,Frame 750
31.378,-0.224,0.480,-0.100,0.000,0.000,0.000,Frame 751
31.418,-0.194,0.480,-0.100,0.000,0.000,0.000,Frame 752
31.458,-0.188,0.480,-0.100,0.000,0.000,0.000,Frame 753
31.498,-0.187,2.480,-0.100,0.000,0.000,0.000,Frame 754
31.538,-0.184,2.480,-0.100,0.000,0.000,0.000,Frame 755
31.578,-0.181,2.480,-0.100,0.000,0.000,0.000,Frame 756
31.618,-0.186,2.480,-0.100,0.000,0.000,0.000,Frame 757
31.698,-0.026,0.552,-0.100,0.000,0.000,0.000,Frame 758
31.738,-0.021,2.462,-0.100,0.000,0.000,0.000,Frame 759
31.778,0.145,1.995,-0.100,0.000,0.000,0.000,Frame 760
31.898,0.259,2.079,-0.100,0.000,0.000,0.000,Frame 761
31.939,-0.176,2.480,-0.100,0.000,0.000,0.000,Frame 762
31.979,-0.217,2.480,-0.100,0.000,0.000,0.000,Frame 763
32.019,-0.157,0.480,-0.100,0.000,0.000,0.000,Frame 764
32.059,-0.298,2.480,-0.100,0.000,0.000,0.000,Frame 765
32.099,-0.348,2.480,-0.100,0.000,0.000,0.000,Frame 766
32.179,-0.176,1.347,-0.100,0.000,0.000,0.000,Frame 767
32.219,0.017,1.634,-0.100,0.000,0.000,0.000,Frame 768
32.259,-0.012,1.455,-0.100,0.000,0.000,0.000,Frame 769
32.499,0.071,0.480,-0.100,0.000,0.000,0.000,Frame 770
32.539,-0.158,0.480,-0.100,0.000,0.000,0.000,Frame 771
32.579,-0.169,0.480,-0.100,0.000,0.000,0.000,Frame 772
32.699,0.153,2.480,-0.100,0.000,0.000,0.000,Frame 773
32.739,0.346,1.450,-0.100,0.000,0.000,0.000,Frame 774
32.819,-0.017,2.480,-0.100,0.000,0.000,0.000,Frame 775
32.859,-0.015,2.480,-0.100,0.000,0.000,0.000,Frame 776
32.899,-0.138,2.480,-0.100,0.000,0.000,0.000,Frame 777
32.939,-0.120,2.480,-0.100,0.000,0.000,0.000,Frame 778
32.979,-0.077,0.480,-0.100,0.000,0.000,0.000,Frame 779
33.019,-0.032,0.480,-0.100,0.000,0.000,0.000,Frame 780
33.059,-0.031,0.480,-0.100,0.000,0.000,0.000,Frame 781
33.099,-0.015,2.480,-0.100,0.000,0.000,0.000,Frame 782
33.139,-0.008,2.480,-0.100,0.000,0.000,0.000,Frame 783
33.179,-0.015,2.480,-0.100,0.000,0.000,0.000,Frame 784
33.219,-0.035,2.480,-0.100,0.000,0.000,0.000,Frame 785
33.259,-0.053,2.480,-0.100,0.000,0.000,0.000,Frame 786
33.299,-0.050,2.480,-0.100,0.000,0.000,0.000,Frame 787
33.339,-0.056,2.480,-0.100,0.000,0.000,0.000,Frame 788
33.379,-0.073,2.480,-0.100,0.000,0.000,0.000,Frame 789
33.419,-0.090,2.480,-0.100,0.000,0.000,0.000,Frame 790
33.459,-0.068,2.480,-0.100,0.000,0.000,0.000,Frame 791
33.499,-0.094,2.480,-0.100,0.000,0.000,0.000,Frame 792
33.539,-0.108,2.480,-0.100,0.000,0.000,0.000,Frame 793
33.579,-0.160,2.480,-0.100,0.000,0.000,0.000,Frame 794
33.619,-0.155,2.480,-0.100,0.000,0.000,0.000,Frame 795
33.659,-0.169,2.480,-0.100,0.000,0.000,0.000,Frame 796
33.700,-0.176,2.480,-0.100,0.000,0.000,0.000,Frame 797
33.740,-0.180,0.480,-0.100,0.000,0.000,0.000,Frame 798
33.780,-0.190,2.480,-0.100,0.000,0.000,0.000,Frame 799
33.820,-0.192,0.480,-0.100,0.000,0.000,0.000,Frame 800
33.860,-0.175,0.480,-0.100,0.000,0.000,0.000,Frame 801
33.900,-0.170,0.480,-0.100,0.000,0.000,0.000,Frame 802
33.940,-0.162,0.480,-0.100,0.000,0.000,0.000,Frame 803
33.980,-0.232,0.480,-0.100,0.000,0.000,0.000,Frame 804
34.020,-0.230,2.480,-0.100,0.000,0.000,0.000,Frame 805
34.060,-0.196,2.480,-0.100,0.000,0.000,0.000,Frame 806
34.100,-0.173,2.480,-0.100,0.000,0.000,0.000,Frame 807
34.140,-0.168,2.480,-0.100,0.000,0.000,0.000,Frame 808
34.180,-0.171,2.480,-0.100,0.000,0.000,0.000,Frame 809
34.220,-0.170,2.480,-0.100,0.000,0.000,0.000,Frame 810
34.260,-0.143,2.480,-0.100,0.000,0.000,0.000,Frame 811
34.300,-0.132,2.480,-0.100,0.000,0.000,0.000,Frame 812
34.340,-0.124,2.480,-0.100,0.000,0.000,0.000,Frame 813
34.380,-0.111,2.480,-0.100,0.000,0.000,0.000,Frame 814
34.420,-0.119,0.480,-0.100,0.000,0.000,0.000,Frame 815
34.460,-0.128,2.480,-0.100,0.000,0.000,0.000,Frame 816
34.500,-0.128,0.480,-0.100,0.000,0.000,0.000,Frame 817
34.540,-0.128,0.480,-0.100,0.000,0.000,0.000,Frame 818
34.580,-0.085,0.480,-0.100,0.000,0.000,0.000,Frame 819
34.620,-0.112,0.480,-0.100,0.000,0.000,0.000,Frame 820
34.660,-0.123,0.480,-0.100,0.000,0.000,0.000,Frame 821
34.700,-0.132,0.480,-0.100,0.000,0.000,0.000,Frame 822
34.740,-0.158,0.480,-0.100,0.000,0.000,0.000,Frame 823
34.780,-0.184,0.480,-0.100,0.000,0.000,0.000,Frame 824
34.820,-0.191,0.480,-0.100,0.000,0.000,0.000,Frame 825
34.860,-0.175,2.480,-0.100,0.000,0.000,0.000,Frame 826
34.900,-0.205,2.480,-0.100,0.000,0.000,0.000,Frame 827
34.940,-0.220,0.480,-0.100,0.000,0.000,0.000,Frame 828
34.980,-0.211,2.480,-0.100,0.000,0.000,0.000,Frame 829
35.020,-0.195,2.480,-0.100,0.000,0.000,0.000,Frame 830
35.060,-0.193,2.480,-0.100,0.000,0.000,0.000,Frame 831
35.340,-0.194,0.480,-0.100,0.000,0.000,0.000,Frame 832
35.380,-0.206,2.480,-0.100,0.000,0.000,0.000,Frame 833
35.421,-0.207,2.480,-0.100,0.000,0.000,0.000,Frame 834
35.461,-0.209,0.480,-0.100,0.000,0.000,0.000,Frame 835
35.501,-0.260,0.480,-0.100,0.000,0.000,0.000,Frame 836
35.541,-0.264,0.480,-0.100,0.000,0.000,0.000,Frame 837
35.581,-0.253,0.480,-0.100,0.000,0.000,0.000,Frame 838
35.621,-0.264,0.480,-0.100,0.000,0.000,0.000,Frame 839
35.661,-0.249,0.480,-0.100,0.000,0.000,0.000,Frame 840
35.701,-0.222,0.480,-0.100,0.000,0.000,0.000,Frame 841
35.741,-0.198,0.480,-0.100,0.000,0.000,0.000,Frame 842
35.781,-0.203,0.480,-0.100,0.000,0.000,0.000,Frame 843
35.821,-0.194,0.480,-0.100,0.000,0.000,0.000,Frame 844
35.861,-0.194,0.480,-0.100,0.000,0.000,0.000,Frame 845
35.901,-0.190,0.480,-0.100,0.000,0.000,0.000,Frame 846
35.941,-0.180,0.480,-0.100,0.000,0.000,0.000,Frame 847
35.981,-0.168,0.480,-0.100,0.000,0.000,0.000,Frame 848
36.021,-0.167,0.480,-0.100,0.000,0.000,0.000,Frame 849
36.101,-0.605,1.029,-0.100,0.000,0.000,0.000,Frame 850
36.181,-0.695,1.271,-0.100,0.000,0.000,0.000,Frame 851
36.221,-0.696,2.480,-0.100,0.000,0.000,0.000,Frame 852
36.261,-0.701,2.480,-0.100,0.000,0.000,0.000,Frame 853
36.301,-0.696,2.480,-0.100,0.000,0.000,0.000,Frame 854
36.341,-0.691,2.480,-0.100,0.000,0.000,0.000,Frame 855
36.381,-0.691,0.480,-0.100,0.000,0.000,0.000,Frame 856
36.421,-0.697,0.480,-0.100,0.000,0.000,0.000,Frame 857
36.461,-0.695,2.480,-0.100,0.000,0.000,0.000,Frame 858
36.501,-0.695,0.480,-0.100,0.000,0.000,0.000,Frame 859
36.541,-0.689,0.480,-0.100,0.000,0.000,0.000,Frame 860
36.621,-0.148,2.480,-0.100,0.000,0.000,0.000,Frame 861
36.661,-0.158,2.480,-0.100,0.000,0.000,0.000,Frame 862
36.701,-0.132,2.480,-0.100,0.000,0.000,0.000,Frame 863
36.741,-0.159,2.480,-0.100,0.000,0.000,0.000,Frame 864
36.781,-0.161,2.480,-0.100,0.000,0.000,0.000,Frame 865
36.821,-0.156,2.480,-0.100,0.000,0.000,0.000,Frame 866
36.861,-0.140,2.480,-0.100,0.000,0.000,0.000,Frame 867
36.901,-0.151,2.480,-0.100,0.000,0.000,0.000,Frame 868
36.941,-0.121,2.480,-0.100,0.000,0.000,0.000,Frame 869
36.981,-0.119,2.480,-0.100,0.000,0.000,0.000,Frame 870
37.021,-0.103,2.480,-0.100,0.000,0.000,0.000,Frame 871
37.061,-0.110,2.480,-0.100,0.000,0.000,0.000,Frame 872
37.101,-0.074,2.480,-0.100,0.000,0.000,0.000,Frame 873
37.142,-0.082,2.480,-0.100,0.000,0.000,0.000,Frame 874
37.182,-0.052,2.480,-0.100,0.000,0.000,0.000,Frame 875
37.222,-0.057,2.480,-0.100,0.000,0.000,0.000,Frame 876
37.262,-0.125,2.480,-0.100,0.000,0.000,0.000,Frame 877
37.302,-0.113,2.480,-0.100,0.000,0.000,0.000,Frame 878
37.342,-0.098,2.480,-0.100,0.000,0.000,0.000,Frame 879
37.382,-0.147,0.480,-0.100,0.000,0.000,0.000,Frame 880
37.422,-0.192,2.480,-0.100,0.000,0.000,0.000,Frame 881
37.462,-0.196,2.480,-0.100,0.000,0.000,0.000,Frame 882
37.502,-0.200,2.480,-0.100,0.000,0.000,0.000,Frame 883
37.542,-0.204,2.480,-0.100,0.000,0.000,0.000,Frame 884
37.582,-0.189,2.480,-0.100,0.000,0.000,0.000,Frame 885
37.622,-0.201,2.480,-0.100,0.000,0.000,0.000,Frame 886
37.662,-0.163,2.480,-0.100,0.000,0.000,0.000,Frame 887
37.702,-0.139,2.480,-0.100,0.000,0.000,0.000,Frame 888
37.742,-0.154,2.480,-0.100,0.000,0.000,0.000,Frame 889
37.782,-0.136,2.480,-0.100,0.000,0.000,0.000,Frame 890
37.822,-0.141,2.480,-0.100,0.000,0.000,0.000,Frame 891
37.862,-0.146,2.480,-0.100,0.000,0.000,0.000,Frame 892
37.902,-0.153,2.480,-0.100,0.000,0.000,0.000,Frame 893
37.942,-0.153,2.480,-0.100,0.000,0.000,0.000,Frame 894
37.982,-0.137,2.480,-0.100,0.000,0.000,0.000,Frame 895
38.022,-0.134,2.480,-0.100,0.000,0.000,0.000,Frame 896
38.062,-0.137,2.480,-0.100,0.000,0.000,0.000,Frame 897
38.102,-0.136,0.480,-0.100,0.000,0.000,0.000,Frame 898
38.142,-0.136,0.480,-0.100,0.000,0.000,0.000,Frame 899
38.182,-0.143,0.480,-0.100,0.000,0.000,0.000,Frame 900
38.222,-0.142,0.480,-0.100,0.000,0.000,0.000,Frame 901
38.262,-0.142,0.480,-0.100,0.000,0.000,0.000,Frame 902
38.302,-0.143,0.480,-0.100,0.000,0.000,0.000,Frame 903
38.342,-0.155,0.480,-0.100,0.000,0.000,0.000,Frame 904
38.382,-0.161,0.480,-0.100,0.000,0.000,0.000,Frame 905
38.422,-0.153,0.480,-0.100,0.000,0.000,0.000,Frame 906
38.462,-0.159,0.480,-0.100,0.000,0.000,0.000,Frame 907
38.502,-0.152,0.480,-0.100,0.000,0.000,0.000,Frame 908
38.542,-0.161,0.480,-0.100,0.000,0.000,0.000,Frame 909
38.582,-0.167,0.480,-0.100,0.000,0.000,0.000,Frame 910
38.622,-0.161,0.480,-0.100,0.000,0.000,0.000,Frame 911
38.662,-0.161,0.480,-0.100,0.000,0.000,0.000,Frame 912
38.702,-0.198,0.480,-0.100,0.000,0.000,0.000,Frame 913
38.742,-0.196,0.480,-0.100,0.000,0.000,0.000,Frame 914
38.782,-0.202,0.480,-0.100,0.000,0.000,0.000,Frame 915
38.822,-0.217,0.480,-0.100,0.000,0.000,0.000,Frame 916
38.863,-0.188,0.480,-0.100,0.000,0.000,0.000,Frame 917
38.903,-0.159,0.480,-0.100,0.000,0.000,0.000,Frame 918
38.943,0.185,1.759,-0.100,0.000,0.000,0.000,Frame 919
38.983,-0.182,2.480,-0.100,0.000,0.000,0.000,Frame 920
39.063,-0.733,0.480,-0.100,0.000,0.000,0.000,Frame 921
39.103,-0.713,0.480,-0.100,0.000,0.000,0.000,Frame 922
39.143,-0.704,0.480,-0.100,0.000,0.000,0.000,Frame 923
39.183,-0.692,0.480,-0.100,0.000,0.000,0.000,Frame 924
39.223,-0.683,0.480,-0.100,0.000,0.000,0.000,Frame 925
39.263,-0.681,0.480,-0.100,0.000,0.000,0.000,Frame 926
39.303,-0.675,0.480,-0.100,0.000,0.000,0.000,Frame 927
39.343,-0.674,0.480,-0.100,0.000,0.000,0.000,Frame 928
39.383,-0.673,0.480,-0.100,0.000,0.000,0.000,Frame 929
39.423,-0.678,0.480,-0.100,0.000,0.000,0.000,Frame 930
39.463,-0.682,0.480,-0.100,0.000,0.000,0.000,Frame 931
39.503,-0.684,0.480,-0.100,0.000,0.000,0.000,Frame 932
39.543,-0.689,0.480,-0.100,0.000,0.000,0.000,Frame 933
39.583,-0.689,0.480,-0.100,0.000,0.000,0.000,Frame 934
39.623,-0.688,0.480,-0.100,0.000,0.000,0.000,Frame 935
39.663,-0.682,0.480,-0.100,0.000,0.000,0.000,Frame 936
39.703,-0.673,0.480,-0.100,0.000,0.000,0.000,Frame 937
39.743,-0.673,0.480,-0.100,0.000,0.000,0.000,Frame 938
39.783,-0.671,0.480,-0.100,0.000,0.000,0.000,Frame 939
39.823,-0.670,0.480,-0.100,0.000,0.000,0.000,Frame 940
39.863,-0.662,0.480,-0.100,0.000,0.000,0.000,Frame 941
39.903,-0.657,0.480,-0.100,0.000,0.000,0.000,Frame 942
39.943,-0.655,0.480,-0.100,0.000,0.000,0.000,Frame 943
39.983,-0.653,0.480,-0.100,0.000,0.000,0.000,Frame 944
40.023,-0.647,0.480,-0.100,0.000,0.000,0.000,Frame 945
40.063,-0.646,0.480,-0.100,0.000,0.000,0.000,Frame 946
40.103,-0.649,0.480,-0.100,0.000,0.000,0.000,Frame 947
40.143,-0.660,0.480,-0.100,0.000,0.000,0.000,Frame 948
40.183,-0.665,0.480,-0.100,0.000,0.000,0.000,Frame 949
40.223,-0.665,0.480,-0.100,0.000,0.000,0.000,Frame 950
40.263,-0.665,0.480,-0.100,0.000,0.000,0.000,Frame 951
40.303,-0.667,0.480,-0.100,0.000,0.000,0.000,Frame 952
40.343,-0.668,0.480,-0.100,0.000,0.000,0.000,Frame 953
40.383,-0.671,0.480,-0.100,0.000,0.000,0.000,Frame 954
40.423,-0.676,0.480,-0.100,0.000,0.000,0.000,Frame 955
40.463,-0.676,0.480,-0.100,0.000,0.000,0.000,Frame 956
40.503,-0.678,0.480,-0.100,0.000,0.000,0.000,Frame 957
40.543,-0.680,0.480,-0.100,0.000,0.000,0.000,Frame 958
40.584,-0.681,0.480,-0.100,0.000,0.000,0.000,Frame 959
40.624,-0.682,0.480,-0.100,0.000,0.000,0.000,Frame 960
40.664,-0.681,0.480,-0.100,0.000,0.000,0.000,Frame 961
40.704,-0.676,0.480,-0.100,0.000,0.000,0.000,Frame 962
40.744,-0.676,0.480,-0.100,0.000,0.000,0.000,Frame 963
40.784,-0.676,0.480,-0.100,0.000,0.000,0.000,Frame 964
40.824,-0.675,0.480,-0.100,0.000,0.000,0.000,Frame 965
40.864,-0.671,0.480,-0.100,0.000,0.000,0.000,Frame 966
40.984,-1.004,1.283,-0.100,0.000,0.000,0.000,Frame 967
41.024,-0.986,0.480,-0.100,0.000,0.000,0.000,Frame 968
41.064,-0.986,0.595,-0.100,0.000,0.000,0.000,Frame 969
41.104,-0.936,0.480,-0.100,0.000,0.000,0.000,Frame 970
41.144,-0.925,0.480,-0.100,0.000,0.000,0.000,Frame 971
41.184,-0.743,0.945,-0.100,0.000,0.000,0.000,Frame 972
41.224,-0.747,0.480,-0.100,0.000,0.000,0.000,Frame 973
41.264,-0.837,0.844,-0.100,0.000,0.000,0.000,Frame 974
41.304,-0.671,0.690,-0.100,0.000,0.000,0.000,Frame 975
41.344,-0.732,0.541,-0.100,0.000,0.000,0.000,Frame 976
41.384,-0.785,0.480,-0.100,0.000,0.000,0.000,Frame 977
41.424,-0.793,0.480,-0.100,0.000,0.000,0.000,Frame 978
41.464,-0.770,0.480,-0.100,0.000,0.000,0.000,Frame 979
41.664,-0.048,2.480,-0.100,0.000,0.000,0.000,Frame 980
41.704,-0.033,2.480,-0.100,0.000,0.000,0.000,Frame 981
41.824,-0.241,0.480,-0.100,0.000,0.000,0.000,Frame 982
41.864,0.037,0.480,-0.100,0.000,0.000,0.000,Frame 983
42.144,-0.041,1.943,-0.100,0.000,0.000,0.000,Frame 984
42.184,-0.249,0.480,-0.100,0.000,0.000,0.000,Frame 985
42.305,0.257,0.662,-0.100,0.000,0.000,0.000,Frame 986
42.345,0.246,0.613,-0.100,0.000,0.000,0.000,Frame 987
42.425,-0.130,0.480,-0.100,0.000,0.000,0.000,Frame 988
42.465,-0.193,0.480,-0.100,0.000,0.000,0.000,Frame 989
42.625,-0.031,0.480,-0.100,0.000,0.000,0.000,Frame 990
42.705,0.095,0.930,-0.100,0.000,0.000,0.000,Frame 991
42.745,0.163,1.336,-0.100,0.000,0.000,0.000,Frame 992
42.825,0.152,0.797,-0.100,0.000,0.000,0.000,Frame 993
42.865,0.100,0.576,-0.100,0.000,0.000,0.000,Frame 994
43.025,0.145,0.809,-0.100,0.000,0.000,0.000,Frame 995
43.345,-0.691,0.480,-0.100,0.000,0.000,0.000,Frame 996
43.385,-0.655,0.480,-0.100,0.000,0.000,0.000,Frame 997
43.425,-0.647,0.480,-0.100,0.000,0.000,0.000,Frame 998
43.465,-0.642,0.480,-0.100,0.000,0.000,0.000,Frame 999
43.505,-0.643,0.480,-0.100,0.000,0.000,0.000,Frame 1000
43.545,-0.635,0.480,-0.100,0.000,0.000,0.000,Frame 1001
43.585,-0.629,0.480,-0.100,0.000,0.000,0.000,Frame 1002
43.625,-0.623,0.480,-0.100,0.000,0.000,0.000,Frame 1003
43.665,-0.625,0.480,-0.100,0.000,0.000,0.000,Frame 1004
43.705,-0.627,0.480,-0.100,0.000,0.000,0.000,Frame 1005
43.745,-0.628,0.480,-0.100,0.000,0.000,0.000,Frame 1006
43.785,-0.629,0.480,-0.100,0.000,0.000,0.000,Frame 1007
43.825,-0.630,0.480,-0.100,0.000,0.000,0.000,Frame 1008
43.865,-0.630,0.480,-0.100,0.000,0.000,0.000,Frame 1009
43.905,-0.628,0.480,-0.100,0.000,0.000,0.000,Frame 1010
43.945,-0.627,0.480,-0.100,0.000,0.000,0.000,Frame 1011
43.985,-0.628,0.480,-0.100,0.000,0.000,0.000,Frame 1012
44.026,-0.630,0.480,-0.100,0.000,0.000,0.000,Frame 1013
44.066,-0.634,0.480,-0.100,0.000,0.000,0.000,Frame 1014
44.106,-0.635,0.480,-0.100,0.000,0.000,0.000,Frame 1015
44.146,-0.635,0.480,-0.100,0.000,0.000,0.000,Frame 1016
44.186,-0.634,0.480,-0.100,0.000,0.000,0.000,Frame 1017
44.226,-0.632,0.480,-0.100,0.000,0.000,0.000,Frame 1018
44.266,-0.631,0.480,-0.100,0.000,0.000,0.000,Frame 1019
44.306,-0.630,0.480,-0.100,0.000,0.000,0.000,Frame 1020
44.346,-0.621,0.480,-0.100,0.000,0.000,0.000,Frame 1021
44.386,-0.617,0.480,-0.100,0.000,0.000,0.000,Frame 1022
44.426,-0.615,0.480,-0.100,0.000,0.000,0.000,Frame 1023
44.466,-0.615,0.480,-0.100,0.000,0.000,0.000,Frame 1024
44.506,-0.616,0.480,-0.100,0.000,0.000,0.000,Frame 1025
44.546,-0.616,0.480,-0.100,0.000,0.000,0.000,Frame 1026
44.586,-0.617,0.480,-0.100,0.000,0.000,0.000,Frame 1027
44.626,-0.615,0.480,-0.100,0.000,0.000,0.000,Frame 1028
44.666,-0.613,0.480,-0.100,0.000,0.000,0.000,Frame 1029
44.706,-0.613,0.480,-0.100,0.000,0.000,0.000,Frame 1030
44.746,-0.614,0.480,-0.100,0.000,0.000,0.000,Frame 1031
44.786,-0.617,0.480,-0.100,0.000,0.000,0.000,Frame 1032
44.826,-0.617,0.480,-0.100,0.000,0.000,0.000,Frame 1033
44.866,-0.618,0.480,-0.100,0.000,0.000,0.000,Frame 1034
44.906,-0.616,2.480,-0.100,0.000,0.000,0.000,Frame 1035
44.946,-0.615,2.480,-0.100,0.000,0.000,0.000,Frame 1036
44.986,-0.613,2.480,-0.100,0.000,0.000,0.000,Frame 1037
45.026,-0.611,2.480,-0.100,0.000,0.000,0.000,Frame 1038
45.066,-0.606,0.480,-0.100,0.000,0.000,0.000,Frame 1039
45.106,-0.601,0.480,-0.100,0.000,0.000,0.000,Frame 1040
45.146,-0.600,0.480,-0.100,0.000,0.000,0.000,Frame 1041
45.186,-0.599,0.480,-0.100,0.000,0.000,0.000,Frame 1042
45.226,-0.599,0.480,-0.100,0.000,0.000,0.000,Frame 1043
45.266,-0.596,0.480,-0.100,0.000,0.000,0.000,Frame 1044
45.306,-0.595,0.480,-0.100,0.000,0.000,0.000,Frame 1045
45.346,-0.594,0.480,-0.100,0.000,0.000,0.000,Frame 1046
45.386,-0.593,0.480,-0.100,0.000,0.000,0.000,Frame 1047
45.426,-0.600,0.480,-0.100,0.000,0.000,0.000,Frame 1048
45.466,-0.621,0.480,-0.100,0.000,0.000,0.000,Frame 1049
45.506,-0.627,2.480,-0.100,0.000,0.000,0.000,Frame 1050
45.546,-0.622,0.480,-0.100,0.000,0.000,0.000,Frame 1051
45.586,-0.629,2.480,-0.100,0.000,0.000,0.000,Frame 1052
45.626,-0.637,2.480,-0.100,0.000,0.000,0.000,Frame 1053
45.666,-0.629,2.480,-0.100,0.000,0.000,0.000,Frame 1054
45.706,-0.640,2.480,-0.100,0.000,0.000,0.000,Frame 1055
45.747,-0.642,2.480,-0.100,0.000,0.000,0.000,Frame 1056
45.787,-0.641,2.480,-0.100,0.000,0.000,0.000,Frame 1057
45.827,-0.623,2.480,-0.100,0.000,0.000,0.000,Frame 1058
45.907,0.227,2.278,-0.100,0.000,0.000,0.000,Frame 1059
45.947,0.160,2.115,-0.100,0.000,0.000,0.000,Frame 1060
45.987,0.101,2.074,-0.100,0.000,0.000,0.000,Frame 1061
46.027,-0.085,2.480,-0.100,0.000,0.000,0.000,Frame 1062
46.067,-0.110,2.480,-0.100,0.000,0.000,0.000,Frame 1063
46.187,-0.106,2.480,-0.100,0.000,0.000,0.000,Frame 1064
46.227,-0.081,2.480,-0.100,0.000,0.000,0.000,Frame 1065
46.267,-0.033,2.171,-0.100,0.000,0.000,0.000,Frame 1066
46.307,0.048,1.962,-0.100,0.000,0.000,0.000,Frame 1067
46.347,0.035,1.947,-0.100,0.000,0.000,0.000,Frame 1068
47.147,-0.141,2.480,-0.100,0.000,0.000,0.000,Frame 1069
47.187,-0.112,2.480,-0.100,0.000,0.000,0.000,Frame 1070
47.227,-0.149,2.480,-0.100,0.000,0.000,0.000,Frame 1071
47.267,-0.148,2.480,-0.100,0.000,0.000,0.000,Frame 1072
47.307,-0.112,2.480,-0.100,0.000,0.000,0.000,Frame 1073
47.347,-0.014,2.383,-0.100,0.000,0.000,0.000,Frame 1074
47.387,0.003,2.102,-0.100,0.000,0.000,0.000,Frame 1075
47.427,-0.141,2.480,-0.100,0.000,0.000,0.000,Frame 1076
47.467,-0.170,2.480,-0.100,0.000,0.000,0.000,Frame 1077
47.588,-0.211,0.480,-0.100,0.000,0.000,0.000,Frame 1078
47.628,-0.202,0.480,-0.100,0.000,0.000,0.000,Frame 1079
47.668,-0.161,0.480,-0.100,0.000,0.000,0.000,Frame 1080
47.708,-0.143,0.480,-0.100,0.000,0.000,0.000,Frame 1081
47.748,-0.111,0.480,-0.100,0.000,0.000,0.000,Frame 1082
47.788,-0.085,0.480,-0.100,0.000,0.000,0.000,Frame 1083
47.828,-0.086,0.480,-0.100,0.000,0.000,0.000,Frame 1084
47.868,-0.067,0.480,-0.100,0.000,0.000,0.000,Frame 1085
47.908,-0.015,0.480,-0.100,0.000,0.000,0.000,Frame 1086
47.948,-0.030,0.480,-0.100,0.000,0.000,0.000,Frame 1087
47.988,-0.035,0.480,-0.100,0.000,0.000,0.000,Frame 1088
48.028,-0.052,0.480,-0.100,0.000,0.000,0.000,Frame 1089
48.068,-0.054,0.480,-0.100,0.000,0.000,0.000,Frame 1090
48.108,-0.052,0.480,-0.100,0.000,0.000,0.000,Frame 1091
48.148,-0.039,0.480,-0.100,0.000,0.000,0.000,Frame 1092
48.188,-0.042,0.480,-0.100,0.000,0.000,0.000,Frame 1093
48.228,-0.051,0.480,-0.100,0.000,0.000,0.000,Frame 1094
48.268,-0.031,0.480,-0.100,0.000,0.000,0.000,Frame 1095
48.308,-0.013,0.480,-0.100,0.000,0.000,0.000,Frame 1096
48.348,-0.010,0.480,-0.100,0.000,0.000,0.000,Frame 1097
48.388,-0.008,0.480,-0.100,0.000,0.000,0.000,Frame 1098
48.428,0.000,0.480,-0.100,0.000,0.000,0.000,Frame 1099
48.468,0.005,0.480,-0.100,0.000,0.000,0.000,Frame 1100
48.508,-0.009,0.480,-0.100,0.000,0.000,0.000,Frame 1101
48.548,0.013,0.480,-0.100,0.000,0.000,0.000,Frame 1102
48.588,0.021,0.480,-0.100,0.000,0.000,0.000,Frame 1103
48.628,-0.001,0.480,-0.100,0.000,0.000,0.000,Frame 1104
48.668,-0.000,0.480,-0.100,0.000,0.000,0.000,Frame 1105
48.708,-0.004,0.480,-0.100,0.000,0.000,0.000,Frame 1106
48.748,-0.027,0.480,-0.100,0.000,0.000,0.000,Frame 1107
48.788,-0.036,0.480,-0.100,0.000,0.000,0.000,Frame 1108
48.828,-0.055,0.480,-0.100,0.000,0.000,0.000,Frame 1109
48.868,-0.049,0.480,-0.100,0.000,0.000,0.000,Frame 1110
48.908,-0.046,0.480,-0.100,0.000,0.000,0.000,Frame 1111
48.948,-0.045,0.480,-0.100,0.000,0.000,0.000,Frame 1112
48.988,-0.044,0.480,-0.100,0.000,0.000,0.000,Frame 1113
49.028,-0.021,0.480,-0.100,0.000,0.000,0.000,Frame 1114
49.068,-0.012,0.480,-0.100,0.000,0.000,0.000,Frame 1115
49.108,-0.000,0.480,-0.100,0.000,0.000,0.000,Frame 1116
49.148,0.007,0.480,-0.100,0.000,0.000,0.000,Frame 1117
49.188,0.008,0.480,-0.100,0.000,0.000,0.000,Frame 1118
49.229,0.013,0.480,-0.100,0.000,0.000,0.000,Frame 1119
49.269,0.007,0.480,-0.100,0.000,0.000,0.000,Frame 1120
49.309,0.012,0.480,-0.100,0.000,0.000,0.000,Frame 1121
49.349,0.011,0.480,-0.100,0.000,0.000,0.000,Frame 1122
49.389,0.010,0.480,-0.100,0.000,0.000,0.000,Frame 1123
49.429,0.006,0.480,-0.100,0.000,0.000,0.000,Frame 1124
49.469,0.002,0.480,-0.100,0.000,0.000,0.000,Frame 1125
49.509,-0.010,0.480,-0.100,0.000,0.000,0.000,Frame 1126
49.549,-0.013,0.480,-0.100,0.000,0.000,0.000,Frame 1127
49.589,-0.015,0.480,-0.100,0.000,0.000,0.000,Frame 1128
49.629,-0.006,0.480,-0.100,0.000,0.000,0.000,Frame 1129
49.669,-0.009,0.480,-0.100,0.000,0.000,0.000,Frame 1130
49.709,-0.016,0.480,-0.100,0.000,0.000,0.000,Frame 1131
49.749,-0.024,0.480,-0.100,0.000,0.000,0.000,Frame 1132
49.789,-0.027,0.480,-0.100,0.000,0.000,0.000,Frame 1133
49.829,-0.038,0.480,-0.100,0.000,0.000,0.000,Frame 1134
49.869,-0.040,0.480,-0.100,0.000,0.000,0.000,Frame 1135
49.909,-0.046,0.480,-0.100,0.000,0.000,0.000,Frame 1136
49.949,-0.050,0.480,-0.100,0.000,0.000,0.000,Frame 1137
49.989,-0.040,0.480,-0.100,0.000,0.000,0.000,Frame 1138
50.029,-0.039,0.480,-0.100,0.000,0.000,0.000,Frame 1139
50.069,-0.030,0.480,-0.100,0.000,0.000,0.000,Frame 1140
50.109,-0.008,0.480,-0.100,0.000,0.000,0.000,Frame 1141
50.149,-0.003,0.480,-0.100,0.000,0.000,0.000,Frame 1142
50.189,-0.006,0.480,-0.100,0.000,0.000,0.000,Frame 1143
50.229,-0.013,0.480,-0.100,0.000,0.000,0.000,Frame 1144
50.269,-0.014,0.480,-0.100,0.000,0.000,0.000,Frame 1145
50.309,-0.011,0.480,-0.100,0.000,0.000,0.000,Frame 1146
50.349,0.005,0.480,-0.100,0.000,0.000,0.000,Frame 1147
50.389,0.009,0.480,-0.100,0.000,0.000,0.000,Frame 1148
50.429,0.008,0.480,-0.100,0.000,0.000,0.000,Frame 1149
50.469,0.016,0.480,-0.100,0.000,0.000,0.000,Frame 1150
50.509,0.013,0.480,-0.100,0.000,0.000,0.000,Frame 1151
50.549,0.014,0.480,-0.100,0.000,0.000,0.000,Frame 1152
50.589,0.013,0.480,-0.100,0.000,0.000,0.000,Frame 1153
50.629,0.022,0.480,-0.100,0.000,0.000,0.000,Frame 1154
50.669,-0.012,0.480,-0.100,0.000,0.000,0.000,Frame 1155
50.709,-0.027,0.480,-0.100,0.000,0.000,0.000,Frame 1156
50.749,-0.082,0.480,-0.100,0.000,0.000,0.000,Frame 1157
50.789,-0.083,0.480,-0.100,0.000,0.000,0.000,Frame 1158
50.829,-0.131,0.480,-0.100,0.000,0.000,0.000,Frame 1159
50.869,-0.158,0.480,-0.100,0.000,0.000,0.000,Frame 1160
50.909,-0.214,0.480,-0.100,0.000,0.000,0.000,Frame 1161
50.950,-0.236,0.480,-0.100,0.000,0.000,0.000,Frame 1162
50.990,-0.243,0.480,-0.100,0.000,0.000,0.000,Frame 1163
51.030,-0.227,0.480,-0.100,0.000,0.000,0.000,Frame 1164
51.070,-0.229,0.480,-0.100,0.000,0.000,0.000,Frame 1165
51.110,-0.226,0.480,-0.100,0.000,0.000,0.000,Frame 1166
51.150,-0.224,0.480,-0.100,0.000,0.000,0.000,Frame 1167
51.230,-0.082,0.480,-0.100,0.000,0.000,0.000,Frame 1168
51.270,-0.097,0.480,-0.100,0.000,0.000,0.000,Frame 1169
51.310,-0.096,0.480,-0.100,0.000,0.000,0.000,Frame 1170
51.350,-0.123,0.480,-0.100,0.000,0.000,0.000,Frame 1171
51.390,-0.146,0.480,-0.100,0.000,0.000,0.000,Frame 1172
51.430,-0.146,0.480,-0.100,0.000,0.000,0.000,Frame 1173
51.470,-0.149,0.480,-0.100,0.000,0.000,0.000,Frame 1174
51.510,-0.141,0.480,-0.100,0.000,0.000,0.000,Frame 1175
51.550,-0.155,0.480,-0.100,0.000,0.000,0.000,Frame 1176
51.590,-0.164,0.480,-0.100,0.000,0.000,0.000,Frame 1177
51.630,-0.156,0.480,-0.100,0.000,0.000,0.000,Frame 1178
51.670,-0.165,0.480,-0.100,0.000,0.000,0.000,Frame 1179
51.710,-0.156,0.480,-0.100,0.000,0.000,0.000,Frame 1180
51.750,-0.153,0.480,-0.100,0.000,0.000,0.000,Frame 1181
51.790,-0.151,0.480,-0.100,0.000,0.000,0.000,Frame 1182
51.830,-0.142,0.480,-0.100,0.000,0.000,0.000,Frame 1183
51.870,-0.134,0.480,-0.100,0.000,0.000,0.000,Frame 1184
51.910,-0.134,0.480,-0.100,0.000,0.000,0.000,Frame 1185
51.950,-0.135,0.480,-0.100,0.000,0.000,0.000,Frame 1186
51.990,-0.134,0.480,-0.100,0.000,0.000,0.000,Frame 1187
52.030,-0.132,0.480,-0.100,0.000,0.000,0.000,Frame 1188
52.070,-0.133,0.480,-0.100,0.000,0.000,0.000,Frame 1189
52.110,-0.132,0.480,-0.100,0.000,0.000,0.000,Frame 1190
52.150,-0.132,0.480,-0.100,0.000,0.000,0.000,Frame 1191
52.190,-0.137,0.480,-0.100,0.000,0.000,0.000,Frame 1192
52.230,-0.137,0.480,-0.100,0.000,0.000,0.000,Frame 1193
52.270,-0.141,0.480,-0.100,0.000,0.000,0.000,Frame 1194
52.310,-0.127,0.480,-0.100,0.000,0.000,0.000,Frame 1195
52.350,-0.129,0.480,-0.100,0.000,0.000,0.000,Frame 1196
52.390,-0.133,0.480,-0.100,0.000,0.000,0.000,Frame 1197
52.430,-0.134,0.480,-0.100,0.000,0.000,0.000,Frame 1198
52.470,-0.134,0.480,-0.100,0.000,0.000,0.000,Frame 1199
52.510,-0.135,0.480,-0.100,0.000,0.000,0.000,Frame 1200
52.550,-0.134,0.480,-0.100,0.000,0.000,0.000,Frame 1201
52.590,-0.134,0.480,-0.100,0.000,0.000,0.000,Frame 1202
52.630,-0.132,0.480,-0.100,0.000,0.000,0.000,Frame 1203
52.671,-0.136,0.480,-0.100,0.000,0.000,0.000,Frame 1204
52.711,-0.138,0.480,-0.100,0.000,0.000,0.000,Frame 1205
52.751,-0.133,0.480,-0.100,0.000,0.000,0.000,Frame 1206
52.791,-0.136,0.480,-0.100,0.000,0.000,0.000,Frame 1207
52.831,-0.136,0.480,-0.100,0.000,0.000,0.000,Frame 1208
52.871,-0.143,0.480,-0.100,0.000,0.000,0.000,Frame 1209
52.911,-0.148,0.480,-0.100,0.000,0.000,0.000,Frame 1210
52.951,-0.143,0.480,-0.100,0.000,0.000,0.000,Frame 1211
52.991,-0.140,0.480,-0.100,0.000,0.000,0.000,Frame 1212
53.031,-0.145,0.480,-0.100,0.000,0.000,0.000,Frame 1213
53.071,-0.131,0.480,-0.100,0.000,0.000,0.000,Frame 1214
53.111,-0.130,0.480,-0.100,0.000,0.000,0.000,Frame 1215
53.151,-0.118,0.480,-0.100,0.000,0.000,0.000,Frame 1216
53.191,-0.129,0.480,-0.100,0.000,0.000,0.000,Frame 1217
53.231,-0.165,0.480,-0.100,0.000,0.000,0.000,Frame 1218
53.271,-0.180,0.480,-0.100,0.000,0.000,0.000,Frame 1219
53.311,-0.194,0.480,-0.100,0.000,0.000,0.000,Frame 1220
53.351,-0.199,0.480,-0.100,0.000,0.000,0.000,Frame 1221
53.391,-0.191,0.480,-0.100,0.000,0.000,0.000,Frame 1222
53.431,-0.183,0.480,-0.100,0.000,0.000,0.000,Frame 1223
53.471,-0.174,0.480,-0.100,0.000,0.000,0.000,Frame 1224
53.511,-0.141,0.480,-0.100,0.000,0.000,0.000,Frame 1225
53.551,-0.140,0.480,-0.100,0.000,0.000,0.000,Frame 1226
53.591,-0.136,0.480,-0.100,0.000,0.000,0.000,Frame 1227
53.631,-0.127,0.480,-0.100,0.000,0.000,0.000,Frame 1228
53.671,-0.131,0.480,-0.100,0.000,0.000,0.000,Frame 1229
53.711,-0.136,0.480,-0.100,0.000,0.000,0.000,Frame 1230
53.751,-0.137,0.480,-0.100,0.000,0.000,0.000,Frame 1231
53.791,-0.147,0.480,-0.100,0.000,0.000,0.000,Frame 1232
53.831,-0.144,0.480,-0.100,0.000,0.000,0.000,Frame 1233
53.871,-0.144,0.480,-0.100,0.000,0.000,0.000,Frame 1234
53.911,-0.135,0.480,-0.100,0.000,0.000,0.000,Frame 1235
53.951,-0.126,0.480,-0.100,0.000,0.000,0.000,Frame 1236
53.991,-0.126,0.480,-0.100,0.000,0.000,0.000,Frame 1237
54.031,-0.120,0.480,-0.100,0.000,0.000,0.000,Frame 1238
54.071,-0.113,2.480,-0.100,0.000,0.000,0.000,Frame 1239
54.111,-0.079,0.480,-0.100,0.000,0.000,0.000,Frame 1240
54.151,-0.077,0.480,-0.100,0.000,0.000,0.000,Frame 1241
54.191,-0.077,0.480,-0.100,0.000,0.000,0.000,Frame 1242
54.231,-0.079,0.480,-0.100,0.000,0.000,0.000,Frame 1243
54.271,-0.078,0.480,-0.100,0.000,0.000,0.000,Frame 1244
54.311,-0.073,0.480,-0.100,0.000,0.000,0.000,Frame 1245
54.351,-0.069,0.480,-0.100,0.000,0.000,0.000,Frame 1246
54.392,-0.063,0.480,-0.100,0.000,0.000,0.000,Frame 1247
54.432,-0.051,0.480,-0.100,0.000,0.000,0.000,Frame 1248
54.472,-0.051,0.480,-0.100,0.000,0.000,0.000,Frame 1249
54.512,-0.064,0.480,-0.100,0.000,0.000,0.000,Frame 1250
54.552,-0.086,0.480,-0.100,0.000,0.000,0.000,Frame 1251
54.592,-0.092,0.480,-0.100,0.000,0.000,0.000,Frame 1252
54.632,-0.106,0.480,-0.100,0.000,0.000,0.000,Frame 1253
54.672,-0.097,0.480,-0.100,0.000,0.000,0.000,Frame 1254
54.712,-0.098,0.480,-0.100,0.000,0.000,0.000,Frame 1255
54.752,-0.115,0.480,-0.100,0.000,0.000,0.000,Frame 1256
54.792,-0.147,0.480,-0.100,0.000,0.000,0.000,Frame 1257
54.832,-0.161,0.480,-0.100,0.000,0.000,0.000,Frame 1258
54.872,-0.165,0.480,-0.100,0.000,0.000,0.000,Frame 1259
54.912,-0.170,0.480,-0.100,0.000,0.000,0.000,Frame 1260
54.952,-0.198,0.480,-0.100,0.000,0.000,0.000,Frame 1261
54.992,-0.183,0.480,-0.100,0.000,0.000,0.000,Frame 1262
55.032,-0.198,0.480,-0.100,0.000,0.000,0.000,Frame 1263
55.072,-0.191,0.480,-0.100,0.000,0.000,0.000,Frame 1264
55.112,-0.178,0.480,-0.100,0.000,0.000,0.000,Frame 1265
55.152,-0.181,0.480,-0.100,0.000,0.000,0.000,Frame 1266
55.192,-0.181,0.480,-0.100,0.000,0.000,0.000,Frame 1267
55.232,-0.169,0.480,-0.100,0.000,0.000,0.000,Frame 1268
55.272,-0.175,0.480,-0.100,0.000,0.000,0.000,Frame 1269
55.312,-0.194,0.480,-0.100,0.000,0.000,0.000,Frame 1270
55.352,-0.192,0.480,-0.100,0.000,0.000,0.000,Frame 1271
55.392,-0.191,0.480,-0.100,0.000,0.000,0.000,Frame 1272
55.432,-0.187,0.480,-0.100,0.000,0.000,0.000,Frame 1273
55.472,-0.187,0.480,-0.100,0.000,0.000,0.000,Frame 1274
55.512,-0.190,0.480,-0.100,0.000,0.000,0.000,Frame 1275
55.552,-0.202,0.480,-0.100,0.000,0.000,0.000,Frame 1276
55.592,-0.202,0.480,-0.100,0.000,0.000,0.000,Frame 1277
55.632,-0.209,0.480,-0.100,0.000,0.000,0.000,Frame 1278
55.672,-0.221,0.480,-0.100,0.000,0.000,0.000,Frame 1279
55.712,-0.231,0.480,-0.100,0.000,0.000,0.000,Frame 1280
55.752,-0.229,0.480,-0.100,0.000,0.000,0.000,Frame 1281
55.792,-0.226,0.480,-0.100,0.000,0.000,0.000,Frame 1282
55.832,-0.225,0.480,-0.100,0.000,0.000,0.000,Frame 1283
55.872,-0.223,0.480,-0.100,0.000,0.000,0.000,Frame 1284
55.912,-0.224,0.480,-0.100,0.000,0.000,0.000,Frame 1285
55.952,-0.228,0.480,-0.100,0.000,0.000,0.000,Frame 1286
55.992,-0.226,0.480,-0.100,0.000,0.000,0.000,Frame 1287
56.032,-0.220,0.480,-0.100,0.000,0.000,0.000,Frame 1288
56.072,-0.218,0.480,-0.100,0.000,0.000,0.000,Frame 1289
56.113,-0.220,0.480,-0.100,0.000,0.000,0.000,Frame 1290
56.153,-0.212,0.480,-0.100,0.000,0.000,0.000,Frame 1291
56.193,-0.215,0.480,-0.100,0.000,0.000,0.000,Frame 1292
56.233,-0.220,0.480,-0.100,0.000,0.000,0.000,Frame 1293
56.273,-0.226,0.480,-0.100,0.000,0.000,0.000,Frame 1294
56.313,-0.229,0.480,-0.100,0.000,0.000,0.000,Frame 1295
56.353,-0.228,0.480,-0.100,0.000,0.000,0.000,Frame 1296
56.393,-0.228,0.480,-0.100,0.000,0.000,0.000,Frame 1297
56.433,-0.230,0.480,-0.100,0.000,0.000,0.000,Frame 1298
56.473,-0.221,0.480,-0.100,0.000,0.000,0.000,Frame 1299
56.513,-0.221,0.480,-0.100,0.000,0.000,0.000,Frame 1300
56.553,-0.225,0.480,-0.100,0.000,0.000,0.000,Frame 1301
56.593,-0.234,0.480,-0.100,0.000,0.000,0.000,Frame 1302
56.633,-0.227,0.480,-0.100,0.000,0.000,0.000,Frame 1303
56.673,-0.225,0.480,-0.100,0.000,0.000,0.000,Frame 1304
56.713,-0.230,0.480,-0.100,0.000,0.000,0.000,Frame 1305
56.753,-0.230,0.480,-0.100,0.000,0.000,0.000,Frame 1306
56.793,-0.225,0.480,-0.100,0.000,0.000,0.000,Frame 1307
56.833,-0.225,0.480,-0.100,0.000,0.000,0.000,Frame 1308
56.873,-0.221,0.480,-0.100,0.000,0.000,0.000,Frame 1309
56.913,-0.209,0.480,-0.100,0.000,0.000,0.000,Frame 1310
56.953,-0.206,0.480,-0.100,0.000,0.000,0.000,Frame 1311
56.993,-0.203,0.480,-0.100,0.000,0.000,0.000,Frame 1312
57.033,-0.221,0.480,-0.100,0.000,0.000,0.000,Frame 1313
57.073,-0.217,0.480,-0.100,0.000,0.000,0.000,Frame 1314
57.113,-0.204,0.480,-0.100,0.000,0.000,0.000,Frame 1315
57.153,-0.198,0.480,-0.100,0.000,0.000,0.000,Frame 1316
57.193,-0.172,0.480,-0.100,0.000,0.000,0.000,Frame 1317
57.233,-0.152,0.480,-0.100,0.000,0.000,0.000,Frame 1318
57.273,-0.139,0.480,-0.100,0.000,0.000,0.000,Frame 1319
57.313,-0.135,0.480,-0.100,0.000,0.000,0.000,Frame 1320
57.353,-0.134,0.480,-0.100,0.000,0.000,0.000,Frame 1321
57.393,-0.130,0.480,-0.100,0.000,0.000,0.000,Frame 1322
57.433,-0.131,0.480,-0.100,0.000,0.000,0.000,Frame 1323
57.473,-0.127,0.480,-0.100,0.000,0.000,0.000,Frame 1324
57.513,-0.142,0.480,-0.100,0.000,0.000,0.000,Frame 1325
57.553,-0.131,0.480,-0.100,0.000,0.000,0.000,Frame 1326
57.593,-0.139,0.480,-0.100,0.000,0.000,0.000,Frame 1327
57.633,-0.148,0.480,-0.100,0.000,0.000,0.000,Frame 1328
57.673,-0.148,0.480,-0.100,0.000,0.000,0.000,Frame 1329
57.713,-0.145,0.480,-0.100,0.000,0.000,0.000,Frame 1330
57.753,-0.139,0.480,-0.100,0.000,0.000,0.000,Frame 1331
57.793,-0.131,0.480,-0.100,0.000,0.000,0.000,Frame 1332
57.834,-0.129,0.480,-0.100,0.000,0.000,0.000,Frame 1333
57.874,-0.138,0.480,-0.100,0.000,0.000,0.000,Frame 1334
57.914,-0.128,0.480,-0.100,0.000,0.000,0.000,Frame 1335
57.954,-0.128,0.480,-0.100,0.000,0.000,0.000,Frame 1336
57.994,-0.126,0.480,-0.100,0.000,0.000,0.000,Frame 1337
58.034,-0.125,0.480,-0.100,0.000,0.000,0.000,Frame 1338
58.074,-0.124,0.480,-0.100,0.000,0.000,0.000,Frame 1339
58.114,-0.121,0.480,-0.100,0.000,0.000,0.000,Frame 1340
58.154,-0.125,0.480,-0.100,0.000,0.000,0.000,Frame 1341
58.194,-0.113,0.480,-0.100,0.000,0.000,0.000,Frame 1342
58.234,-0.123,0.480,-0.100,0.000,0.000,0.000,Frame 1343
58.274,-0.127,0.480,-0.100,0.000,0.000,0.000,Frame 1344
58.314,-0.115,0.480,-0.100,0.000,0.000,0.000,Frame 1345
58.354,-0.125,2.480,-0.100,0.000,0.000,0.000,Frame 1346
58.394,-0.124,0.480,-0.100,0.000,0.000,0.000,Frame 1347
58.434,-0.112,0.480,-0.100,0.000,0.000,0.000,Frame 1348
58.474,-0.116,0.480,-0.100,0.000,0.000,0.000,Frame 1349
58.514,-0.109,2.480,-0.100,0.000,0.000,0.000,Frame 1350
58.554,-0.100,0.480,-0.100,0.000,0.000,0.000,Frame 1351
58.594,-0.090,0.480,-0.100,0.000,0.000,0.000,Frame 1352
58.874,-0.136,0.480,-0.100,0.000,0.000,0.000,Frame 1353
58.914,-0.118,2.480,-0.100,0.000,0.000,0.000,Frame 1354
58.954,-0.127,2.480,-0.100,0.000,0.000,0.000,Frame 1355
58.994,-0.121,2.480,-0.100,0.000,0.000,0.000,Frame 1356
59.034,-0.103,2.480,-0.100,0.000,0.000,0.000,Frame 1357
59.074,-0.096,0.480,-0.100,0.000,0.000,0.000,Frame 1358
59.114,-0.074,0.480,-0.100,0.000,0.000,0.000,Frame 1359
59.154,-0.088,2.480,-0.100,0.000,0.000,0.000,Frame 1360
59.194,-0.084,2.480,-0.100,0.000,0.000,0.000,Frame 1361
59.234,-0.065,2.480,-0.100,0.000,0.000,0.000,Frame 1362
59.274,-0.048,0.480,-0.100,0.000,0.000,0.000,Frame 1363
59.314,-0.051,2.480,-0.100,0.000,0.000,0.000,Frame 1364
59.354,-0.055,2.480,-0.100,0.000,0.000,0.000,Frame 1365
59.394,-0.064,2.480,-0.100,0.000,0.000,0.000,Frame 1366
59.434,-0.067,2.480,-0.100,0.000,0.000,0.000,Frame 1367
59.474,-0.066,2.480,-0.100,0.000,0.000,0.000,Frame 1368
59.514,-0.066,2.480,-0.100,0.000,0.000,0.000,Frame 1369
59.555,-0.061,2.480,-0.100,0.000,0.000,0.000,Frame 1370
59.595,-0.068,2.480,-0.100,0.000,0.000,0.000,Frame 1371
59.635,-0.069,2.480,-0.100,0.000,0.000,0.000,Frame 1372
59.675,-0.066,2.480,-0.100,0.000,0.000,0.000,Frame 1373
59.715,-0.069,2.480,-0.100,0.000,0.000,0.000,Frame 1374
59.755,-0.073,2.480,-0.100,0.000,0.000,0.000,Frame 1375
59.795,-0.081,2.480,-0.100,0.000,0.000,0.000,Frame 1376
59.835,-0.086,2.480,-0.100,0.000,0.000,0.000,Frame 1377
59.875,-0.084,2.480,-0.100,0.000,0.000,0.000,Frame 1378
59.915,-0.089,2.480,-0.100,0.000,0.000,0.000,Frame 1379
59.955,-0.088,2.480,-0.100,0.000,0.000,0.000,Frame 1380
59.995,-0.098,2.480,-0.100,0.000,0.000,0.000,Frame 1381
60.035,-0.117,2.480,-0.100,0.000,0.000,0.000,Frame 1382
60.075,-0.115,2.480,-0.100,0.000,0.000,0.000,Frame 1383
60.115,-0.112,2.480,-0.100,0.000,0.000,0.000,Frame 1384
60.155,-0.110,0.480,-0.100,0.000,0.000,0.000,Frame 1385
60.195,-0.117,0.480,-0.100,0.000,0.000,0.000,Frame 1386
60.235,-0.130,0.480,-0.100,0.000,0.000,0.000,Frame 1387
60.275,-0.157,0.480,-0.100,0.000,0.000,0.000,Frame 1388
60.315,-0.151,0.480,-0.100,0.000,0.000,0.000,Frame 1389
60.355,-0.166,0.480,-0.100,0.000,0.000,0.000,Frame 1390
60.395,-0.166,0.480,-0.100,0.000,0.000,0.000,Frame 1391
60.435,-0.165,0.480,-0.100,0.000,0.000,0.000,Frame 1392
60.475,-0.183,0.480,-0.100,0.000,0.000,0.000,Frame 1393
60.515,-0.182,0.480,-0.100,0.000,0.000,0.000,Frame 1394
60.555,-0.197,0.480,-0.100,0.000,0.000,0.000,Frame 1395
60.595,-0.196,0.480,-0.100,0.000,0.000,0.000,Frame 1396
60.635,-0.195,0.480,-0.100,0.000,0.000,0.000,Frame 1397
60.675,-0.187,0.480,-0.100,0.000,0.000,0.000,Frame 1398
60.715,-0.180,0.480,-0.100,0.000,0.000,0.000,Frame 1399
60.755,-0.176,0.480,-0.100,0.000,0.000,0.000,Frame 1400
60.795,-0.178,0.480,-0.100,0.000,0.000,0.000,Frame 1401
60.835,-0.169,0.480,-0.100,0.000,0.000,0.000,Frame 1402
60.875,-0.170,0.480,-0.100,0.000,0.000,0.000,Frame 1403
60.915,-0.172,0.480,-0.100,0.000,0.000,0.000,Frame 1404
60.955,-0.179,0.480,-0.100,0.000,0.000,0.000,Frame 1405
60.995,-0.179,0.480,-0.100,0.000,0.000,0.000,Frame 1406
61.035,-0.182,0.480,-0.100,0.000,0.000,0.000,Frame 1407
61.075,-0.181,0.480,-0.100,0.000,0.000,0.000,Frame 1408
61.115,-0.179,0.480,-0.100,0.000,0.000,0.000,Frame 1409
61.155,-0.176,0.480,-0.100,0.000,0.000,0.000,Frame 1410
61.195,-0.155,0.480,-0.100,0.000,0.000,0.000,Frame 1411
61.235,-0.140,0.480,-0.100,0.000,0.000,0.000,Frame 1412
61.275,-0.138,0.480,-0.100,0.000,0.000,0.000,Frame 1413
61.316,-0.146,0.480,-0.100,0.000,0.000,0.000,Frame 1414
61.356,-0.149,0.480,-0.100,0.000,0.000,0.000,Frame 1415
61.396,-0.143,0.480,-0.100,0.000,0.000,0.000,Frame 1416
61.436,-0.141,0.480,-0.100,0.000,0.000,0.000,Frame 1417
61.476,-0.137,0.480,-0.100,0.000,0.000,0.000,Frame 1418
61.516,-0.146,0.480,-0.100,0.000,0.000,0.000,Frame 1419
61.556,-0.148,0.480,-0.100,0.000,0.000,0.000,Frame 1420
61.596,-0.148,0.480,-0.100,0.000,0.000,0.000,Frame 1421
61.636,-0.147,0.480,-0.100,0.000,0.000,0.000,Frame 1422
61.676,-0.140,0.480,-0.100,0.000,0.000,0.000,Frame 1423
61.716,-0.137,0.480,-0.100,0.000,0.000,0.000,Frame 1424
61.756,-0.132,0.480,-0.100,0.000,0.000,0.000,Frame 1425
61.796,-0.120,0.480,-0.100,0.000,0.000,0.000,Frame 1426
61.836,-0.120,0.480,-0.100,0.000,0.000,0.000,Frame 1427
61.876,-0.118,0.480,-0.100,0.000,0.000,0.000,Frame 1428
